/* XPM */
static char *_f04ce6011db44518eaf347c356da150stGuUTtEenyz7Ac3[] = {
/* columns rows colors chars-per-pixel */
"500 500 256 2 ",
"   c None",
".  c #21391E",
"X  c #243C22",
"o  c #263A23",
"O  c #1F381E",
"+  c #2C4A2C",
"@  c #294428",
"#  c #2D4B32",
"$  c #324C34",
"%  c #354C35",
"&  c #335334",
"*  c #37573A",
"=  c #304E2F",
"-  c #3C643C",
";  c #3D481E",
":  c #46583A",
">  c #46522D",
",  c #48673D",
"<  c #7A783D",
"1  c #3C5C43",
"2  c #3E6344",
"3  c #4D5C42",
"4  c #456848",
"5  c #576847",
"6  c #4B7448",
"7  c #55774A",
"8  c #4B6C52",
"9  c #587757",
"0  c #507054",
"q  c #687655",
"w  c #6E7C62",
"e  c #5B7C61",
"r  c #598456",
"t  c #57814E",
"y  c #678859",
"u  c #718B5A",
"i  c #71926C",
"p  c #648F69",
"a  c #AC9739",
"s  c #B39C3C",
"d  c #AB8939",
"f  c #B5A23D",
"g  c #ADA23D",
"h  c #8A853C",
"j  c #949150",
"k  c #AB9A48",
"l  c #B59C47",
"z  c #B89A56",
"x  c #AA9551",
"c  c #B5A344",
"v  c #BAA544",
"b  c #BDAB4C",
"n  c #B9A749",
"m  c #AAA557",
"M  c #BDAC53",
"N  c #B8A758",
"B  c #BCB358",
"V  c #B5AC4C",
"C  c #8B956E",
"Z  c #91A870",
"A  c #AAA867",
"S  c #B7A966",
"D  c #B9B567",
"F  c #B9AA78",
"G  c #B8B776",
"H  c #ABAF73",
"J  c #AB9E65",
"K  c #C2AD4C",
"L  c #C2AB47",
"P  c #C4B34D",
"I  c #C2AE53",
"U  c #C4AA59",
"Y  c #C3B354",
"T  c #C3B45B",
"R  c #C5BA5C",
"E  c #CBBB5C",
"W  c #C9B856",
"Q  c #D2BD59",
"!  c #D2BE4E",
"~  c #C5AB67",
"^  c #C4B563",
"/  c #C5BA63",
"(  c #CBBC63",
")  c #CBBC6B",
"_  c #C7B769",
"`  c #D1BD65",
"'  c #CBBD73",
"]  c #CBBD7B",
"[  c #C7B776",
"{  c #CAB276",
"}  c #C29D61",
"|  c #BBC374",
" . c #BFC35E",
".. c #CCC35C",
"X. c #CAC558",
"o. c #D3C353",
"O. c #D3C45C",
"+. c #D4CB5C",
"@. c #D8C959",
"#. c #D3C754",
"$. c #CCC364",
"%. c #CDC36B",
"&. c #CAC868",
"*. c #D3C464",
"=. c #D4CB64",
"-. c #D3C46B",
";. c #D4CB6C",
":. c #DACB6C",
">. c #DACA65",
",. c #DBD36C",
"<. c #D7D267",
"1. c #CDC374",
"2. c #CDC37B",
"3. c #CDCB7B",
"4. c #C8C975",
"5. c #D2C574",
"6. c #D3CB74",
"7. c #DACC73",
"8. c #D1C57B",
"9. c #D3CB7C",
"0. c #DACD7B",
"q. c #D5D174",
"w. c #DBD474",
"e. c #DBD47C",
"r. c #DAD57B",
"t. c #CDD175",
"y. c #E1D679",
"u. c #E1D06E",
"i. c #C4AE3F",
"p. c #74A386",
"a. c #BBB589",
"s. c #B5B28F",
"d. c #A8AE95",
"f. c #C9B987",
"g. c #C7BB96",
"h. c #D0BB8D",
"j. c #C6BCA4",
"k. c #BAC58D",
"l. c #BBC9AC",
"z. c #CCC383",
"x. c #CCC48B",
"c. c #CACA86",
"v. c #D4CC83",
"b. c #D4CC8C",
"n. c #D6C986",
"m. c #D5D284",
"M. c #DBD484",
"N. c #DED984",
"B. c #D6D28B",
"V. c #DCD58B",
"C. c #DED98C",
"Z. c #D2D88D",
"A. c #CDC593",
"S. c #CCC799",
"D. c #D4CC93",
"F. c #D3CC9C",
"G. c #D6C798",
"H. c #D5D294",
"J. c #DBD594",
"K. c #DED993",
"L. c #DBD59B",
"P. c #DDDA9B",
"I. c #D6D39B",
"U. c #CBD38D",
"Y. c #E1DB8C",
"T. c #E1D986",
"R. c #E1DB94",
"E. c #E2DC9C",
"W. c #E1D797",
"Q. c #E0CD8E",
"!. c #E4E199",
"~. c #E4E08D",
"^. c #CCC7A6",
"/. c #D3CCA3",
"(. c #D4CCAB",
"). c #D5C7A7",
"_. c #D5D1A3",
"`. c #DBD4A3",
"'. c #DDDBA3",
"]. c #D6D2AC",
"[. c #DBD4AC",
"{. c #DEDBAB",
"}. c #D5DCA8",
"|. c #CCC8B5",
" X c #D4CBB3",
".X c #D7CCB8",
"XX c #D6D2B3",
"oX c #DAD4B4",
"OX c #DEDBB4",
"+X c #DAD5BB",
"@X c #DDDABC",
"#X c #D5D4BA",
"$X c #CBD5AC",
"%X c #E2DDA4",
"&X c #E2DEAB",
"*X c #E4D9A7",
"=X c #E2DEB4",
"-X c #E2DDBB",
";X c #E6D9B7",
":X c #E0CEB3",
">X c #DDE2B7",
",X c #E4E1A4",
"<X c #E4E1AB",
"1X c #E9E2AA",
"2X c #E5E2B4",
"3X c #E9E4B5",
"4X c #E5E2BC",
"5X c #E9E6BC",
"6X c #EAE9BC",
"7X c #F2EAB7",
"8X c #DDE191",
"9X c #DBD4C4",
"0X c #DEDBC3",
"qX c #DBD5CB",
"wX c #DEDBCC",
"eX c #D6D3C6",
"rX c #DCDBD4",
"tX c #DEDDDB",
"yX c #DAD6D2",
"uX c #D3CEC4",
"iX c #E2DDC3",
"pX c #E2DDCB",
"aX c #E4D8C7",
"sX c #E2DDD4",
"dX c #E2DEDB",
"fX c #E6DAD4",
"gX c #DDE2D9",
"hX c #DBE4C8",
"jX c #E5E3C3",
"kX c #E9E6C3",
"lX c #EBE8C5",
"zX c #E5E3CC",
"xX c #EAE6CB",
"cX c #ECEACB",
"vX c #E6EAC7",
"bX c #F1EBCB",
"nX c #E5E4D3",
"mX c #E9E6D3",
"MX c #EBEAD4",
"NX c #E3E3DC",
"BX c #E9E6DA",
"VX c #ECECDB",
"CX c #E6EAD7",
"ZX c #F1ECD7",
"AX c #EAF2D9",
"SX c #F2F1D7",
"DX c #E3DEE2",
"FX c #DFE2E2",
"GX c #E4E3E3",
"HX c #E9E6E3",
"JX c #EBEBE3",
"KX c #E8E8E8",
"LX c #ECF2E4",
"PX c #F2F1E6",
"IX c #DEDDE1",
"UX c #827D55",
/* pixels */
"                                                                                                                                                                                                                                                                                                                                                                                                                                                                                                                                                                                                                                                                                                                                                                                                                                                                                                                                                                                                                                        ",
"                                                                                                                                                                                                                                                                                                                                                                                                                                                                                                                                                                                                                                                                                                                                                                                                                                                                                                                                                                                                                                        ",
"                                                                                                                                                                                                                                                                                                                                                                                                                                                                                                                                                                                                                                                                                                                                                                                                                                                                                                                                                                                                                                        ",
"                                                                                                                                                                                                                                                                                                                                                                                                                                                                                                                                                                                                                                                                                                                                                                                                                                                                                                                                                                                                                                        ",
"                                                                                                                                                                                                                                                                                                                                                                                                                                                                                                                                                                                                                                                                                                                                                                                                                                                                                                                                                                                                                                        ",
"                                                                                                                                                                                                                                                                                                                                                                                                                                                                                                                                                                                                                                                                                                                                                                                                                                                                                                                                                                                                                                        ",
"                                                                                                                                                                                                                                                                                                                                                                                                                                                                                                                                                                                                                                                                                                                                                                                                                                                                                                                                                                                                                                        ",
"                                                                                                                                                                                                                                                                                                                                                                                                                                                                                                                                                                                                                                                                                                                                                                                                                                                                                                                                                                                                                                        ",
"                                                                                                                                                                                                                                                                                                                                                                                                                                                                                                                                                                                                                                                                                                                                                                                                                                                                                                                                                                                                                                        ",
"                                                                                                                                                                                                                                                                                                                                                                                                                                                                                                                                                                                                                                                                                                                                                                                                                                                                                                                                                                                                                                        ",
"                                                                                                                                                                                                                                                                                                                                                                                                                                                                                                                                                                                                                                                                                                                                                                                                                                                                                                                                                                                                                                        ",
"                                                                                                                                                                                                                                                                                                                                                                                                                                                                                                                                                                                                                                                                                                                                                                                                                                                                                                                                                                                                                                        ",
"                                                                                                                                                                                                                                                                                                                                                                                                                                                                                                                                                                                                                                                                                                                                                                                                                                                                                                                                                                                                                                        ",
"                                                                                                                                                                                                                                                                                                                                                                                                                                                                                                                                                                                                                                                                                                                                                                                                                                                                                                                                                                                                                                        ",
"                                                                                                                                                                                                                                                                                                                                                                                                                                                                                                                                                                                                                                                                                                                                                                                                                                                                                                                                                                                                                                        ",
"                                                                                                                                                                                                                                                                                                                                                                                                                                                                                                                                                                                                                                                                                                                                                                                                                                                                                                                                                                                                                                        ",
"                                                                                                                                                                                                                                                                                                                                                                                                                                                                                                                                                                                                                                                                                                                                                                                                                                                                                                                                                                                                                                        ",
"                                                                                                                                                                                                                                                                                                                                                                                                                                                                                                                                                                                                                                                                                                                                                                                                                                                                                                                                                                                                                                        ",
"                                                                                                                                                                                                                                                                                                                                                                                                                                                                                                                                                                                                                                                                                                                                                                                                                                                                                                                                                                                                                                        ",
"                                                                                                                                                                                                                                                                                                                                                                                                                                                                                                                                                                                                                                                                                                                                                                                                                                                                                                                                                                                                                                        ",
"                                                                                                                                                                                                                                                                                                                                                                                                                                                                                                                                                                                                                                                                                                                                                                                                                                                                                                                                                                                                                                        ",
"                                                                                                                                                                                                                                                                                                                                                                                                                                                                                                                                                                                                                                                                                                                                                                                                                                                                                                                                                                                                                                        ",
"                                                                                                                                                                                                                                                                                                                                                                                                                                                                                                                                                                                                                                                                                                                                                                                                                                                                                                                                                                                                                                        ",
"                                                                                                                                                                                                                                                                                                                                                                                                                                                                                                                                                                                                                                                                                                                                                                                                                                                                                                                                                                                                                                        ",
"                                                                                                                                                                                                                                                                                                                                                                                                                                                                                                                                                                                                                                                                                                                                                                                                                                                                                                                                                                                                                                        ",
"                                                                                                                                                                                                                                                                                                                                                                                                                                                                                                                                                                                                                                                                                                                                                                                                                                                                                                                                                                                                                                        ",
"                                                                                                                                                                                                                                                                                                                                                                                                                                                                                                                                                                                                                                                                                                                                                                                                                                                                                                                                                                                                                                        ",
"                                                                                                                                                                                                                                                                                                                                                                                                                                                                                                                                                                                                                                                                                                                                                                                                                                                                                                                                                                                                                                        ",
"                                                                                                                                                                                                                                                                                                                                                                                                                                                                                                                                                                                                                                                                                                                                                                                                                                                                                                                                                                                                                                        ",
"                                                                                                                                                                                                                                                                                                                                                                                                                                                                                                                                                                                                                                                                                                                                                                                                                                                                                                                                                                                                                                        ",
"                                                                                                                                                                                                                                                                                                                                                                                                                                                                                                                                                                                                                                                                                                                                                                                                                                                                                                                                                                                                                                        ",
"                                                                                                                                                                                                                                                                                                                                                                                                                                                                                                                                                                                                                                                                                                                                                                                                                                                                                                                                                                                                                                        ",
"                                                                                                                                                                                                                                                                                                                                                                                                                                                                                                                                                                                                                                                                                                                                                                                                                                                                                                                                                                                                                                        ",
"                                                                                                                                                                                                                                                                                                                                                                                                                                                                                                                                                                                                                                                                                                                                                                                                                                                                                                                                                                                                                                        ",
"                                                                                                                                                                                                                                                                                                                                                                                                                                                                                                                                                                                                                                                                                                                                                                                                                                                                                                                                                                                                                                        ",
"                                                                                                                                                                                                                                                                                                                                                                                                                                                                                                                                                                                                                                                                                                                                                                                                                                                                                                                                                                                                                                        ",
"                                                                                                                                                                                                                                                                                                                                                                                                                                                                                                                                                                                                                                                                                                                                                                                                                                                                                                                                                                                                                                        ",
"                                                                                                                                                                                                                                                                                                                                                                                                                                                                                                                                                                                                                                                                                                                                                                                                                                                                                                                                                                                                                                        ",
"                                                                                                                                                                                                                                                                                                                                                                                                                                                                                                                                                                                                                                                                                                                                                                                                                                                                                                                                                                                                                                        ",
"                                                                                                                                                                                                                                                                                                                                                                                                                                                                                                                                                                                                                                                                                                                                                                                                                                                                                                                                                                                                                                        ",
"                                                                                                                                                                                                                                                                                                                                                                                                                                                                                                                                                                                                                                                                                                                                                                                                                                                                                                                                                                                                                                        ",
"                                                                                                                                                                                                                                                                                                                                                                                                                                                                                                                                                                                                                                                                                                                                                                                                                                                                                                                                                                                                                                        ",
"                                                                                                                                                                                                                                                                                                                                                                                                                                                                                                                                                                                                                                                                                                                                                                                                                                                                                                                                                                                                                                        ",
"                                                                                                                                                                                                                                                                                                                                                                                                                                                                                                                                                                                                                                                                                                                                                                                                                                                                                                                                                                                                                                        ",
"                                                                                                                                                                                                                                                                                                                                                                                                                                                                                                                                                                                                                                                                                                                                                                                                                                                                                                                                                                                                                                        ",
"                                                                                                                                                                                                                                                                                                                                                                                                                                                                                                                                                                                                                                                                                                                                                                                                                                                                                                                                                                                                                                        ",
"                                                                                                                                                                                                                                                                                                                                                                                                                                                        j Z A H H G G G k.c.c.c.c.c.c.c.c.c.c.c.c.c.z.| G G G H H A                                                                                                                                                                                                                                                                                                                                                                                                                                                                                                                     ",
"                                                                                                                                                                                                                                                                                                                                                                                                                                    C H H G k.k.c.c.c.3.3.4.4.3.c.c.c.c.c.c.c.c.c.c.c.c.v.v.v.v.3.3.3.v.v.v.v.v.m.c.c.c.c.c.c.c.c.k.s.Z                                                                                                                                                                                                                                                                                                                                                                                                                                                                                                 ",
"                                                                                                                                                                                                                                                                                                                                                                                                                      A G k.c.c.c.c.c.c.c.c.c.c.c.3.3.3.3.3.3.3.c.c.c.c.v.v.c.m.v.v.v.v.v.v.m.v.v.v.v.v.v.v.v.v.v.v.v.v.v.9.v.v.v.v.c.c.c.c.c.c.c.G H                                                                                                                                                                                                                                                                                                                                                                                                                                                                                   ",
"                                                                                                                                                                                                                                                                                                                                                                                                          G k.c.k.c.c.c.c.c.3.3.3.9.9.9.3.9.9.9.9.9.9.v.m.m.m.m.m.m.B.B.B.B.B.B.m.m.B.B.B.m.m.m.m.m.m.v.v.m.v.v.v.0.9.9.9.9.9.9.9.6.9.9.6.6.9.9.9.v.c.c.b.b.c.z.x.                                                                                                                                                                                                                                                                                                                                                                                                                                                                      ",
"                                                                                                                                                                                                                                                                                                                                                                                                G k.c.c.c.c.c.c.4.3.3.4.4.3.3.3.9.9.v.0.v.v.m.m.m.m.m.m.m.m.B.B.B.B.V.V.V.V.B.B.B.B.B.B.B.B.B.B.B.B.B.B.m.m.m.m.m.m.m.e.9.9.9.9.9.9.9.9.9.9.9.9.4.3.3.3.c.c.b.v.c.c.U.Z.U.c.G                                                                                                                                                                                                                                                                                                                                                                                                                                                           ",
"                                                                                                                                                                                                                                                                                                                                                                                      H 2.3.3.3.c.c.c.4.4.4.3.3.3.9.9.9.9.9.m.M.m.M.M.M.B.B.B.m.B.V.B.V.B.V.B.B.V.V.V.V.V.V.B.B.B.B.V.V.V.V.B.B.B.B.B.B.B.B.B.B.B.m.m.m.m.m.m.m.v.v.v.v.v.v.0.0.m.m.m.v.c.c.c.c.9.t.4.3.3.c.c.c.b.A.k.                                                                                                                                                                                                                                                                                                                                                                                                                                                  ",
"                                                                                                                                                                                                                                                                                                                                                                              H c.4.3.2.2.4.2.9.4.3.3.3.3.3.9.9.m.m.m.m.e.m.m.m.B.B.B.B.V.V.V.V.V.V.V.V.V.V.V.V.B.B.B.V.B.B.B.B.B.B.J.V.J.B.J.B.B.B.B.B.V.B.V.B.B.B.B.m.M.M.M.M.B.B.m.m.m.m.m.m.m.m.m.m.m.m.B.m.9.9.0.0.0.9.v.v.B.B.c.c.b.c.2.                                                                                                                                                                                                                                                                                                                                                                                                                                          ",
"                                                                                                                                                                                                                                                                                                                                                                      H G k.4.3.4.4.3.9.9.9.8.3.9.q.9.m.m.m.m.e.e.M.M.M.M.V.V.V.B.B.B.B.V.V.V.V.J.J.J.J.J.J.J.J.J.J.J.J.J.J.J.J.J.J.J.J.J.J.J.J.J.J.J.J.J.J.J.V.V.B.B.B.V.V.V.V.B.B.B.B.B.B.B.B.V.m.m.m.m.m.m.v.m.M.M.v.v.v.v.m.2.m.m.v.c.v.v.c.c.A.x.                                                                                                                                                                                                                                                                                                                                                                                                                                  ",
"                                                                                                                                                                                                                                                                                                                                                                G | 4.4.3.4.3.3.3.t.3.3.3.9.m.m.0.9.e.e.m.m.M.M.M.V.C.B.B.B.J.B.B.B.J.J.J.J.J.J.J.J.J.J.J.J.J.J.J.J.J.J.J.J.J.J.J.J.J.J.J.J.J.J.J.J.J.J.J.J.J.J.J.J.J.V.V.V.V.V.V.J.B.B.B.B.B.B.V.V.B.B.B.V.B.B.B.J.J.J.B.b.b.n.B.B.v.v.v.m.m.v.n.b.b.z.c.x.H                                                                                                                                                                                                                                                                                                                                                                                                                           ",
"                                                                                                                                                                                                                                                                                                                                                        C G k.c.4.&.;.;.6.6.6.6.6.6.9.q.9.9.9.9.M.M.M.M.M.M.B.B.B.B.J.B.J.J.J.J.J.J.J.J.J.J.J.J.J.J.J.J.J.J.J.J.J.L.L.L.I.L.L.L.P.P.P.P.P.L.L.L.L.L.L.L.P.P.P.J.J.J.J.J.J.J.J.J.J.J.J.J.J.J.J.J.V.V.B.B.B.B.V.J.J.H.H.H.J.J.J.B.b.b.V.B.v.v.v.M.v.v.v.9.3.v.c.c.c.k.                                                                                                                                                                                                                                                                                                                                                                                                                    ",
"                                                                                                                                                                                                                                                                                                                                                  j | 4.4.4.4.4.6.;.6.6.6.6.6.6.6.q.q.q.9.9.9.m.m.M.B.B.B.B.B.B.J.J.J.J.J.J.J.J.J.J.J.J.J.J.J.J.J.J.L.L.P.P.P.P.L.L.L.L.L.P.P.P.P.P.P.P.P.P.P.P.P.P.P.P.P.P.P.P.P.P.L.L.J.J.J.J.J.J.J.J.J.J.J.J.J.J.J.J.J.J.H.H.H.I.I.H.H.H.J.H.b.b.b.b.b.v.v.v.v.v.9.9.3.3.3.3.c.c.b.A.a.                                                                                                                                                                                                                                                                                                                                                                                                              ",
"                                                                                                                                                                                                                                                                                                                                            j | 4.4.3.&.&.;.6.6.6.6.6.6.6.6.6.6.6.q.r.r.r.m.m.m.m.B.B.B.V.V.V.J.J.J.J.J.J.J.J.J.J.J.J.J.J.J.J.L.L.L.P.P.P.P.P.P.'.'.'.'.'.'.'.'.'.'.'.'.'.'.'.'.'.'.'.'.'.'.'.P.P.P.L.P.L.L.L.J.J.J.J.J.J.J.J.J.J.J.I.I.I.I.L.I.L.I.L.L.L.H.H.H.H.H.B.b.b.b.v.v.v.v.v.v.9.9.9.3.3.3.c.c.b.A.x.a.                                                                                                                                                                                                                                                                                                                                                                                                        ",
"                                                                                                                                                                                                                                                                                                                                        G c.c.4.4.4.;.;.6.6.6.%.9.9.9.6.6.6.q.q.q.q.r.r.m.m.B.B.B.B.V.V.V.V.J.J.J.J.J.J.J.J.J.J.J.J.P.P.L.P.P.P.P.P.P.P.P.'.'.'.'.'.'.'.'.'.'.'.'.'.'.'.'.'.'.'.'.'.'.'.'.'.'.'.'.'.'.'.'.P.P.P.P.P.J.J.I.I.L.L.I.P.L.L.L.`.`.`.I.I.I.I.I.I.I.I.H.H.H.H.b.b.b.b.b.b.b.b.b.b.c.c.B.v.c.c.c.c.v.v.c.c.a.C                                                                                                                                                                                                                                                                                                                                                                                                 ",
"                                                                                                                                                                                                                                                                                                                                  H k.c.4.4.4.&.&.;.;.6.6.6.6.9.9.3.9.6.6.6.q.q.q.e.M.M.V.V.V.V.V.V.C.V.K.K.J.J.J.J.J.J.J.J.J.J.P.P.P.P.P.P.P.P.'.'.'.'.'.'.'.'.'.{.{.{.{.{.{.{.{.{.{.{.{.{.{.{.{.{.{.{.{.{.{.'.'.'.'.'.'.'.'.'.P.P.P.P.L.P.'.'.'.'.`.`.`.`.`.`.L.L.L.L.L.I.L.I.I.I.L.L.I.H.D.H.D.D.D.D.D.b.b.b.z.z.c.v.3.3.3.3.3.3.c.b.A.H                                                                                                                                                                                                                                                                                                                                                                                             ",
"                                                                                                                                                                                                                                                                                                                            Z k.| 4.4.4.4.t.t.&.q.q.6.6.9.5.9.0.6.t.t.t.9.9.m.m.B.B.B.B.J.J.C.J.J.K.K.K.K.J.J.J.J.J.J.P.P.P.P.P.P.'.'.'.'.'.'.'.'.'.{.{.{.{.{.{.{.{.{.{.{.{.{.{.{.{.{.{.{.{.{.{.{.{.{.{.{.{.{.{.{.{.'.'.'.'.'.'.'.'.'.'.'.'.`.`.'.`.`.`.`.`.`.`.P.P.P.L.L.I.L.L.L.L._._._.I.F.F.L.L.L.L.H.D.D.D.b.b.v.v.9.9.3.3.9.3.1.2.3.m.c.c.J                                                                                                                                                                                                                                                                                                                                                                                       ",
"                                                                                                                                                                                                                                                                                                                      j H c.4.4.4.t.t.&.&.;.6.6.t.6.6.9.9.6.3.6.t.t.t.6.9.m.B.B.H.H.J.J.J.J.J.K.K.K.J.J.P.P.L.L.P.P.P.'.P.P.'.'.'.'.'.'.{.{.{.{.{.{.{.{.{.{.{.{.OXOXOXOXOXOXOXOXOXOX=X=XOXOXOXOXOXOXOX{.{.{.{.{.{.{.{.'.'.'.'.'.'.'.'.'.{.{.{.{.{.{.{.{.{.{.{.'.'.'.'.'.'.'.'.'.`.`.`.`.L.L.L.L.D.D.D.D.b.b.D.b.b.b.n.v.v.9.9.9.v.v.9.3.4.4.3.c.c.c.H j                                                                                                                                                                                                                                                                                                                                                                                 ",
"                                                                                                                                                                                                                                                                                                                  A | 3.3.4.&.6.6.6.q.q.9.9.9.q.e.q.6.;.;.t.;.t.6.6.q.e.M.M.V.V.J.J.J.J.J.P.J.J.P.P.P.P.P.'.'.'.'.'.{.'.{.{.{.{.{.{.{.{.{.&X{.{.OXOXOXOXOXOXOXOX2X=X=X2X=X=XOXOXOXOXOXOXOXOXOXOXOXOXOXOXOX{.{.{.{.{.{.{.{.{.{.'.{.{.{.{.{.{.[.[.{.{.{.{.{.{.{.{.*X&X*X{.`.`.`.P.L.J.J.B.B.v.v.v.b.b.b.v.v.v.b.v.b.b.B.b.b.b.n.n.2.9.9.9.9.3.3.z.z.c.b.c.a.A                                                                                                                                                                                                                                                                                                                                                                             ",
"                                                                                                                                                                                                                                                                                                              k.| 3.4.4.4.6.;.;.q.9.9.e.M.M.0.0.3.9.9.t.6.q.q.q.e.M.M.M.V.C.C.K.J.J.P.P.P.P.P.P.P.P.'.'.'.'.{.{.{.{.{.{.=XOX=X<X&X&X&X{.{.2X2X2XOXOXOXOXOXOXOXOX=X=X=XOXOXOXOXOXOXOXOXOXOXOXOXOX=XOXOXOXOXOXOXOXOXOX{.{.{.{.{.{.OXOX{.{.{.{.{.{.{.{.{.'.'.'.L.`.L.L.D.D.x.x.f.] [ [ D D D D D S S S S S S S D D D D ' 2.2.c.n.n.v.v.m.v.v.8.8.v.z.2.z.v.c.c.2.f.                                                                                                                                                                                                                                                                                                                                                                        ",
"                                                                                                                                                                                                                                                                                                          4.4.4.4.4.3.3.9.9.q.r.e.m.M.m.m.e.e.e.e.9.9.9.9.m.m.m.V.V.V.C.J.K.K.K.P.P.P.P.'.'.'.'.'.{.{.{.{.{.{.{.=XOX&XOX=XOXOXOX2X<X&XOXOXOX=X2X4XOXOXOXOXOX=X=X-X-XOXOXOXOXOXOXOXOX=X=X=X=X=XOXOXOX>X-XOXOXOXOX-XOXOX@X-XOXOXOX=X=XOXOX&X&X'.`.L.H.b.b.z.2.[ D D D D D D D D D D D D D D D S S S S S N N N N N m N N N N B B D _ ) 1.8.v.n.v.8.n.v.z.v.9.3.2.2.c.z.J                                                                                                                                                                                                                                                                                                                                                                   ",
"                                                                                                                                                                                                                                                                                                    H 4.4.4.&.6.6.3.9.9.9.e.9.m.m.m.m.m.m.e.e.e.e.m.m.m.m.B.V.V.C.J.J.J.P.P.P.P.P.P.'.'.'.'.'.{.{.{.{.{.{.{.OXOXOX2X=X2XOXOXOXOX=X=X=XOXOXOX4X4X-X-XOXOXOXOX=X=X-X-XOXOXOXOXOXOXOXOXOXOX=XOX=X=XOXOXOXOXOXOX-X-X-X-X-X-XOXOXOXOX{.{.`.F.F.A.x.z.G G S S S D D D G D G G G G G G [ G F A A A A A A A A A A A A A A A A A A m S S S S S S D ' 2.z.v.v.9.9.9.9.9.9.3.4.c.c.H                                                                                                                                                                                                                                                                                                                                                               ",
"                                                                                                                                                                                                                                                                                                H 2.c.4.4.4.t.6.6.9.e.m.m.m.m.m.M.M.M.m.m.m.m.m.m.m.m.V.V.V.V.J.J.J.P.P.P.P.P.%X'.'.'.'.'.'.{.{.{.{.OXOXOXOXOXOX2X2X2X2X2X2XOXOX>X>X4X4X-X-X4X4X-X-X=X2X=X=X=X=X=X2X2X=X=X=X=X-X>X>XOXOXOXOX=X>X2X2X-X=XOXOXOXOX=X{.{.&X&X'.I.H.c.z.G G G H A A H H H H G G H H A Z                                                           C C J A A A A A A D G 1.9.v.9.3.1.1.v.v.2.b.D.A                                                                                                                                                                                                                                                                                                                                                           ",
"                                                                                                                                                                                                                                                                                            H 3.4.3.4.4.t.t.;.6.e.e.M.M.V.B.V.V.V.V.V.m.m.m.m.m.m.V.V.V.J.K.K.P.P.P.P.P.'.%X%X'.'.'.{.{.{.{.{.{.&X=XOXOX=X=X=X2X2X2X2X2X2X=X=X-X4X4X-X-X-X-X4X-X-X=X2X2X=X2X2X2X<X<X2X=X2X2X2X=X>XOXOXOXOXOXOXOXOXOX=X2X3X2X{.{.'.L.D.x.f.G G G D S A A H H H H H H Z                                                                                     j C J A A A D G [ 2.v.v.v.8.9.v.v.c.c.H                                                                                                                                                                                                                                                                                                                                                       ",
"                                                                                                                                                                                                                                                                                        H 3.4.4.4.4.4.t.t.t.q.T.M.M.V.V.V.V.V.V.V.V.V.B.B.m.m.B.B.C.K.J.P.P.P.P.P.'.'.'.'.'.'.'.{.{.{.{.{.{.OXOX2X2XOXOX=X=X=X=X2X2X4X4X4X4X4X4X-XiX-X-X-X4X-X=X=X2X&X&X&X&X&X&XOXOX=X=X2X=X=X=X=XOXOX-X-X-X@X@X4X2XOX{.`.I.b.c.G G G D A A A H H H H H A                                                                                                           UXj j J H H [ f.n.v.3.9.3.3.c.c.H                                                                                                                                                                                                                                                                                                                                                   ",
"                                                                                                                                                                                                                                                                                    H 4.4.4.q.4.4.t.q.q.r.r.q.e.M.V.C.V.V.V.J.J.J.J.V.V.V.V.V.V.K.J.P.P.P.P.'.'.'.'.'.'.'.{.&X{.&X&X=X=XOXOXOX=X2X2XOX2X2X=X=X2X2X2X4X4X4X4X4X4XiXiXiX-X-X4X=X2X=X&X{.{.{.{.{.{.OXOXOX=X2X2XOX=X=X=X-X-X4X4X-X@XOX{.F.x.f.G D S D A A A H G G H A                                                                                                                             UXj j H G [ 1.4.3.m.c.c.A.H                                                                                                                                                                                                                                                                                                                                               ",
"                                                                                                                                                                                                                                                                                G 4.3.6.4.&.;.q.t.q.q.6.q.M.N.V.V.V.J.J.J.J.J.K.J.J.J.J.J.J.J.K.P.P.P.P.'.'.'.'.'.{.{.{.{.{.{.&X&X=X=X=XOXOXOXOX2X2X2X=X2X4X4X4X4X4X4X4X-X-X4X-XiXiXiX-X4X-X=X&X{.{.'.'.`.`.`.{.OXOXOXOX=X-X-X-X-X=X=X=XOX[._.F.f.a.G G S S A A A A A H H                                                                                                                                             q j J G G G 3.B.b.D.D.J                                                                                                                                                                                                                                                                                                                                           ",
"                                                                                                                                                                                                                                                                            A 3.3.&.;.;.;.6.6.q.q.r.r.e.N.M.M.C.J.J.J.J.J.J.P.P.P.P.P.P.P.P.P.E.%X%X'.'.'.'.&X{.{.{.{.{.&X&X&X&X=X=X=X=X=X=XOX>X2X2X4X4X4X4X4X4X4X4X-X-X-X4X4X-X-XiXiX-X4X2X&X&X{.'.`.`.`.`.`.`.[.[.OXOX-X-X-X-X-X=X&X`.I.A.f.G G D S A A A A A H A                                                                                                                                                         q j A H ] z.n.b.b.x.Z                                                                                                                                                                                                                                                                                                                                       ",
"                                                                                                                                                                                                                                                                          4.4.&.;.;.6.6.6.9.q.r.M.M.M.M.V.C.J.J.J.K.P.P.P.P.P.P.P.P.P.P.'.'.'.'.'.'.'.&X{.{.{.&X&X&X=X{.OXOX2X2X=X=X>XOXOX>X2X2X4X4X4X4X4X4X4X4X4X-X4X4X4X4X-X-X-X-X-X4X4X=X{.{.'.`.I.I.I._.`.`.{.{.{.OX=X-X-X;X;XF.A.z.[ D D N N S S A H H                                                                                                                                                                       q j J F ] z.v.Z.c.j                                                                                                                                                                                                                                                                                                                                   ",
"                                                                                                                                                                                                                                                                      H 3.t.$.q.;.;.6.6.9.m.e.M.M.M.V.V.J.J.J.P.P.P.P.P.P.P.P.P.'.'.%X%X'.'.'.'.{.{.&X&X&X=X=X=X=X&X2X2X2X2X2X2X=X=XOX>X>X>X2X4X4X-X-X4X-X4X-X-X-X-X4X4X4X4X-X-X-X4X4X4X2X&X{.'.`.I.I.I.`.`.`.'.`.'.<X2X2X=X[.F.x.f.[ D S N B B N A A A                                                                                                                                                                                   j A G c.c.I.x.                                                                                                                                                                                                                                                                                                                                ",
"                                                                                                                                                                                                                                                                  A U.4.&.t.;.$.;.6.6.e.m.m.m.m.V.V.J.J.P.P.P.P.P.P.'.'.%X'.'.'.'.'.'.'.&X&X{.&X{.{.{.OX=X=X=X=X2X2X2X2X2X2X2X2X2X2X2X2X4X4X4X4X-X-X4X4X-X4X-X-X-XjXjXjXjXjXjX-X4X4X4X2X=X{.{.`.`.`.L.L.`.'.'.'.&X&X%X%XL.D.z.[ D D S S D D D D H                                                                                                                                                                                             q C G a._./.Z                                                                                                                                                                                                                                                                                                                             ",
"                                                                                                                                                                                                                                                              Z 4.4.4.4.6.;.;.6.6.q.e.M.m.V.B.V.J.J.J.P.P.'.'.'.'.%X'.%X'.%X&X&X&X{.&X&X&X&X&X&X=X=X=X=X2X2X=X=X2X2X2X2X4X4X4X4X4X4X4X4X4X4X4X4XjX4XjXjXjXjXjXjXjXjXjXjXjXjXjX-X4X4X2X=X{.{.`.`.`.`.P.P.P.E.E.%X%X%XL.b.c.1./ D D B D D D D A                                                                                                                                                                                                       C H k.$X$X                                                                                                                                                                                                                                                                                                                          ",
"                                                                                                                                                                                                                                                            | 4.&.t.;.6.6.6.9.M.e.M.M.M.V.V.V.J.K.K.P.P.%X'.*X%X%X'.'.'.%X&X&X&X&X&X&X=X<X2X2X=X2X=X=X=X=X=X=X=X4X4X4X4X4X4X4X4X4X4X4X4X4X4X4X4XjXjXjXjXjXjXjXjXjXjXjXjXjXjXjX4X4X=X=XOX{.{.`.`.`.`.'.E.E.E.E.J.b.b.z.' / D B B B D D A                                                                                                                                                                                                                   C Z                                                                                                                                                                                                                                                                                                                           ",
"                                                                                                                                                                                                                                                        4.3.4.;.;.;.&.6.e.e.9.9.M.M.V.C.V.C.K.K.K.P.P.'.%X*X%X%X'.'.'.'.{.&X=X=X=X=X=X=X2X2X2X2X2X2X=X=X=X4X4X4X4X4X4X4X4X4X4X4X4X4X4X4X4X4X4X4XjXjXjXjXjXjXjXjXjXjXjXjXjXjXjXjX4X=XOX{.{.{.{.'.'.'.E.E.K.V.v.v.' ' _ D D D D D D m                                                                                                                                                                                                                                                                                                                                                                                                                                                                                                                                                     ",
"                                                                                                                                                                                                                                                    | 3.4.;.;.=.&.q.w.q.6.6.e.C.V.J.J.J.J.K.R.K.K.P.P.E.%X'.%X%X%X%X'.%X{.&X=X=X=X=X=X2X2X2X2X2X2X2X4X4X4X4X4X4X4X4XjX4XjX4XjX4XjX4XjX4XjX4XjXjXjXjXjXjXjXjXjXjXjXjXjXjXjXjXjXjX-X=X=XOXOX{.{.{.%X%XP.J.v.2.4./ R T B T / D S A                                                                                                                                                                                                                                                                                                                                                                                                                                                                                                                                                         ",
"                                                                                                                                                                                                                                                  | 3.&.;.;.=.;.6.q.q.q.r.e.m.M.J.J.J.P.P.K.R.R.P.P.P.'.'.'.&X%X%X%X%X&X&X=X=X=X2X2X=X=X2X2X2X2X2X4X4X4X4X4X4X4X4X4XjXjXjXjXjXjXjXjXjXjXjXjXjXjXjXjXjXjXjXjXjXjXjXjXjXjXjX4X4X4X-X-X-X=X=X=X&X&X%XJ.b.2.1./ / R R R / / D J                                                                                                                                                                                                                                                                                                                                                                                                                                                                                                                                                             ",
"                                                                                                                                                                                                                                              | 4.&.;.;.;.;.;.6.q.q.e.e.M.M.V.V.J.J.P.P.P.P.P.P.%X'.%X%X&X&X{.{.{.&X<X<X=X=X=X2X2X2X2X2X4X4X4X4X4X4X4X4X4X4X4X4X4X4X4X4X4X4XjXjXjXjXjXjXjXjXjXjXjXjXjXjXjXjXzXzXzXjXjXjXiX4X-X4X4X4X4X-X4X3X&XP.B.2.) ) ( R W Y T D D A                                                                                                                                                                                                                                                                                                                                                                                                                                                                                                                                                                 ",
"                                                                                                                                                                                                                                            4.4.&.;.;.;.;.q.q.q.e.e.m.M.M.V.V.J.J.K.P.P.P.P.P.P.%X%X&X&X&X&X{.{.&X&X=X=X=X=X2X2X2X2X2X2X4X4X4X4X4X4X4X4X4X4X4X4X4X4X4X4X4X4XjXjXjXjXjXjXjXjXjXjXjXjXjXjXjXzXzXzXzXzXjXjXjX4X4X4X-X4X5X4X=X*XL.b.1._ ( E Y E ( R / m                                                                                                                                                                                                                                                                                                                                                                                                                                                                                                                                                                     ",
"                                                                                                                                                                                                                                        H 3.4.t.;.;.;.q.q.q.q.r.M.M.M.M.V.C.C.K.K.K.P.P.P.E.E.%X'.{.{.&X&X&X{.{.&X<X=X2X=X=X2X2X-X4X4X4X4X4X4X4X4X4X4X4X4X4X4X4X4X4XjXjXjXjXjXjXjXjXjXjXzXzXjXjXjXjXjXjXzXzXzXzXzXjXjXjXjXjXjX4X4X2X3X&X`.D.z.' / $.R R / / D D                                                                                                                                                                                                                                                                                                                                                                                                                                                                                                                                                                         ",
"                                                                                                                                                                                                                                      k.U.4.4.;.;.;.q.q.q.r.r.m.M.M.M.V.C.K.K.K.P.P.P.P.E.%X%X%X'.{.&X&X&X&X&X&X2X2X2X2X=X2X2X4X4X4X4X4X4X4X4X4X4X4X4X4X4X4X4X4XjXjXjXjXjXjXjXjXjXjXjXjXzXzXjXzXzXzXzXzXzXzXzXzXzXjXjXjXjXjXjX4X2X<X'.H.b.2.) ( ( R R / D D                                                                                                                                                                                                                                                                                                                                                                                                                                                                                                                                                                             ",
"                                                                                                                                                                                                                                  A c.4.%.6.6.;.q.q.q.r.e.m.m.m.V.V.V.C.K.K.K.P.E.P.P.'.'.%X%X%X&X&X{.&X&X<X2X2X=X=X=X2X2X2X2X4X4X4X4X4X4X4X4X4X4X4X4X4XjXjXjXjXjXjXjXjXjXjXjXjXjXjXzXzXzXjXzXzXzXxXzXzXzXzXzXzXjXjXjXjXjXjXjX4X&XL.b.2.1.) ( E W R R &.                                                                                                                                                                                                                                                                                                                                                                                                                                                                                                                                                                                ",
"                                                                                                                                                                                                                                4.4.;.6.6.-.-.w.w.q.r.r.M.m.B.B.V.V.C.K.K.K.E.E.E.P.%X%X%X%X%X%X&X&X&X&X<X<X2X2X2X2X2X2X=X=X2X4X4X4X4X4X4X4X4X4X4X4X4XjXjXjXjXjXjXjXjXjXjXjXjXjXzXzXzXzXzXzXzXzXzXzXxXxXzXzXzXzXjXjXjXjX5X4X=X{.H.n.2.%.$...X.X...$.D                                                                                                                                                                                                                                                                                                                                                                                                                                                                                                                                                                                   ",
"                                                                                                                                                                                                                              4.&.;.;.;.;.w.y.7.w.r.e.M.M.V.V.V.C.C.K.K.K.E.P.E.%X%X'.'.%X%X&X&X&X&X&X&X2X2X2X2X2X2X2X2X-X4X4X4X4X4X4X4X4X4X4X4XjXjXjXjXjXjXjXjXjXjXjXjXjXjXjXjXzXzXzXzXzXzXzXzXmXmXzXxXzXzXzXzXjXjX4X2X=X{._.D.z.' ) $.X.X.W R &.                                                                                                                                                                                                                                                                                                                                                                                                                                                                                                                                                                                      ",
"                                                                                                                                                                                                                          H t.&.$.=.=.=.q.,.;.e.e.e.M.M.V.V.V.C.C.K.K.K.P.E.E.%X%X%X'.&X&X&X&X&X&X&X&X&X2X2X2X2X2X2X2X2X4X4X4X4X4X4X4X4X4X4X4X4XjXjXjXjXjXjXjXjXjXjXjXzXjXjXjXjXzXzXzXzXzXzXzXzXzXzXzXzXzXzXzXzXjX5X2X&X'.H.x.2.' ) ( ..X.R R D                                                                                                                                                                                                                                                                                                                                                                                                                                                                                                                                                                                         ",
"                                                                                                                                                                                                                        4.t.X.=.$.=.;.q.q.q.w.r.N.N.N.V.V.C.C.C.K.K.K.K.P.P.%X%X%X%X{.&X{.&X&X&X<X2X2X2X2X2X=X=X2X=X-X4X4X4X4X4X4X4X4X4X4X4XjXjXjXjXjXjXjXkXzXzXjXjXjXzXzXzXzXzXzXzXzXzXzXzXzXzXzXzXzXzXzXzXzXjX4X2X&XL.b.8.1.) ) ^ ( ..R &.                                                                                                                                                                                                                                                                                                                                                                                                                                                                                                                                                                                            ",
"                                                                                                                                                                                                                      3.$.X.<.$.=.=.<.q.q.q.e.M.N.V.V.C.C.C.K.K.K.K.P.P.P.E.%X%X%X&X&X&X{.&X&X&X2X2X2X2X2X3X3X2X2X=X4X4X4X4X4X4X4X4X4X4X4XjXjXjXjXjXjXjXkXkXzXzXjXzXzXzXzXzXzXzXzXzXzXzXzXzXzXzXzXzXzXzXzXzXjXjX4X'.H.b.1.) ( -.( ( R / &.                                                                                                                                                                                                                                                                                                                                                                                                                                                                                                                                                                                              ",
"                                                                                                                                                                                                                  | t. .=.=...;.;.;.q.q.r.e.M.M.V.V.C.C.C.K.R.K.P.P.P.P.%X%X,X%X&X&X&X{.<X&X&X<X2X=X2X2X2X2X4X4X4X4X4X4X4X4X4X4XjXjXjXjXjXjXjXjXjXjXjXjXkXkXzXzXzXzXzXzXzXzXzXzXzXzXzXzXzXzXmXzXvXjXzXjXjXjX4X=X'.H.c.1.%.$.E E E R / D                                                                                                                                                                                                                                                                                                                                                                                                                                                                                                                                                                                                 ",
"                                                                                                                                                                                                                | &.X.X.X.$.;.;.6.q.q.r.r.M.N.V.C.C.C.K.K.R.R.K.P.P.P.E.%X%X&X&X&X&X&X&X<X<X<X2X=X2X2X2X2X2X4X4X4X4X4X4X4X4X4X4XjXjXjXjXjXjXjXjXjXjXkXkXkXkXzXzXzXzXzXzXzXzXzXzXzXzXzXzXzXzXmXzXvXjXjXjX4X2X{.`.D.z.1.) $.( E R / )                                                                                                                                                                                                                                                                                                                                                                                                                                                                                                                                                                                                     ",
"                                                                                                                                                                                                              | &.X.X.O.=.;.;.6.q.q.r.e.M.M.V.V.C.K.K.K.K.K.K.K.P.P.E.%X'.%X%X&X&X&X&X&X2X2X2X2X2X2X2X2X4X4X4X4X4X4X4X4XjXjXjXjXjXjXjXjXjXkXkXkXkXkXkXkXzXzXzXzXzXzXzXzXzXzXzXzXmXmXmXmXmXmXmXzXxXzXjX5X3X'.H.b.2.' ) ) / R / &.D                                                                                                                                                                                                                                                                                                                                                                                                                                                                                                                                                                                                       ",
"                                                                                                                                                                                                            4.&.X.=.=.$.;.q.q.6.q.e.e.M.M.N.C.C.K.K.K.K.K.K.K.R.P.P.E.%X'.%X&X&X&X&X<X<X2X2X2X2X2X2X2X2X4X4X4X4X4X4X4X4XjXjXjXjXjXjXjXjXkXkXkXkXkXkXkXkXzXzXzXzXzXzXzXzXzXzXzXzXmXmXmXmXmXmXmXmXmXzXjX4X*XH.n.2.%.%./ / / %.D m                                                                                                                                                                                                                                                                                                                                                                                                                                                                                                                                                                                                         ",
"                                                                                                                                                                                                          4.&.&.;.=.$.=.q.;.;.r.r.e.N.N.N.N.C.C.K.K.K.K.K.K.P.P.E.E.%X%X%X%X{.&X<X<X<X<X2X2X2X2X2X2X2X2X4X4X4X4X4X4XjX4XjXjXjXjXjXjXjXjXjXjXjXkXzXzXzXzXzXzXzXzXzXzXmXmXmXmXmXmXmXmXmXmXmXmXmXmXmXzX-X[.H.n.1.%./ $./ R / D                                                                                                                                                                                                                                                                                                                                                                                                                                                                                                                                                                                                             ",
"                                                                                                                                                                                                      | 4.&.$.$.;.;.;.;.;.q.q.q.e.M.N.N.N.C.C.C.K.K.K.K.P.P.P.P.E.%X%X%X%X&X&X&X<X<X<X<X2X2X2X2X3X3X4X4X4X4X4X4X4X4X4X4XjXjXjXjXjXjXjXjXjXjXkXzXzXzXzXzXzXzXzXzXzXmXmXmXmXmXmXmXzXmXmXmXmXzXxXxXzXiX{.I.z.1.( ( ( R / %.D                                                                                                                                                                                                                                                                                                                                                                                                                                                                                                                                                                                                               ",
"                                                                                                                                                                                                    4.4.&.$.$.$.=.=.;.;.q.w.w.r.N.N.V.V.V.C.C.K.K.K.K.P.P.E.E.E.'.'.'.'.%X%X&X&X&X&X2X2X2X2X2X2X4X4X4X4X4X4X4X4X4X4X4X4XjXjXjXjXjXjXjXjXzXzXzXzXzXzXzXzXxXxXzXmXnXnXmXmXxXxXxXmXmXmXmXmXmXzXzXjX;X_.D.c.4.$./ R ( T / D                                                                                                                                                                                                                                                                                                                                                                                                                                                                                                                                                                                                                 ",
"                                                                                                                                                                                                  B ;.&.&.$.$.$.=.=.<.q.w.e.r.M.N.V.V.V.C.C.K.K.K.K.K.P.P.P.E.E.'.'.%X%X%X<X&X&X&X2X2X2X2X2X2X3X4X4X4X4X4X4X4X4X4X4X4X4XjXjXjXjXjXjXjXjXzXzXzXzXzXzXmXmXmXmXmXmXmXmXmXzXxXxXxXmXmXmXmXmXzXzXjX;X_.H.c.4.%.R R R T / S                                                                                                                                                                                                                                                                                                                                                                                                                                                                                                                                                                                                                   ",
"                                                                                                                                                                                                4.;.&.&.&.&.$.&.;.q.q.w.e.e.M.N.N.V.V.V.C.C.K.K.K.K.K.P.P.E.E.%X%X%X%X%X<X<X<X<X2X2X2X2X2X2X3X3X4X4X4X4X4X4X4X4X4X4XjXjXjXjXjXjXjXjXjXjXjXzXzXzXzXzXmXmXmXmXmXmXmXmXmXxXxXxXmXmXmXmXmXzXzXjXOX_.b.n.1.) %.( Y R / m                                                                                                                                                                                                                                                                                                                                                                                                                                                                                                                                                                                                                     ",
"                                                                                                                                                                                              &.$.X.X.$.&.&.&.;.q.q.w.r.e.M.N.N.N.N.V.V.C.C.K.K.K.K.P.P.E.E.E.%X%X%X%X%X&X<X<X<X2X2X2X3X2X3X3X4X4X4X4X4X4X4X4X4XjXjXjXjXjXjXjXjXjXjXjXjXzXzXzXzXzXzXmXmXmXmXmXmXmXzXxXxXxXmXmXmXmXmXmXzX4XOX_.D.z.1.) ) ( R R R m                                                                                                                                                                                                                                                                                                                                                                                                                                                                                                                                                                                                                       ",
"                                                                                                                                                                                          G &.X.X.X.X.X.$.$.;.q.q.w.e.e.M.M.V.V.V.V.V.V.C.C.K.K.K.K.P.P.E.E.%X%X'.'.&X&X&X<X<X<X2X2X3X3X4X4X4X4X4X4X4X4X4X4X4X4XjXjXjXjXjXjXkXkXjXjXjXjXzXzXzXzXmXmXmXmXmXmXmXmXxXxXxXxXmXmXmXmXmXmXvX4X{.`.D.z.1.) ) ( Y R / m                                                                                                                                                                                                                                                                                                                                                                                                                                                                                                                                                                                                                         ",
"                                                                                                                                                                                        4.&.$.X.X.O.X.X.=.<.q.q.e.e.M.M.M.M.V.V.V.V.V.V.C.C.K.K.K.P.P.E.E.E.%X%X'.'.&X&X&X<X<X2X2X2X3X3X4X4X4X4X4X4X4X5X5X5XjXjXjXjXjXjXkXkXkXkXjXjXjXzXzXzXzXzXmXmXmXmXmXmXmXmXxXxXxXmXmXmXmXmXzXzXjX{.I.b.3.1.%.E ( E E %.N                                                                                                                                                                                                                                                                                                                                                                                                                                                                                                                                                                                                                           ",
"                                                                                                                                                                                      | &.X.X.+.X.X.X.$.<.,.q.r.e.M.N.N.V.V.V.C.C.C.C.C.C.C.K.K.K.P.P.E.'.'.%X%X%X&X&X&X<X2X2X2X2X2X3X4X4X4X4X4X5X5XjXjXjXjXjXjXjXjXkXkXkXkXkXkXjXjXzXzXzXzXzXxXmXmXmXmXmXmXmXmXxXxXmXmXmXmXmXmXzXjXOXI.b.3.1.%.$.E E E $.m                                                                                                                                                                                                                                                                                                                                                                                                                                                                                                                                                                                                                             ",
"                                                                                                                                                                                    | &.X.+.X.X.+.O.X.$.q.q.q.r.M.M.N.N.V.V.C.C.C.C.C.C.C.K.K.K.P.P.E.E.'.'.%X%X&X&X&X<X2X2X2X2X2X3X4X4X4X4X4X4X5X5XjXjXjXjXjXjXjXkXkXkXkXkXkXkXjXjXzXzXzXzXxXxXmXmXmXmXmXmXmXmXmXmXmXmXmXmXmXxXjX2X'.B.9.%.$.$.E $.E $.N                                                                                                                                                                                                                                                                                                                                                                                                                                                                                                                                                                                                                               ",
"                                                                                                                                                                                  D &.X.X.X.X.*.+.=.;.q.q.e.e.M.M.M.N.N.C.C.V.N.C.C.C.C.K.K.K.K.P.P.P.E.'.%X%X%X<X<X<X2X2X2X3X3X3X3X4X4X5X5X5X5XjXjXjXjXkXkXkXkXkXkXkXkXzXzXzXzXzXzXzXxXzXmXmXmXmXmXmXmXmXmXmXmXmXmXmXMXMXmXzXjXOXL.b.9.%.$.......( $.m                                                                                                                                                                                                                                                                                                                                                                                                                                                                                                                                                                                                                                 ",
"                                                                                                                                                                                4.;.X.X.+...X.=.=.;.q.q.w.e.M.M.M.M.N.C.C.C.N.N.C.C.C.K.K.K.K.P.P.P.E.%X%X%X&X&X&X<X2X2X2X2X3X3X3X4X4X4X5X5X5X5XjXjXjXjXkXkXkXkXkXkXkXkXzXzXkXkXzXzXzXzXxXmXmXmXmXmXmXmXmXmXmXmXmXmXmXCXmXzX-XOXL.J.v.1.-.$.....( %.m                                                                                                                                                                                                                                                                                                                                                                                                                                                                                                                                                                                                                                   ",
"                                                                                                                                                                              4.;...W X.$.....;.;.w.w.w.r.M.N.N.N.V.V.C.V.V.N.V.C.K.K.K.K.K.P.P.E.E.'.%X%X&X<X<X<X<X2X2X2X2X3X4X4X4X4X4XjXjXjXjXjXjXjXjXkXkXkXkXkXkXkXkXkXzXzXzXzXzXxXxXxXmXmXmXmXmXmXmXmXmXmXmXmXmXCXmXzX-X[.L.b.v.1.%.-.*.E E &.m                                                                                                                                                                                                                                                                                                                                                                                                                                                                                                                                                                                                                                     ",
"                                                                                                                                                                            4.q.X.X.=.=.$.$.=.=.q.w.e.r.e.M.N.N.V.V.C.C.C.C.C.C.C.K.K.K.K.P.P.P.%X%X%X%X&X&X<X=X<X2X2X2X2X3X3X4X4X4X4X4XjXjXjXjXjXjXjXkXkXkXkXkXkXkXzXzXzXzXzXzXxXvXxXxXxXmXmXmXmXmXmXmXmXmXmXmXmXmXzXzX4X{.L.B.v.5.-.*.*.E E $.m                                                                                                                                                                                                                                                                                                                                                                                                                                                                                                                                                                                                                                       ",
"                                                                                                                                                                          4.&.X.X.O.=.$.$.=.<.;.q.w.r.r.e.N.N.M.C.C.C.C.C.C.C.C.K.K.K.K.K.P.P.P.%X%X%X&X&X&X&X=X2X2X2X3X3X3X4X4X4X4X5X5XjXjXjXjXjXjXkXkXkXkXzXzXzXzXzXzXzXzXzXzXxXxXmXxXmXmXmXmXmXmXmXmXmXmXmXmXmXzXzX4X=X'.B.9.6.-.-.$.R ( %.S                                                                                                                                                                                                                                                                                                                                                                                                                                                                                                                                                                                                                                         ",
"                                                                                                                                                                        4.&.+.X.X.X.$.$.=.;.q.w.q.e.e.e.e.M.N.M.C.C.C.C.C.K.K.K.K.K.K.K.P.E.E.%X%X%X&X&X&X&X=X=X2X2X3X3X3X3X4X4X5X5X5X5XjXjXjXjXkXkXkXkXkXkXzXzXzXzXzXzXzXzXzXzXxXxXxXxXmXmXmXmXmXmXmXmXmXmXmXmXmXzXjXOX'.H.9.6.;.*.*.E ( 1.S                                                                                                                                                                                                                                                                                                                                                                                                                                                                                                                                                                                                                                           ",
"                                                                                                                                                                      | &.X.X.+.+.=.=.,.;.;.;.w.w.r.e.e.N.N.N.C.C.C.C.K.R.R.R.K.K.K.P.P.E.E.%X%X%X%X&X<X2X2X2X2X2X2X3X3X3X4X4X4X5X5XjXjXjXjXjXjXkXkXkXkXkXkXkXzXxXxXzXzXzXzXxXxXxXxXmXmXmXmXmXmXmXmXmXmXmXmXmXmXzXjX=X`.H.v.3.$.....E ( %.D                                                                                                                                                                                                                                                                                                                                                                                                                                                                                                                                                                                                                                             ",
"                                                                                                                                                                    | t.&.X.=.X.O.+.=.=.;.w.w.w.e.e.e.N.N.C.C.C.C.C.K.K.R.R.K.K.K.P.E.E.E.%X%X%X&X&X<X2X2X2X3X3X2X3X4X4X4X4X4X4X5X5XjXjXjXkXjXjXkXkXkXkXkXkXkXzXxXxXzXzXzXxXxXxXmXmXmXmXmXmXmXmXmXmXmXmXmXmXmXxXjX-X[.L.b.9.;.*...O...$.D                                                                                                                                                                                                                                                                                                                                                                                                                                                                                                                                                                                                                                               ",
"                                                                                                                                                                  &.6.&.&...$.=.=.;.;.;.q.q.w.e.e.e.N.N.N.C.C.C.R.R.K.K.K.K.K.K.P.P.P.E.E.'.%X&X<X2X2X2X2X3X3X3X4X4X4X4X5X5X5X5X5XjXjXjXkXkXkXkXkXkXkXkXjXjXvXxXxXxXxXxXxXmXmXmXmXmXmXmXxXxXmXmXMXmXmXmXmXxXzX4X2X'.P.n.5.:.*.....E %.D                                                                                                                                                                                                                                                                                                                                                                                                                                                                                                                                                                                                                                                 ",
"                                                                                                                                                                &.<.$.X.&.=.;.;.;.;.;.q.q.w.e.e.N.N.N.N.C.V.C.C.R.R.K.K.K.K.K.K.P.P.E.%X'.%X&X<X2X2X2X2X3X3X3X4X4X4X4X5X5X5X5X5XjXjXjXkXjXjXkXkXkXkXkXkXjXjXzXxXxXxXxXxXmXmXmXmXmXmXmXmXxXxXmXmXMXmXmXmXmXxXjX2X{.I.B.0.:.*.Q O.*.( /                                                                                                                                                                                                                                                                                                                                                                                                                                                                                                                                                                                                                                                   ",
"                                                                                                                                                              | t.<.$.$.=.=.;.<.q.q.w.w.w.e.e.e.N.N.N.N.C.C.Y.R.R.R.K.K.K.K.K.R.E.E.'.%X%X%X<X<X2X2X3X3X3X3X3X3X4X4X4X5X5X5X5X5XjXjXkXkXkXkXkXkXkXkXzXzXjXjXjXxXxXxXxXxXmXmXmXmXmXmXmXmXxXxXmXmXmXmXmXmXxXkX4X{.I.b.9.5.-.*.E *.E $.D                                                                                                                                                                                                                                                                                                                                                                                                                                                                                                                                                                                                                                                   ",
"                                                                                                                                                            | t.$...$.;.;.=.<.q.q.w.w.e.e.r.e.N.N.N.N.C.C.Y.R.R.R.R.K.K.K.R.R.R.E.%X%X%X%X&X<X2X2X3X3X3X3X3X4X4X4X5X5X5XjX5X5X5XkXkXkXkXkXkXkXkXkXkXzXzXjXjXjXxXxXxXxXxXmXmXmXmXmXmXmXmXmXmXmXmXmXmXmXmXzX4XOX`.H.v.1.$.$.*.Q E R %.                                                                                                                                                                                                                                                                                                                                                                                                                                                                                                                                                                                                                                                    ",
"                                                                                                                                                          | &.&.$...$.=.=.,.w.q.w.w.w.r.e.e.N.N.N.N.C.C.Y.Y.K.K.K.R.K.R.R.R.E.E.%X%X%X%X&X<X<X2X2X3X4X4X4X4X4X4X5X5X5X5X5XkXkXkXkXkXkXkXkXkXkXkXkXkXzXzXzXzXxXxXxXxXxXxXmXmXmXmXmXmXmXmXmXmXMXMXmXMXmXxXjX=X{.H.v.9.%.%.$.( E E $.                                                                                                                                                                                                                                                                                                                                                                                                                                                                                                                                                                                                                                                      ",
"                                                                                                                                                        H &.=.X.=.=.<.=.=.,.w.q.w.w.r.e.e.N.N.N.C.C.C.C.Y.R.K.K.K.R.R.P.E.E.E.E.%X%X,X&X<X<X2X2X3X4X4X4X4X4X5X5X5X5X5X5X5XkXkXkXkXkXkXkXkXkXkXkXkXkXzXkXzXzXxXxXxXxXxXxXxXxXmXmXmXmXmXmXmXCXMXMXmXmXmXjX2X{.I.b.9.-.$.;.$.E $.$.                                                                                                                                                                                                                                                                                                                                                                                                                                                                                                                                                                                                                                                        ",
"                                                                                                                                                      m &.=.X.+.=.=.,.<.<.,.q.w.w.w.r.e.N.N.N.N.C.C.C.K.K.K.K.K.R.E.P.E.E.E.E.E.%X&X<X<X<X2X2X3X4X4X4X4X4X5X5X5X5X5XjXjXkXkXkXkXkXkXkXkXkXkXkXkXkXkXkXkXzXzXxXxXxXxXzXxXmXmXmXmXmXmXmXmXCXCXCXMXmXmXzX4X&XL.H.9.;.*.$.*.E $.$.m                                                                                                                                                                                                                                                                                                                                                                                                                                                                                                                                                                                                                                                         ",
"                                                                                                                                                      t.X.X.+.+.<.=.,.<.,.w.q.r.r.e.e.N.N.N.N.N.Y.K.K.K.R.R.R.R.E.E.E.E.E.%X%X%X&X<X<X<X2X2X3X4X4X4X4X4X4X5X5X5X5X5XjXjXkXkXkXkXkXkXkXkXkXkXkXkXkXkXkXzXzXzXxXxXxXxXzXzXmXmXmXmXmXmXmXmXCXCXCXMXmXxXkX3X'.J.v.6.*.*.*.( E -.B                                                                                                                                                                                                                                                                                                                                                                                                                                                                                                                                                                                                                                                           ",
"                                                                                                                                                    4.X.X.#.+.:.;.<.,.w.w.r.r.w.r.r.e.N.N.C.Y.C.R.K.R.R.R.E.E.E.E.E.E.%X%X%X%X%X&X<X<X2X3X3X4X4X4X4X4X5XkXkXkXkXjXjXkXkXkXkXkXkXkXkXkXkXkXkXkXkXkXkXkXkXxXxXxXxXxXxXmXmXmXmXmXmXmXmXMXmXmXCXMXmXxXkX=X*XL.b.9.%.*...*.E -.$.                                                                                                                                                                                                                                                                                                                                                                                                                                                                                                                                                                                                                                                            ",
"                                                                                                                                                  | ;.X.#.+.=.;.q.q.,.w.w.r.r.r.r.e.N.N.C.C.Y.C.K.K.R.E.E.E.E.E.E.E.E.%X%X%X%X&X<X<X2X2X3X4X4X4X4X4X4X5XkXkXkXkXjXjXkXkXkXkXkXkXkXkXkXkXkXkXkXkXkXkXkXkXxXxXxXxXxXxXmXmXmXmXmXmXmXmXMXmXmXCXmXzXkX4X&XP.B.0.5.-.*.O.Q *.$.                                                                                                                                                                                                                                                                                                                                                                                                                                                                                                                                                                                                                                                              ",
"                                                                                                                                                4.;...X.+.=.;.q.w.q.w.w.w.e.e.e.e.N.N.N.C.C.Y.R.K.K.E.E.E.E.E.E.E.%X%X,X%X&X&X&X<X2X2X2X3X4X4X4X4X5XjXjXkXjXkXkXkXkXkXkXkXkXkXkXkXkXkXkXkXkXkXkXkXkXzXzXxXxXxXxXxXxXmXmXmXmXmXmXmXmXMXMXmXmXmXzX4X2X%XJ.m.6.-.*.*...=...D                                                                                                                                                                                                                                                                                                                                                                                                                                                   d.                                                                                                                                                                                                          ",
"                                                                                                                                              | &.X.X.+.=.;.q.w.w.w.w.w.e.e.e.e.N.N.N.C.C.Y.R.K.K.E.E.E.E.E.E.E.%X%X,X,X&X&X<X<X2X2X2X3X4X4X4X4X4X5XjXkXkXkXkXkXkXkXkXkXkXkXkXkXkXkXkXkXkXkXkXkXkXkXzXzXxXxXxXxXxXxXmXmXmXmXMXmXmXmXMXMXMXmXzXkX4X&XJ.v.9.;.*.*.*...$.$.                                                                                                                                                                                                                                                                                                                                                                                                                                                      d.                                                                                                                                                                                                        ",
"                                                                                                                                            | &.X.X.=.:.:.:.w.w.w.w.w.e.e.e.e.N.N.N.C.C.Y.R.R.R.E.E.E.E.E.,X,X,X,X%X,X&X<X<X<X<X2X2X3X3X4X4X4X4X5X5XjXkXkXkXkXkXkXkXkXkXkXkXkXkXkXkXkXkXkXkXkXkXxXzXzXzXxXxXxXxXmXmXmXmXmXmXMXMXmXMXMXMXmXmXzX4X&X'.B.0.6.-.*.*.*.*.$.                                                                                                                                                                                                                                                                                                                                                                                                                                                        l.C                                                                                                                                                                                                       ",
"                                                                                                                                          H &.X.X.X.=.;.;.w.w.q.w.r.e.e.e.e.N.N.N.C.C.Y.R.R.R.R.E.E.E.E.,X,X,X%X,X,X&X<X<X<X<X2X2X2X3X3X4X4X4X5X5X5XkXkXkXkXkXkXkXkXkXkXkXkXkXkXkXkXkXkXkXkXkXkXxXxXzXzXxXxXxXxXmXmXmXmXmXmXMXMXMXMXMXMXmXzXjX2X'.J.v.9.:.*.*.O.*.*.B                                                                                                                                                                                                                                                                                                                                                                                                                                                           /.                                                                                                                                                                                                      ",
"                                                                                                                                          4.$.X.+.=.;.;.q.w.,.w.r.r.e.e.e.N.N.N.C.C.Y.Y.R.R.R.E.E.E.E.,X,X,X,X,X,X,X<X<X<X<X2X2X2X2X3X3X4X4X5X5X5XkXkXkXkXkXkXkXkXkXkXkXkXkXkXkXkXkXkXkXkXkXkXkXxXxXzXzXxXxXxXxXmXmXmXmXMXMXMXMXMXMXMXmXmXzX4XOXI.H.v.5.-.*.O.O.O.E                                                                                                                                                                                                                                                                                                                                                                                                                                                             H x.                                                                                                                                                                                                    ",
"                                                                                                                                        | $.X.X.+.=.q.w.w.q.<.w.r.r.e.e.e.N.N.N.C.Y.R.K.R.R.E.E.E.E.,X,X,X,X,X,X,X<X<X<X<X2X2X2X2X3X3X3X4X4X5X5XkXkXkXkXkXkXkXkXkXkXkXkXkXkXkXkXkXkXkXkXkXkXkXkXlXzXzXzXxXxXxXxXmXmXmXmXMXMXMXMXMXMXBXmXzXjX=X'.H.b.9.:.*.O.O.O.*.                                                                                                                                                                                                                                                                                                                                                                                                                                                                x.f.                                                                                                                                                                                                  ",
"                                                                                                                                      4.&.W o.O.=.q.q.q.q.q.,.w.r.r.e.e.N.N.C.C.C.K.R.R.E.E.E.E.E.%X%X%X,X,X,X<X<X<X<X<X2X2X2X2X4X4X4X4X4X5X5X5XkXkXkXkXkXkXkXjXkXkXkXkXkXkXkXkXkXkXjXzXzXzXxXxXxXxXxXxXxXxXxXxXmXmXmXMXMXCXCXCXMXmXBXBXzX3X'.J.B.9.%.=.>.O.o.O.D                                                                                                                                                                                                                                                                                                                                                                                                                                                                 A c.G                                                                                                                                                                                                 ",
"                                                                                                                                    D / ..o.+.+.=.;.q.q.q.w.,.w.r.e.e.e.N.N.C.Y.K.R.E.E.E.E.E.,X%X%X%X%X,X,X<X<X<X<X<X2X2X2X2X3X4X4X4X5X5X5X5X5XkXjXkXkXkXkXkXkXkXkXkXkXkXkXkXkXkXkXjXzXzXzXxXxXxXxXxXxXxXxXxXxXmXMXMXMXMXCXCXCXxXmXBXBXjX&XK.V.0.6.*.O.O.>.o.;.                                                                                                                                                                                                                                                                                                                                                                                                                                                                    z.3.A                                                                                                                                                                                               ",
"                                                                                                                                    3./ ..X.o.=.=.q.q.q.q.w.w.w.e.r.r.N.N.C.Y.Y.R.R.E.E.E.E.!.,X%X%X%X,X,X<X<X<X<X<X<X2X2X2X3X3X4X4X4X4X5X5XjXkXkXkXkXkXkXkXkXkXkXkXkXkXkXkXkXkXkXlXlXlXzXxXxXxXxXxXxXxXxXxXmXmXMXMXMXMXMXMXMXMXxXxXMXzX-X{.B.e.6.:.:.O.o.=.*.B                                                                                                                                                                                                                                                                                                                                                                                                                                                                     j c.c.                                                                                                                                                                                              ",
"                                                                                                                                  3.D X.X.O.+.<.<.q.q.q.w.w.w.e.e.r.e.N.N.Y.Y.Y.R.R.E.E.E.E.!.,X%X%X,X,X<X<X<X<X<X<X2X2X2X2X3X3X4X4X4X4X5X5XkXkXkXkXkXkXkXkXkXkXkXkXkXkXkXkXkXkXlXlXlXlXzXxXxXxXxXxXxXxXxXxXmXmXMXMXMXMXMXMXBXMXxXxXzXjXOX`.m.6.;.*.=.=.O.X.$.                                                                                                                                                                                                                                                                                                                                                                                                                                                                        H 3.v.                                                                                                                                                                                            ",
"                                                                                                                                4.$.X.X.X.+.+.+.<.,.q.q.w.e.e.e.r.r.N.N.C.Y.Y.R.R.R.!.!.E.E.E.,X%X%X,X<X<X<X<X<X<X2X2X2X3X3X3X3X4X4X5X5X5X5XjXkXkXkXkXkXkXkXkXkXkXkXkXkXkXkXkXkXlXlXlXxXxXxXxXxXxXxXmXmXmXmXMXmXMXMXMXMXMXBXBXMXmXxXjX-X].I.v.6.*.*.O.+.+...                                                                                                                                                                                                                                                                                                                                                                                                                                                                          q 1.6.]                                                                                                                                                                                           ",
"                                                                                                                              | &. .X.X.X.<.+.<.<.,.q.w.w.r.e.y.r.N.N.T.Y.Y.R.R.R.E.E.!.E.E.E.%X%X,X,X<X<X<X<X<X2X2X2X2X3X3X3X3X4X4X5X5X5X5XkXkXkXkXkXkXkXkXkXkXkXkXlXlXkXkXkXkXxXxXxXxXxXxXxXxXxXxXmXmXmXmXMXMXMXMXMXMXBXBXBXMXxXkX4X{._.D.9.;.O.>.o.o.=.$.                                                                                                                                                                                                                                                                                                                                                                                jX#X                                                                                        j 1.M.G                                                                                                                                                                                         ",
"                                                                                                                              t.X.X.P X.=.=.=.,.,.,.,.w.w.e.y.T.N.N.N.T.Y.Y.R.R.R.E.!.E.E.E.%X%X,X,X<X<X<X<X<X2X2X2X3X3X2X2X5X5X5X5X5X5X5X5X5X5XkXkXkXjXkXkXkXkXkXkXlXlXkXkXzXzXxXxXxXxXxXxXxXxXxXmXmXmXMXMXMXMXMXMXMXMXMXMXMXMXzXjXOX}.I.c.6.=.O.@.! o.$.                                                                                                                                                                                                                                                                                                                                                                                bXOXC                                                                                           ' -.6.                                                                                                                                                                                        ",
"                                                                                                                            4.$.X.o.X.+.<.=.,.<.,.,.,.w.w.e.y.T.N.N.N.Y.Y.R.R.R.E.E.E.!.%X%X%X,X,X,X<X<X<X<X2X2X2X3X3X2X2X5X5X5X5X5X5X5X5X5X5X5XkXkXjXjXkXkXkXkXkXkXlXlXkXkXzXzXxXxXxXxXxXxXxXxXxXmXmXmXMXMXMXMXMXMXMXMXMXMXMXMXkX4X{.I.B.3.6.*.O.@.o.=.&.                                                                                                                                                                                                                                                                                                                                                                            0XbX=Xg.                                                                                            j ;.*.0.                                                                                                                                                                                      ",
"                                                                                                                          G ;...X.o.X.+.=.:.,.q.,.,.,.w.w.e.y.T.N.C.C.Y.R.R.R.R.!.E.E.%X%X%X,X,X,X<X<X<X<X<X2X2X3X4X4X4X4X4X5X5X5X5X5X5XjXkXkXkXkXkXkXkXkXkXkXkXkXkXkXkXkXkXkXzXxXxXxXxXxXxXxXxXxXmXmXmXMXMXMXMXMXMXMXMXMXMXMXzX5X&XL.B.m.6.;.*.o.@.o.=.                                                                                                                                                                                                                                                                                                                                                                            iX4X=XS.w                                                                                               ^ =.7.S                                                                                                                                                                                     ",
"                                                                                                                          4.&...X.X.O.=.:.,.q.q.,.,.w.w.r.e.y.T.C.C.Y.Y.R.R.R.E.E.!.%X%X%X%X,X,X<X<X<X<X<X2X2X3X4X4X4X4X4X4X5X5X5X5X5XjXkXkXkXkXkXkXkXkXkXkXkXkXkXkXkXkXkXkXkXxXxXxXxXxXxXxXxXxXxXmXmXmXMXMXMXMXMXMXMXMXMXMXmXzX4X&XL.m.9.;.=.O.o.@.X.X.                                                                                                                                                                                                                                                                                                                                                                        d.iX2X6XF.C                                                                                                 j $.=.%.j                                                                                                                                                                                   ",
"                                                                                                                        4.$.=...X.O.+.=.:.7.q.w.w.w.w.r.e.r.N.T.Y.C.Y.R.R.R.E.E.!.,X,X%X%X%X,X,X<X<X<X<X<X2X3X4X4X4X4X4X4X4X4X5X5X5X5XjXkXjXkXkXkXkXkXkXkXkXkXkXzXzXzXzXlXkXcXcXcXcXxXxXxXxXxXxXxXxXmXmXMXMXMXMXMXMXMXMXMXMXxXkX2X'.J.v.;.=.*.O.O.+.X.                                                                                                                                                                                                                                                                                                                                                                        #XvX6X2XA.H                                                                                                     D :.:.8.                                                                                                                                                                                  ",
"                                                                                                                      D &.X.=.O.O.+.=.<.,.:.w.w.w.r.e.e.e.r.N.T.Y.Y.R.R.R.E.E.E.,X!.,X%X%X,X,X,X<X<X<X<X2X2X4X4X4X4X4X4X4X4X4X5X5XjXjXjXkXkXkXkXkXkXkXkXkXkXkXkXzXzXzXzXlXlXcXcXcXxXxXxXxXxXxXxXxXxXmXmXMXMXMXMXMXMXMXmXMXcXxXjX{.P.B.0.:.=.O.O.X.O.$.                                                                                                                                                                                                                                                                                                                                                                      mXxX4X2XF.H                                                                                                       x %.-.7.S                                                                                                                                                                                 ",
"                                                                                                                      &.&.+.O.=.=.=.<.,.,.q.w.w.r.e.e.e.N.N.N.T.Y.R.R.R.R.E.E.!.%X%X%X%X,X,X,X,X<X<X<X<X2X2X4X4X4X4X5X5X5X5X5X5X5XkXkXkXkXkXkXkXkXkXkXkXkXkXkXkXkXzXlXxXzXcXcXcXxXxXxXxXxXxXxXxXxXxXmXmXMXMXMXMXMXMXMXMXMXcXzX4X'.J.M.6.>.>.O.O.X.$.                                                                                                                                                                                                                                                                                                                                                                    #XMX@X5X&X&Xa.                                                                                                          S :.( 0.j                                                                                                                                                                               ",
"                                                                                                                    4.X.+.+.O.=.=.;.<.<.<.,.w.w.r.e.y.T.N.N.N.C.R.R.R.R.E.!.!.%X%X%X%X,X,X,X,X<X<X<X<X2X2X3X3X4X5X5X5X5X5X5X5X5X5XkXkXkXkXkXkXkXkXkXkXkXkXkXkXkXxXxXlXlXzXxXcXxXxXxXxXxXxXxXxXxXxXxXmXmXMXMXMXMXMXMXMXMXcXxXjX>XL.B.0.:.>.>.O.o.+. .                                                                                                                                                                                                                                                                                                                                                                  xXjX4XlX{.&XS.                                                                                                            x ) >.-.z.                                                                                                                                                                              ",
"                                                                                                                  G &.+.#.X.+.=.=.<.<.<.<.,.,.w.e.y.T.T.T.N.N.C.R.R.R.E.!.!.!.,X%X%X%X,X,X,X,X<X<X<X<X2X2X3X4X4X5XjXjXkX5X5X5X5X5XjXkXkXkXkXkXkXkXkXkXkXkXkXkXkXxXlXlXlXxXxXxXxXxXxXxXxXxXxXxXxXxXxXMXMXmXmXMXMXMXMXMXMXcXxXjXOXI.m.6.:.*.Q O.o.+.                                                                                                                                                                                                                                                                                                                                                                eXSXjX5X=X{.&X_.C                                                                                                             < ^ :.7.' F                                                                                                                                                                             ",
"                                                                                                                  4.X.X.+.+.+.=.=.<.<.<.<.,.w.w.e.y.T.T.Y.C.C.Y.R.R.E.E.!.!.,X,X%X%X,X,X,X,X<X<X<X<X2X2X3X4X4X4X5XkXkXkX5X5X5X5XjXjXkXkXkXkXkXkXkXkXkXkXkXkXkXkXlXxXlXlXxXxXxXxXxXxXxXxXxXxXxXxXxXxXcXmXmXmXMXMXMXMXMXMXcXlX4X{.H.m.;.*.*.Q o.X.X.                                                                                                                                                                                                                                                                                                                                                              CXmXiX4X=X&X<X/.H                                                                                                                 A -.:.7.2.                                                                                                                                                                            ",
"                                                                                                                4.X.O.+.*.=.+.+.<.<.,.,.w.w.r.r.r.r.T.Y.C.C.K.R.E.E.E.!.!.!.,X%X%X%X%X,X<X<X<X<X2X2X2X2X2X4X4X4X5X5X5X5XkXkXkXkXkXkXkXkXkXkXkXkXkXkXkXkXkXlXlXlXkXkXkXlXlXlXxXxXxXxXxXxXxXxXxXxXxXcXcXxXxXMXMXMXMXMXMXMXcX5X&XP.B.9.&.=.O.O.o.X.D                                                                                                                                                                                                                                                                                                                                                           |.SXxX4XOX&X2X3XL.s.                                                                                                                  j %.*.>.7._                                                                                                                                                                           ",
"                                                                                                              D X.X.O.=.*.=.+.+.<.,.w.w.w.w.e.r.r.N.N.T.C.K.R.E.E.E.E.!.!.,X%X%X,X,X,X,X<X<X<X<X2X3X2X2X4X4X4X4X5X5X5X5XkXkXkXkXkXkXkXkXkXkXkXkXkXkXkXkXkXkXlXlXkXkXkXlXlXlXxXxXxXxXxXxXxXxXxXxXxXMXxXxXcXMXMXVXVXBXMXMXlX3X*XJ.0.6.&.O.O.o.o.$.                                                                                                                                                                                                                                                                                                                                                          SXxXjX4X=X2X&X'.`.F                                                                                                                       D $.<.*.e.S                                                                                                                                                                         ",
"                                                                                                              t.X.+.+.=.=.=.+.<.<.,.w.w.w.r.r.r.N.N.N.C.C.R.R.E.E.E.P.!.,X,X,X,X,X,X<X<X<X<X<X<X2X2X2X2X4X4X5X5X5X5XkXkXkXkXkXkXkXkXkXkXkXkXkXkXkXkXkXkXkXkXkXkXkXkXlXlXlXlXxXxXxXxXxXxXxXxXxXxXmXMXxXxXxXMXMXMXVXBXMXxXkX&XL.B.9.-.=.X.o.o.X.R                                                                                                                                                                                                                                                                                                                                                       uXSXiXZX-X=X=X%X%X'.H                                                                                                                         x %.:.=.6.9.                                                                                                                                                                        ",
"                                                                                                            3.&.X.X.O.=.=.=.<.<.<.,.w.w.r.e.r.r.N.N.C.C.R.R.E.E.E.E.P.!.,X,X,X,X,X<X<X<X<X<X<X2X2X2X2X4X5X5X5X5X5X5XkXkX5XkXkXkXkXkXkXkXkXkXkXkXkXkXkXkXkXkXkXkXkXkXlXlXlXlXxXxXxXxXxXxXxXxXxXxXmXMXmXcXxXMXMXMXVXVXMXxX5X'.H.v.5.*.*.X.o.o...                                                                                                                                                                                                                                                                                                                                                      nXVXzXcX-X5X=X&X%X%Xa.                                                                                                                            / :.,.;.6.2.                                                                                                                                                                      ",
"                                                                                                            4.$.$.$.=.=.<.<.<.<.,.,.w.r.e.e.r.T.N.T.C.C.R.R.E.!.E.P.,X,X,X,X,X,X<X<X<X<X<X2X2X2X2X4X4X6X5X5X5X5X5X5XkXkX5XkXkXkXkXkXkXkXkXkXkXkXkXkXkXkXkXkXkXkXkXkXkXxXlXlXcXxXxXxXxXxXxXxXxXxXmXmXxXmXmXMXMXMXBXBXMXlX3X'.B.9.-.*...X.o.X.$.                                                                                                                                                                                                                                                                                                                                                  l.PXVXmXzX4XOX{.%X%X%Xh.UX                                                                                                                            A -.,.w.w.t.A                                                                                                                                                                     ",
"                                                                                                          9.&.$.&.=.=.=.=.<.:.,.w.w.r.e.e.r.T.T.N.Y.C.Y.R.R.!.!.P.!.,X,X,X,X,X<X<X<X<X<X<X2X2X2X4X4X4X6X5X5X5X5X5X5XkXkXkXkXkXkXkXkXkXkXkXkXkXkXkXkXkXkXkXkXkXkXkXkXkXxXlXlXxXxXxXxXxXxXxXxXxXxXmXMXmXxXmXMXMXMXMXMXmXkX<XL.v.5.-.*.X.o.X.X.B                                                                                                                                                                                                                                                                                                                                                 NXSXxX0XzXjX4X3X&X%XE.x.C                                                                                                                                 6.;.w.q.;.4.                                                                                                                                                                    ",
"                                                                                                        3.&.;.X.=.=.=.=.=.<.,.w.w.w.r.e.r.T.T.T.T.Y.Y.R.R.R.!.!.E.,X%X,X,X,X<X<X<X<X<X2X2X2X2X2X4X5X5X5X5X5X5X5XkXkX5X5XkXkXkXkXkXkXkXkXkXkXkXkXkXkXkXkXkXkXlXkXlXlXkXxXlXlXxXxXxXxXxXxXxXxXxXxXmXMXmXmXmXMXMXMXMXMXxX5X&XH.9.-.*.O...X.X.X.                                                                                                                                                                                                                                                                                                                                                PXVXxXlXZXkX4X=X%XE.E.b.C                                                                                                                                   ' ;.e.q.w.6.[                                                                                                                                                                   ",
"                                                                                                        6.=.O.+.=.=.=.=.<.<.,.w.w.w.e.e.N.N.T.Y.Y.Y.Y.R.R.E.!.E.,X,X,X,X,X,X,X<X<X<X2X2X2X2X2X5X5X5X5X5X5X5X5X5XkXkX5XkXkXkXkXkXkXkXkXkXkXkXkXkXkXkXkXkXkXlXkXlXlXlXkXlXlXlXxXxXxXxXxXxXxXxXxXxXmXMXmXmXmXMXMXMXMXmXxX4X'.B.3.%.Q O.O.X.X.B                                                                                                                                                                                                                                                                                                                                             yXPXmXMXkX4X-X-X5X&X1XR.z.J                                                                                                                                     A 6.r.r.;.w.6.                                                                                                                                                                  ",
"                                                                                                      3.&.=.O.=.=.=.=.<.<.<.w.w.r.r.e.r.N.N.C.Y.Y.Y.Y.R.!.!.!.E.,X,X,X,X<X<X<X<X<X2X2X2X2X2X4X5X5X5X5X5X5X5X5X5XkXkX5XkXkXkXkXkXkXkXkXkXkXkXkXkXkXkXkXkXkXlXlXlXlXlXlXlXlXlXxXxXxXxXxXxXxXxXxXxXmXmXmXmXMXMXMXMXMXmXlX2XL.v.1.-.Q O.Q X.X.m                                                                                                                                                                                                                                                                                                                                           LXMXzXZX4X5X3X5X;X=X%XE.z.A                                                                                                                                         4.q.r.w.q.<.t.                                                                                                                                                                ",
"                                                                                                    G &.=.+.O.=.+.=.=.<.,.,.w.r.r.e.r.T.N.Y.Y.Y.Y.R.R.R.R.!.!.,X,X,X,X,X<X<X<X<X2X2X2X2X3X4X4X5X5X5X5X5X5X5X5X5XkXkXkXkXkXkXkXkXkXkXkXkXkXkXkXkXkXkXkXkXkXlXlXlXlXlXlXlXlXlXxXxXxXxXxXxXxXxXxXxXmXmXmXmXMXMXMXmXmXxXkX<XJ.9.%.*.O.Q o.X.X.                                                                                                                                                                                                                                                                                                                                        eXLXzXSXcXOXlX4X6X=X=X%X%Xz.G                                                                                                                                           G 6.e.y.,.,.t.H                                                                                                                                                               ",
"                                                                                                    3.$.+.o.O.=.+.+.<.<.,.w.w.w.r.r.r.N.Y.Y.Y.R.R.R.R.!.E.!.!.,X,X,X<X<X<X<X<X2X2X2X2X2X4X4X5X5X5X5XkXkXkXkXkX5X5XkXkXkXkXkXkXkXkXkXkXkXkXkXkXkXlXlXkXkXkXxXlXlXlXlXlXlXlXlXxXxXxXxXxXxXxXxXxXxXmXmXmXmXMXMXMXmXmXxXjX{.H.3.%.*.O.Q O.X.B                                                                                                                                                                                                                                                                                                                                       VXVXMXxXlXkX5X6X4X3X3X1X1XD.f.                                                                                                                                            J 3.e.e.w.<.w.9.                                                                                                                                                              ",
"                                                                                                  4.&.$.+.X.+.>.=.=.<.<.,.w.w.r.e.e.N.T.Y.Y.Y.R.R.R.!.R.E.!.!.,X,X,X<X<X<X<X2X2X2X2X2X4X5X5X5XkX5X5XkXkXkXkXkXkXkXkXkXkXkXkXkXkXkXkXkXkXkXkXkXkXkXlXkXkXxXxXlXlXlXlXlXlXlXlXxXxXxXxXxXxXxXxXxXxXmXmXmXmXMXMXMXMXmXxX5X'.b.3.$...O.X.O.$.m                                                                                                                                                                                                                                                                                                                                   l.PXSXzXzXcXjX5X6X3X3X3X&X1XL.f.                                                                                                                                                2.e.e.w.;.w.q.G                                                                                                                                                             ",
"                                                                                                  6.;.X.+.+...=.=.<.<.<.w.w.w.r.r.r.T.T.Y.Y.Y.R.R.R.R.R.E.!.!.,X,X<X<X<X<X<X2X2X2X2X4X4X5X5X5XkXkXkXkXkXkXkXkXkXkXkXkXkXkXkXkXkXkXkXkXkXkXkXkXkXkXkXkXxXxXlXlXlXlXlXlXlXlXlXxXxXxXxXxXxXxXxXxXxXxXmXmXmXMXMXMXCXmXxX4X`.v.6.*.O.X.X...$.                                                                                                                                                                                                                                                                                                                                  qXJXVXzXcXcXkX5X5X4X2X4X3X1XL.x.C                                                                                                                                                 G 9.e.r.e.;.w.e.                                                                                                                                                            ",
"                                                                                                4.$.=.X.X.+.=.+.=.<.<.,.,.w.r.w.r.r.T.T.Y.Y.R.R.R.R.R.E.!.!.,X,X,X<X<X<X<X<X2X2X2X2X4X5X5X5XkXkXkXkXkXkXkXkXkXkXkXkXkXkXkXkXkXkXkXkXkXkXkXkXkXkXxXxXxXxXxXxXlXlXlXlXlXlXlXlXxXxXxXxXxXxXxXxXxXxXxXmXmXmXMXMXMXmXmXxX2XI.v.;.*.X.X.X.X.B                                                                                                                                                                                                                                                                                                                               d.CXJXmXzXSXjX4XkX4X4X5X3X3X3X`.S.s.                                                                                                                                                  A 0.e.T.e.q.q.e.2.                                                                                                                                                          ",
"                                                                                                6.=.X.=.X.+.<.+.:.:.,.,.,.,.w.w.r.r.T.Y.Y.Y.R.R.R.R.E.E.!.!.,X,X,X<X<X<X<X<X2X3X2X2X4X5X5X5X5X5XkXkXkXkXkXkXkXkXkXkXkXkXkXkXkXkXkXkXkXkXkXkXlXkXlXlXxXlXlXxXlXlXlXlXlXlXlXlXxXxXxXxXxXxXxXxXxXxXxXmXmXxXMXMXMXmXmXjXOXI.c.%.O.X.O.X.X.V                                                                                                                                                                                                                                                                                                                             uXLXCXVXSXZX-XlXlX4X5X4X-X3X*X*Xf.a.                                                                                                                                                      6.e.T.e.r.;.w.q.                                                                                                                                                          ",
"                                                                                              k.;.+.O.X.<.+.+.<.:.:.,.,.,.,.w.r.r.T.T.Y.Y.R.R.R.R.R.E.E.!.,X,X,X,X<X<X<X<X2X3X3X2X4X5X5X5X5X5X5XkXkXkXkXkXkXkXkXkXkXkXkXkXkXkXkXkXkXlXkXkXkXlXlXlXlXlXlXlXlXlXlXlXlXlXlXlXxXxXxXxXxXxXxXxXxXxXxXmXmXmXxXMXMXMXmXxXjX{.H.2.%.O.X.X.W X.                                                                                                                                                                                                                                                                                                                            NXJXVXVXmXzXcXcXkX4X-X3X3X4X3X*XA.a.                                                                                                                                                        2.N.q.r.e.w.e.;.)                                                                                                                                                         ",
"                                                                                              &.$.+.+.O.O.+.=.<.<.<.,.w.w.r.r.r.T.T.N.Y.Y.R.R.R.E.E.E.!.,X,X,X,X,X<X<X<X<X2X2X3X2X4X5X5X5X5X5X5X5X5X5XkXkXkXkXkXkXkXkXkXkXkXkXkXkXkXlXlXlXkXkXkXlXlXlXxXxXxXlXlXxXlXlXcXcXcXxXxXxXxXxXxXxXxXxXmXMXMXmXMXMXMXMXMXvX4X'.B.6.*...o.o.X.&.                                                                                                                                                                                                                                                                                                                        HXVXVXVXBXMXxXlXkX4X4X2X2X<X3X=X&XA.a.                                                                                                                                                          J B.e.r.r.r.q.q.q.                                                                                                                                                        ",
"                                                                                            4.=.O.+.+.+.+.+.=.<.<.,.,.w.r.r.r.y.N.T.Y.Y.Y.R.R.R.E.E.E.!.,X,X,X,X<X<X<X<X2X2X2X3X5X4X5X5X5X5X5X5X5X5XkXkXkXkXkXkXkXkXkXkXkXkXkXkXkXkXkXkXlXkXkXkXlXlXlXlXxXxXlXlXlXlXlXcXcXcXcXxXxXxXxXxXxXxXxXmXMXMXmXMXMXMXMXMXxX2XP.v.;.$.O.o.o...D                                                                                                                                                                                                                                                                                                                       PXCXVXMXMXMXbXxXlX5X6X2X&X&X7X%X&Xx.A.                                                                                                                                                              b.M.r.r.r.q.,.,.[                                                                                                                                                       ",
"                                                                                            t.=.O.+.+.+.+.+.<.<.<.,.,.r.r.r.y.y.N.N.T.Y.Y.R.R.R.E.E.E.%X,X,X,X,X<X<X<X<X2X2X3X3X5X6X5X5X5X5X5X5X5XkXkXkXkXkXkXkXkXkXkXkXkXkXkXkXkXkXkXkXkXkXkXkXlXlXlXlXxXlXlXlXlXlXcXcXcXcXcXcXxXxXxXxXxXcXxXmXMXMXxXcXMXmXMXmXjX2XL.v.-.$.O.O.o...m                                                                                                                                                                                                                                                                                                                   gXLXJXLXMXMXcXcXxXxXkX5X2X2X2X6X=X3Xx.f.                                                                                                                                                                z.N.r.r.e.r.,.,.e.                                                                                                                                                      ",
"                                                                                          3.&.X.+.+.+.+.+.=.<.<.,.,.w.r.r.r.y.y.T.N.Y.Y.Y.R.R.R.E.E.%X%X,X,X,X,X<X<X<X<X2X2X3X5X6X6X5X5XkX5X5X5XkXkXkXkXkXkXkXkXkXkXkXkXkXlXlXlXkXkXkXkXkXkXkXkXlXlXlXlXxXxXlXlXlXlXcXcXcXcXcXcXxXxXxXxXxXxXxXmXmXmXMXcXMXmXmXmXkX=XJ.9.%.$.O.O.X.$.                                                                                                                                                                                                                                                                                                                  LXVXVXVXMXMXMXxXlXkXkXjX4X=X6X3X6X=XS.A.J                                                                                                                                                                 F N.r.r.e.e.w.:.;.D                                                                                                                                                     ",
"                                                                                          4.$.X.+.+.+.+.+.=.<.<.,.,.w.r.w.r.r.N.T.Y.Y.Y.Y.R.R.!.E.E.%X%X,X,X,X,X<X<X<X<X2X2X3X5X5X5X5X5XkXkXkXkXkXkXkXkXkXkXkXkXlXlXkXlXlXlXlXlXlXlXlXlXxXxXxXxXlXlXxXlXlXcXcXcXlXcXcXcXcXcXcXcXxXxXxXxXxXcXcXMXmXmXMXcXMXmXMXmXkX&XJ.9.%.*.O.O...$.                                                                                                                                                                                                                                                                                                              yXPXVXSXmXMXZXcXxXxXkXkX4X4X4X4X6X5X=X/.g.H                                                                                                                                                                   J M.e.r.M.N.w.,.=.q.                                                                                                                                                    ",
"                                                                                        4.X.=.+.+.+.+.+.+.=.<.<.,.,.w.w.r.r.r.N.T.Y.Y.Y.R.R.!.!.E.E.%X,X,X,X,X<X<X<X<X2X2X2X5X5X5X5X5X5XkXkXkXkXkXkXkXkXkXkXkXkXlXlXlXlXlXlXlXlXxXlXlXlXxXxXxXxXlXlXxXxXcXcXcXcXcXcXcXcXcXcXcXcXxXxXcXxXcXcXcXcXmXMXMXcXMXmXmXxXjX{.B.9.%.*.O.O...B                                                                                                                                                                                                                                                                                                             NXJXPXmXMXSXxXcXcXlXlXjX5X4X4X5XlX;X3X_.A.a.                                                                                                                                                                      v.e.r.M.M.0.w.+.<.G                                                                                                                                                   ",
"                                                                                        &.X.X.+.+.+.+.+.=.=.<.<.,.w.w.r.r.r.r.T.Y.Y.Y.Y.R.R.!.!.!.!.%X,X,X,X,X<X<X<X2X2X2X2X5X5X5X5X6X6X5XkXkXkXkXkXkXkXkXkXkXkXlXlXlXlXlXlXxXlXxXlXlXlXlXlXxXxXlXlXlXlXlXlXcXcXcXcXcXcXcXcXcXcXcXcXxXxXxXxXxXxXMXMXMXcXMXmXmXxX4X'.B.6.*.*.O...$.m                                                                                                                                                                                                                                                                                                         |.VXJXVXzXMXSXcXcXcXkXkXjX5X4X4X5X5X3X3XL.x.a.                                                                                                                                                                        2.M.r.e.T.0.u.@.<.q.                                                                                                                                                  ",
"                                                                                      4.X.#.X.#.+.+.+.+.=.=.<.<.w.w.w.r.r.y.T.T.Y.Y.Y.R.R.R.!.!.!.!.%X,X,X,X,X<X<X<X2X2X2X3X5X5X5X5X6X5X5XkXkXkXkXkXkXkXkXkXkXkXlXlXlXlXlXlXxXcXlXlXlXlXlXlXlXxXlXlXlXlXlXlXcXcXcXcXcXcXcXcXcXcXcXcXxXxXxXxXxXxXMXMXcXcXMXmXxXcX-X'.b.6.*.O.O.../ j                                                                                                                                                                                                                                                                                                       gXLXPXVXMXZXZXcXxXxXxXkX5XkX5X4X4X5X6X7X*Xx.f.                                                                                                                                                                          f.m.N.e.T.0.y.<.+.;.G                                                                                                                                                 ",
"                                                                                      4.X.X.+.#.+.+.+.+.<.<.<.,.w.w.r.r.r.N.T.T.Y.Y.R.R.R.R.E.!.!.!.,X,X,X,X<X<X<X2X2X2X3X3X5X5X5X5XkXkXkXkXkXkXkXkXkXkXlXlXlXlXlXxXlXxXlXlXlXlXlXlXlXlXlXlXlXlXlXlXxXxXlXlXlXcXcXcXcXcXcXcXcXcXcXcXxXxXxXcXcXcXMXMXcXxXMXMXmXlX3XP.v.6.$.O.O.$.&.                                                                                                                                                                                                                                                                                                      PXVXmXSXMXMXcXcXxXxXxXzXlX4X6X4X4XkX5X6X%Xx.f.                                                                                                                                                                            J B.N.e.0.T.7.<.+.,.t.                                                                                                                                                ",
"                                                                                    D X.X.X.o.+.+.+.+.=.<.<.<.,.w.r.r.r.N.T.T.T.Y.R.R.R.R.R.E.!.!.!.,X,X,X,X<X<X2X2X2X2X3X5X5X5X5X5XkXkXkXkX6X6XkXkXkXkXlXlXlXlXlXlXxXlXlXlXlXlXlXlXlXlXlXlXlXlXlXlXxXxXlXlXcXcXcXcXcXcXcXcXcXcXcXcXxXxXxXcXcXcXMXMXcXcXMXMXcXkX=XL.v.6.$.O.O.$.D                                                                                                                                                                                                                                                                                                   tXLXnXPXMXSXZXcXcXxXxXxXxXzXxXlX=X5X4X4XbX'.b.b.                                                                                                                                                                                B.M.N.e.T.0.w.,.+.;.H                                                                                                                                               ",
"                                                                                    4.X.+.X.X.+.+.+.=.<.<.<.,.w.r.r.r.r.N.T.T.Y.Y.R.R.R.R.R.!.!.!.!.,X,X,X,X<X<X2X2X2X2X3X5X5X5X5X5XkXkX5X5X6X6XkXkXkXkXlXlXlXlXlXlXlXxXlXlXlXlXxXxXlXlXlXlXlXlXlXlXlXxXlXlXcXcXcXcXcXcXcXcXcXcXxXxXxXxXxXcXcXcXMXMXMXcXMXMXcXlX&XH.9.;.*.O.O.$.A                                                                                                                                                                                                                                                                                                 JXPXVXVXmXMXcXcXcXcXxXxXxXjXjXkX4X4X5X5X6X,XH.z.C                                                                                                                                                                                 b.M.N.T.T.e.e.<.+.<.6.                                                                                                                                              ",
"                                                                                  G $.X.X.X.=.+.+.+.<.<.<.<.w.w.r.e.r.N.N.T.Y.Y.Y.R.R.R.R.R.!.!.!.E.,X,X,X<X<X<X2X2X2X3X5X5X5X5X5X5XkXkX5X5X6XkXkXkXkXlXlXlXlXlXlXlXlXlXlXlXlXlXxXlXlXlXlXlXlXlXcXlXlXlXlXlXcXcXcXcXcXcXcXcXcXcXxXxXxXxXxXcXcXcXMXMXcXcXMXcXcXkX&XJ.9.;.O.O.O.$.m                                                                                                                                                                                                                                                                                             uXPXBXBXSXmXxXSXxXcXcXxXxXzXjXjXjX4X-XlXjX6X3Xb.c.A                                                                                                                                                                                   A.V.N.T.N.N.e.;.<.<.$.m                                                                                                                                             ",
"                                                                                  4.B +.X...=...=.=.=.<.<.<.w.w.r.r.r.T.T.Y.Y.Y.R.R.R.R.R.R.!.!.!.E.,X,X,X<X<X<X2X2X3X3X5X5X5X5X5X5XkXkXkXkXkXkXkXkXkXlXlXlXlXlXlXlXlXlXxXxXcXcXxXxXlXlXlXcXcXlXcXcXlXlXlXlXcXcXcXcXcXcXcXcXcXcXcXcXcXcXcXcXxXxXxXcXcXcXMXcXcXkX&XJ.6.*.O.O.O.$.j                                                                                                                                                                                                                                                                                           LXVXVXmXSXmXMXSXjXSXcXcXxXkXkXjXjX4X4XbXjXkX3XI.z.A                                                                                                                                                                                     a.K.Y.Y.V.Y.r.r.<.=.=.%.                                                                                                                                            ",
"                                                                                D $.X.X.+.+.=.$.=.<.<.<.<.,.w.w.e.r.T.T.Y.Y.Y.Y.R.R.R.R.R.R.R.!.!.E.,X,X<X<X<X<X2X2X3X3X5X5X5X5X5X5XkXkXkXkXkXkXkXkXlXlXlXlXlXlXlXlXlXlXxXxXcXcXxXxXlXlXcXcXcXcXcXcXcXcXcXlXcXcXcXcXcXcXcXcXcXcXcXcXcXcXcXcXxXxXxXxXcXcXMXcXcXkX*XB.6.*...O.O.$.                                                                                                                                                                                                                                                                                        uXJXVXVXMXPXmXmXZXxXMXxXzXxXkXkXjX4X5X5X5X5XlX3XF.x.A                                                                                                                                                                                       H K.R.R.C.Y.e.y.:.>.=.7.J                                                                                                                                           ",
"                                                                                4.R +.X.+.=.$.=.=.<.<.<.<.,.w.e.r.T.T.T.T.Y.Y.Y.R.R.R.R.R.R.R.!.!.E.,X,X<X<X<X<X2X2X3X3X6X5X5X5X5X5XkXkXkXkXkXkXkXkXlXlXlXlXlXlXxXxXxXlXxXxXxXxXxXlXlXlXcXcXcXcXlXcXcXcXcXcXcXcXcXcXcXcXcXcXcXcXcXcXcXcXcXcXxXxXxXxXcXcXMXcXxX5X*Xb.5.*.O.O.Q /                                                                                                                                                                                                                                                                                       PXJXVXMXVXmXxXMXSXMXxXmXxXxXzXkXjX5X5X4X6XkX3X7XL.x.F                                                                                                                                                                                           K.E.W.R.C.r.w.,.:.O.:.v.                                                                                                                                          ",
"                                                                                 .X.X.+.+.=.=.<.<.<.<.<.,.w.w.e.r.T.T.T.Y.Y.Y.Y.R.R.R.R.R.R.R.!.!.E.,X,X<X<X<X<X2X2X3X5X6X6X5X5X5X5XkXkXkXkXkXkXkXlXlXlXlXlXlXlXxXxXxXxXxXxXxXxXlXlXlXlXcXcXcXcXlXcXcXcXlXcXcXcXcXcXcXcXcXcXcXcXcXcXcXcXcXcXxXxXxXcXcXcXcXcXxX5X`.v.5.*.O.O.E D                                                                                                                                                                                                                                                                                   uXLXVXBXVXMXmXMXMXmXzXMXMXzXvXxXkXjX5X;X4X5X6X3X7XD.f.a.                                                                                                                                                                                            P.%XE.E.C.N.w.7.u.>.=.5.                                                                                                                                          ",
"                                                                              | X.X.X.X.O.+.=.:.<.<.,.,.,.w.w.e.r.r.N.T.Y.Y.Y.Y.R.R.R.R.R.R.E.E.!.!.,X,X<X<X<X2X5X4X4X6X5X5X5X5XkXkX6XkXkXkXkXkXkXkXkXkXlXlXlXlXlXlXlXlXlXlXlXxXkXlXlXlXlXcXcXcXcXcXcXcXcXcXcXcXcXcXxXxXxXxXxXxXxXxXcXcXcXcXxXxXcXxXcXxXxXcXlX2XP.v.:.*.O.O...N                                                                                                                                                                                                                                                                                 VXVXVXVXMXMXMXMXZXZXMXMXxXvXvXkXkXkXjXlX5X4XkX6X7XB.z.f.                                                                                                                                                                                              L.%X%XE.R.N.e.w.w.:.>.*.1.                                                                                                                                        ",
"                                                                              &.X.X...$.+.+.<.:.<.,.,.,.w.w.r.r.r.y.N.T.Y.Y.Y.Y.R.R.R.R.R.R.E.!.!.,X,X<X<X<X2X2X5X4X6X6X5X5X5X5XkXkXkXkXkXkXkXkXkXkXkXlXlXlXlXlXlXlXxXxXlXlXxXxXlXlXlXlXlXcXcXcXcXcXcXcXcXcXcXcXcXcXxXxXxXxXxXxXxXxXcXcXcXcXxXcXcXxXcXcXxXcXlX2XP.v.-.O.O.O...m                                                                                                                                                                                                                                                                               JXVXVXMXMXMXMXMXMXcXMXMXmXxXxXvXkX5XlXjXjX5X5XlX3XB.z.f.J                                                                                                                                                                                               F.%X%X%XE.V.e.w.7.:.>.>.;.                                                                                                                                        ",
"                                                                            D &.X.X...O.=.=.<.:.,.,.,.w.w.w.r.r.r.r.N.T.Y.Y.Y.Y.R.R.R.R.R.E.!.!.!.,X,X<X<X<X2X2X5X6X6X6X5X5X5X5XkXkXkXkXkXkXkXkXlXlXlXlXlXlXlXkXlXxXxXxXlXlXlXlXxXxXlXlXlXlXcXcXcXcXcXcXcXcXcXcXcXcXcXcXcXcXxXxXxXxXcXcXcXcXxXcXcXxXxXcXxXcXlX2XL.v.-.O.O.E E m                                                                                                                                                                                                                                                                           NXLXVXVXMXMXMXMXMXMXMXMXcXcXMXxXxXlXkX5XlXjXjXlXlX3XP.z.z.F                                                                                                                                                                                                 k.&X%X%XE.C.N.e.6.:.>.>.:.D                                                                                                                                       ",
"                                                                            4.X.E ..X.O.=.=.:.:.,.,.w.w.w.r.r.r.r.N.T.T.Y.Y.Y.R.R.R.R.R.E.E.!.!.,X,X<X<X<X3X3X3X6X6X6X6X5X5X5X5XkXkXkXkXkXkXkXkXlXlXlXlXlXlXkXkXcXcXcXcXlXlXlXlXlXlXlXlXlXlXcXcXcXcXcXcXcXcXcXcXcXcXcXcXcXcXxXxXxXcXcXcXcXcXxXcXcXxXxXcXxXcXlX2XL.v.-.O.O...E k                                                                                                                                                                                                                                                                         HXLXLXVXMXMXMXMXMXMXMXcXMXcXcXcXxXxXzXkXkXkXjXkXbX4XL.z.z.G                                                                                                                                                                                                   s.<X%X%XE.R.N.e.7.:.>.>.>.1.                                                                                                                                      ",
"                                                                            4.X.X...+.+.=.=.:.,.w.w.w.w.r.w.r.y.r.N.T.T.Y.Y.Y.R.R.R.R.E.E.!.,X,X,X,X<X<X3X3X3X3X6X6X5X5X5X5X5X5X6X6XkXkXkXkXkXkXlXlXlXlXlXlXlXlXcXcXcXlXcXcXlXlXlXlXcXcXlXlXlXcXcXcXcXcXcXcXcXcXcXcXcXcXcXcXcXxXcXcXcXcXcXcXcXcXcXxXcXcXcXcXkX2XH.9.-.O.O...X.j                                                                                                                                                                                                                                                                     gXLXLXVXAXmXMXMXMXMXcXcXcXxXcXcXcXcXxXxXxXxXjXjX4XlX6X`.n.] F                                                                                                                                                                                                     Z &X%X%XE.R.C.e.7.:.>.>.=.;.                                                                                                                                      ",
"                                                                          4.&.X...O.+.+.=.<.,.w.w.w.r.r.w.r.r.y.N.T.T.Y.Y.Y.R.R.R.E.E.E.E.,X,X,X,X<X<X2X3X3X3X5X5X6X5X5X5X5X5X5X6X6XkXkXkXkXkXkXlXlXlXlXlXlXlXlXcXcXlXlXcXcXlXcXcXcXcXcXlXlXcXcXcXcXcXcXcXcXcXcXcXcXcXcXcXcXxXxXcXcXcXcXcXcXcXcXcXxXcXcXxXcXkX2XH.9.-.*.O...$.                                                                                                                                                                                                                                                                    LXLXNXVXCXMXSXMXMXcXcXcXcXcXxXxXxXcXcXbXxXxXxXxXlX5X6X`.x.] [                                                                                                                                                                                                       C {.&X%X%XR.C.e.w.:.>.>.+.=./                                                                                                                                     ",
"                                                                          4.$...O.O.+.+.<.q.w.w.w.r.e.e.e.r.r.y.T.T.T.Y.Y.Y.R.R.E.E.E.!.,X,X,X,X<X<X2X3X3X3X5X5X5X5X5X5X5X5XkXkX6X6XkXkXkXkXkXkXkXkXlXlXlXlXcXcXcXlXlXlXcXcXcXcXcXcXcXcXlXlXcXcXcXcXcXcXcXcXcXcXcXcXxXcXxXxXxXxXcXcXcXcXcXxXcXxXcXlXcXcXxXcXkX<XH.9.*.O.O.X.$.                                                                                                                                                                                                                                                                rXLXPXVXVXMXPXmXMXZXbXcXcXMXcXcXcXxXxXcXlXlXlXxXxXcXlX2X'.c.f.F                                                                                                                                                                                                           {.&X&X%XE.K.e.w.:.>.>.+.+.;.                                                                                                                                    ",
"                                                                        G $.$.O.O.O.+.=.<.w.w.r.w.r.e.e.e.r.r.T.T.T.Y.Y.Y.R.R.R.E.E.E.E.,X,X,X<X1X<X3X3X3X5X5X5X5X5X5X5X5X5XkXkX6X6XkXkXkXkXkXkXkXkXkXlXlXlXcXcXlXlXlXlXcXcXcXcXcXcXcXcXcXcXcXcXcXcXcXcXcXcXcXcXxXxXxXxXxXxXxXxXcXcXcXcXcXxXcXxXcXlXcXcXxXcXkX<XH.v.*.*.O.X.$.                                                                                                                                                                                                                                                              PXJXVXMXVXMXSXxXMXMXbXbXMXMXMXcXcXMXmXcXcXlXkXkXxXxXxX5X'.c.[ ]                                                                                                                                                                                                             [.<X<X&X%XR.N.w.:.>.>.@.#.;.m                                                                                                                                   ",
"                                                                        D &...X.*.=.=.=.,.w.e.e.r.e.e.e.e.y.N.T.T.T.Y.Y.Y.Y.R.R.E.E.,X,X,X,X<X1X1X3X3X3X5X5X5X5X5X5X5X5X5X5XkXkXkXkXkXkXkXkXkXkXlXlXlXlXlXlXcXcXcXcXcXcXlXlXlXlXlXlXcXcXcXcXcXcXcXcXcXcXcXcXcXcXxXxXxXxXxXxXxXxXcXcXcXcXcXxXxXcXcXxXcXcXlXlXkX2XJ.0.-.*.O...$.                                                                                                                                                                                                                                                          uXJXVXSXVXVXMXMXMXMXZXZXMXMXMXMXMXcXxXcXMXxXxXcXlXkXkXlXkX{.b.2.[ A                                                                                                                                                                                                             [.<X&X<X%XR.M.w.w.:.>.@.@.O.%.                                                                                                                                  ",
"                                                                        4...X.O.*.=.=.<.w.e.e.r.e.e.e.e.y.T.N.T.T.Y.Y.Y.Y.R.R.R.E.E.,X,X,X<X1X1X3X3X3X3X5X5X5X5X5X5X5X5X5X5XkXkXkXkXkXkXkXkXkXlXlXlXlXlXlXlXcXcXlXcXcXcXlXlXlXlXlXlXcXlXcXcXcXcXcXcXcXcXcXcXcXcXxXxXxXxXxXxXxXxXcXcXcXcXxXcXxXcXcXxXxXcXlXlXkX2XJ.0.-.*.....&.                                                                                                                                                                                                                                                        BXLXVXPXMXSXVXMXMXMXMXZXZXMXMXMXMXcXcXxXcXxXxXcXcXlXkXlX6X&XD.f.G F                                                                                                                                                                                                               ].&X<X1X%XE.M.w.w.:.>.+.O.+.;.                                                                                                                                  ",
"                                                                      G %.E O.O.*.=.:.,.w.e.e.e.e.e.e.y.T.T.T.T.Y.Y.Y.R.R.R.R.E.E.,X,X,X<X<X1X3X3X3X3X5X5X5X5X5X5X5X5X5XkXkXkXkXkXkXkXkXkXkXlXlXlXlXlXlXlXlXcXcXlXlXcXcXcXcXlXlXcXcXcXcXcXcXcXcXcXcXcXcXcXcXcXcXcXcXxXxXxXxXcXcXcXcXcXcXcXcXcXcXcXxXcXcXxXcXkX2XP.v.;.*...$.$.                                                                                                                                                                                                                                                    l.LXPXMXSXzXSXMXMXMXMXMXMXMXMXMXMXMXMXMXMXxXcXxXbXcXkXlXlX6X1XD.z.[ F                                                                                                                                                                                                                 ^.<X<X1X&XE.N.w.w.:.>.+.O.O.=.B                                                                                                                                 ",
"                                                                      4.$...O.O.=.=.,.w.e.N.e.e.e.e.y.T.T.T.T.Y.Y.Y.R.R.R.R.R.E.E.,X,X,X<X1X2X3X3X3X5X5X5X5X5X5X5X5X5X5XkXkX5X5XkXkXkXkXkXkXlXlXlXlXlXlXlXlXcXcXlXlXcXcXcXcXcXcXcXcXcXcXcXcXcXcXcXcXcXcXcXcXcXcXcXcXxXxXxXxXcXcXcXcXcXcXcXcXcXcXcXxXcXcXcXcXkX2XP.M.;.=...$.$.                                                                                                                                                                                                                                                  gXJXBXSXSXSXMXSXZXMXMXMXMXMXMXMXMXMXMXcXMXxXxXcXxXxXlXlXlX6X*XD.z.[ F                                                                                                                                                                                                                   S.<X<X3X&XP.N.w.w.:.>.>.O.O.o.;.                                                                                                                                ",
"                                                                      &...*...=.=.<.w.e.e.M.N.e.N.N.N.N.N.T.T.T.Y.Y.R.R.R.R.R.E.E.%X%X,X1X<X2X3X3X5X5X5X5X5X5X6X5X5X5XkX6X6X6X6XkXkXkXkXlXlXlXlXlXlXlXlXlXlXlXlXlXlXlXlXcXcXcXcXcXcXcXcXcXcXcXcXcXcXcXcXcXcXcXcXcXcXxXxXxXxXcXcXcXcXcXcXcXcXMXMXcXxXcXcXcXcXlX2XP.M.7.=...$. .                                                                                                                                                                                                                                              eXPXVXPXVXMXmXMXxXZXMXMXMXMXMXMXMXMXmXmXmXxXxXxXcXxXxXkXkX6X5X*XD.f.[ G                                                                                                                                                                                                                     k.<X2X3X=X%XN.w.w.:.>.>.>.O.o.=.                                                                                                                                ",
"                                                                    D $.O.O...=.&.<.e.M.M.M.N.e.N.N.N.T.N.T.Y.Y.Y.Y.R.R.R.R.R.E.E.%X,X<X1X1X2X3X3X5X5X5X5X5X5X5X5X5XkXkX6X6X6X6XkXkXkXkXlXlXlXlXlXlXlXlXlXlXlXcXlXlXcXcXcXcXcXcXcXcXcXcXcXcXcXcXcXcXcXcXcXcXcXcXcXcXxXxXxXxXcXcXMXMXMXMXcXcXcXcXcXxXcXbXcXcXlX2XE.B.7.:.$.&. .                                                                                                                                                                                                                                            PXJXBXSXmXMXSXSXMXSXxXMXMXMXMXMXMXmXcXmXxXxXxXxXxXxXlXxXlXlX3X*XD.f.] F                                                                                                                                                                                                                       a.<X<X3X=X%XN.w.w.:.>.>.@.@.@.O.4.                                                                                                                              ",
"                                                                    | ..O...$.&.=.,.e.T.T.T.T.T.T.T.T.T.T.T.Y.Y.Y.Y.R.R.R.R.E.E.E.,X,X<X<X<X2X3X2X3X5X5X5X5X6X5X5X5XkXkXkXkXkXkXkXkXkXkXlXlXlXlXlXlXlXlXlXlXcXcXcXcXcXcXcXcXcXcXcXcXcXcXcXcXcXcXcXcXcXcXcXcXcXcXcXcXcXcXMXcXcXcXMXMXMXMXMXMXMXMXMXcXcXbXcXbXlX2XE.V.7.:.$.&. .                                                                                                                                                                                                                                          LXVXVXVXSXMXMXmXmXMXAXxXMXcXMXMXMXMXMXMXmXcXxXxXcXlXlXlXxXlX4X`.b.] { [                                                                                                                                                                                                                         a.%X<X3X;X*XN.w.w.:.:.>.@.@.@.X.;.                                                                                                                              ",
"                                                                    &...X...;.$.<.q.N.V.T.T.T.T.T.T.Y.Y.Y.Y.Y.Y.Y.Y.R.R.R.R.E.E.%X%X<X<X<X2X3X3X2X3X5X5X5X5X6X6X5X5XkXkXkXkXkXkXkXkXkXkXlXlXlXlXlXlXlXlXlXlXcXcXcXcXcXcXcXcXcXcXcXcXcXcXcXcXcXcXcXcXcXcXcXcXcXcXcXcXcXcXMXMXcXcXMXMXMXMXMXMXMXMXMXcXcXbXcXbXcX5X%XV.7.:.*.;.|                                                                                                                                                                                                                                       GXLXLXBXBXSXmXMXMXMXMXMXmXMXmXMXMXcXcXcXMXMXMXcXxXxXcXcXlXlXkX4X{.A.] ] [                                                                                                                                                                                                                           a.'.<X5X3X*XV.r.w.w.:.>.>.@.@.O.$.                                                                                                                              ",
"                                                                  D %.$...=.$.;.q.e.N.C.C.C.V.V.Y.Y.Y.Y.Y.Y.Y.Y.Y.R.R.R.R.E.E.E.%X%X<X1X<X3X3X3X3X5X5X5X5X6X6X5XkXkXkX6X6X5XkXkXkXkXkXkXlXlXlXlXlXlXlXcXcXcXcXcXcXcXcXcXcXcXcXcXcXcXcXcXcXcXcXcXcXcXcXcXxXxXcXcXMXMXcXcXcXcXcXMXMXMXVXVXMXMXMXMXcXcXcXbXZXbXlX5X%XC.w.:.*.%.4.                                                                                                                                                                                                                                    CXPXBXVXSXMXVXMXMXMXMXMXMXMXMXVXMXMXcXbXcXbXmXMXmXxXxXcXxXzXlX3X%Xb.[ [ ] H                                                                                                                                                                                                                           s.%X3X5X3X&XW.M.e.,.:.>.@.@.@.O.>.N                                                                                                                             ",
"                                                                  / %.$.$.=.$.;.e.M.V.C.C.C.Y.Y.Y.Y.Y.Y.Y.Y.Y.Y.R.R.R.R.E.E.E.E.%X&X&X1X2X3X3X3X5X5X5X5X5X6X6X5XkXkXkXkX5X5XkXkXkXkXkXlXlXlXlXlXlXlXcXcXcXcXcXcXcXcXcXcXcXcXcXcXcXcXcXcXcXcXcXcXcXcXcXcXxXxXcXcXMXMXcXcXcXcXcXMXMXVXVXVXMXMXMXMXcXcXcXZXZXbXcX5X%XC.e.:.=.%.4.                                                                                                                                                                                                                                gXBXPXSXmXVXVXMXSXMXMXMXMXMXMXMXMXMXMXmXcXcXbXbXbXmXMXcXxXlXlXxXkXL.b.2.G [ G                                                                                                                                                                                                                             s.&X3X5X3X&XW.V.r.w.:.>.+.@.@.@.O./                                                                                                                             ",
"                                                                  %.%.$...*.*.;.e.M.V.C.C.C.Y.Y.Y.Y.Y.Y.Y.Y.R.R.R.R.R.R.E.E.E.%X%X&X<X<X2X3X3X3X5X5X5X5X5X6X5X5XkXkXkXkXkXkXkXkXkXkXkXlXlXlXlXlXlXcXcXcXlXcXlXlXcXcXcXcXcXcXcXcXcXcXcXcXcXcXcXcXcXcXcXcXxXxXcXcXcXcXcXcXcXcXMXMXMXVXVXVXMXMXMXMXcXcXMXZXZXZXcX5X,XK.e.:.;.%.4.                                                                                                                                                                                                                              GXLXPXSXMXMXSXVXMXVXMXMXMXMXMXMXMXMXMXcXMXMXmXbXbXMXxXcXxXlXlXlXjX&Xb.8.[ [ G                                                                                                                                                                                                                               s.'.3X5X4X&XE.V.r.w.:.>.=.O.@.O.o.;.                                                                                                                            ",
"                                                                A 1.( $...*.=.6.e.M.V.C.C.C.R.R.R.Y.R.Y.R.R.R.R.R.R.R.E.E.E.E.%X%X<X<X<X2X3X3X3X5X5X5X5X5X5X5X5XkXkXkXkXkXkXkXkXkXlXlXlXlXlXlXlXcXcXcXcXlXlXlXlXcXcXcXcXcXcXcXcXcXcXcXcXcXcXcXcXcXcXcXcXxXxXcXcXcXcXcXcXcXcXcXMXMXMXVXVXVXMXMXMXcXcXMXcXZXZXcX6X<XK.e.6.:.;.4.                                                                                                                                                                                                                          l.PXVXJXVXMXMXSXVXMXMXVXMXMXMXMXMXMXMXMXcXcXMXmXZXbXbXcXcXxXkXkXlX6X[.D.z._ [ f.                                                                                                                                                                                                                                s.'.3X5X5X<XE.C.r.w.:.>.>.O.@.O.o.:.m                                                                                                                           ",
"                                                                G %.$.$...*.:.w.e.M.V.C.J.R.R.R.R.R.R.R.R.R.R.R.R.R.E.E.E.E.%X%X%X<X<X<X2X2X3X3X5X5X5X5X5X5X5X5XkXkX6X6XkXkXkXkXlXlXlXlXlXlXlXlXcXcXcXcXcXcXlXlXcXcXcXcXcXcXcXcXcXcXcXcXcXcXcXcXcXcXcXcXcXcXcXcXcXcXcXcXcXcXcXMXMXMXVXVXVXMXMXMXxXcXcXMXZXZXcXkX<XK.M.7.;.;.4.                                                                                                                                                                                                                        rXPXCXPXVXSXVXVXVXmXMXVXVXMXMXMXMXMXMXMXcXcXcXmXZXZXbXxXcXlXlXlXlX5X*XD.] ) _ [                                                                                                                                                                                                                                   s.'.3X5X5X2X%XC.e.w.:.:.>.+.@.@.@.*.D                                                                                                                           ",
"                                                                4.$.$.$...*.:.w.e.M.B.C.R.R.R.R.R.R.R.R.R.R.R.R.R.E.E.E.E.E.%X%X,X<X<X<X2X2X3X3X5X5X5X5X5X5X5X5XkXkXkX6XkXkXkXkXlXlXlXlXlXlXlXlXcXcXcXcXcXcXlXcXcXcXcXcXcXcXcXcXcXbXcXcXcXcXcXcXcXcXcXcXcXcXcXcXcXcXcXcXcXcXcXMXMXMXVXVXVXVXMXMXxXcXMXMXZXZXcXkX<XP.N.7.6.6.4.                                                                                                                                                                                                                      PXJXmXPXVXmXSXVXVXMXMXVXSXMXMXMXMXMXMXMXMXcXcXcXbXmXmXxXcXlXkXlXlX5X*XD.2.' / '                                                                                                                                                                                                                                     s.'.4X5X5X2X%XC.e.w.:.:.>.=.+.o.@.E %.                                                                                                                          ",
"                                                              A %.$.$...$.*.;.w.e.M.V.C.R.R.R.R.R.R.R.R.E.R.E.E.E.E.E.E.E.%X%X%X,X<X<X1X2X2X3X3X5X5X5X5X5X5X5X5XkXkX6X6XkXkXkXkXlXlXlXlXlXlXlXcXlXlXlXlXcXcXcXcXcXcXcXcXcXcXcXcXcXcXcXcXcXcXcXcXcXcXcXcXcXcXcXcXMXMXcXcXcXcXcXMXMXVXVXVXVXVXMXMXcXcXMXcXZXZXMXlX2XE.V.e.7.6.3.                                                                                                                                                                                                                  rXJXVXSXSXMXVXSXMXMXMXMXMXMXMXMXMXMXMXMXMXMXMXMXZXbXbXmXxXcXlXlXlXlX5X*XD.] ) ) D H                                                                                                                                                                                                                                     s.'.3X5X5X2X%XR.N.w.w.:.>.>.@.@.@.o.$.j                                                                                                                         ",
"                                                              c.%.$.$.E *.:.;.7.e.M.V.C.R.R.R.E.R.R.R.R.R.R.E.E.E.E.E.E.E.%X%X%X<X<X<X1X2X2X3X3X5X5X5X5X5X5X5X5XkXkX6X6XkXkXkXkXlXlXlXlXlXlXcXlXlXlXlXlXcXcXcXcXcXcXcXcXcXcXcXcXcXcXcXcXcXcXcXcXcXcXcXcXcXcXcXcXMXMXcXcXcXcXcXMXMXVXVXVXVXVXMXMXMXMXMXcXZXZXMXxX2X%XY.e.e.6.3.                                                                                                                                                                                                                PXPXPXVXmXSXSXmXMXMXMXMXMXMXmXmXSXMXMXMXMXMXMXMXZXbXbXbXMXxXcXlXlXlX6X&XD.f.' ) _ G                                                                                                                                                                                                                                       s.'.4X5XkX3X%XR.N.e.w.:.:.>.@.@.o.o.O.N                                                                                                                         ",
"                                                              G / $...E *.>.7.w.0.N.V.C.R.R.R.E.E.E.E.E.E.E.E.E.E.E.E.E.%X%X%X%X<X<X<X<X2X2X3X3X5X5X5X5X5X5X5X5XkXkXkXkXkXkXlXlXlXlXlXlXlXlXlXlXcXlXlXlXcXcXcXcXcXcXcXcXcXcXcXcXcXcXcXcXcXcXcXcXcXcXcXcXcXcXcXcXMXMXcXcXcXcXMXMXMXMXSXVXVXSXMXMXMXxXcXcXZXMXMXcX5X'.R.N.9.q.3.                                                                                                                                                                                                            uXPXVXVXVXVXVXVXVXMXMXMXMXMXMXMXMXMXMXMXMXMXMXMXMXMXMXZXMXxXcXcXxXlXlX6X&Xb.z.' ' _ {                                                                                                                                                                                                                                         s.'.2XkX5X3X%XE.N.r.7.7.:.>.+.@.@.o.X.$.                                                                                                                        ",
"                                                            A | $.....E *.:.7.e.e.N.N.M.B.V.Y.R.!.E.E.E.E.E.E.E.E.E.E.E.%X%X%X,X<X<X<X<X2X2X3X3X5X5X5X5X5X5X5X5XkXkX6XkXkXkXlXlXlXlXlXlXlXlXlXlXcXlXlXlXcXcXcXcXcXcXcXcXcXcXcXcXcXcXcXcXcXcXcXcXcXcXcXcXcXcXcXcXcXMXcXcXcXcXMXMXMXMXSXVXVXSXMXMXmXxXcXcXZXMXMXcX5X{.E.V.e.q.3.                                                                                                                                                                                                          KXPXJXBXSXVXVXMXVXMXVXMXMXMXMXMXMXMXMXMXMXMXMXMXMXMXMXMXmXMXMXxXxXlXlX5X*Xb.n.' ' { {                                                                                                                                                                                                                                           s.{.4XkX5X3X&XE.C.e.w.7.:.>.+.@.o.o.o...                                                                                                                        ",
"                                                            | &.X.....E *.7.7.e.e.M.M.M.9.9.m.m.!.E.E.E.E.E.E.E.E.E.E.E.%X%X%X,X<X<X<X1X<X3X3X3X5X5X5X5X5X5X5X5X5X5X6XkXkXkXkXkXlXlXlXlXlXlXcXcXcXcXlXlXcXcXcXcXcXcXcXcXcXcXcXcXcXcXcXcXcXcXcXcXcXcXcXcXcXcXcXcXcXcXcXcXcXcXcXMXMXMXSXVXVXSXMXMXmXxXcXZXZXMXMXMXkX&X,XC.M.e.3.                                                                                                                                                                                                      gXLXLXVXMXSXVXMXMXMXVXVXVXMXMXMXMXMXMXMXMXMXMXMXcXcXMXMXcXcXzXcXcXxXzXlX4X*Xb.8.' %._ [                                                                                                                                                                                                                                             s.{.4XlXkX4X&XE.C.e.e.7.:.:.+.@.#.o.o...S                                                                                                                       ",
"                                                            | $.....E E -.7.w.e.e.9.9.9.9.9.9.5.E.%XE.E.E.E.E.E.E.E.E.E.%X%X%X,X<X<X1X1X3X3X3X3X5X5X5X5X5X5X5X5X5X6X6XkXkXkXkXkXlXlXlXlXlXlXcXcXcXcXlXlXlXcXcXcXcXcXcXcXcXcXcXcXcXcXcXcXcXcXcXcXcXcXxXcXcXcXcXcXcXcXcXcXcXcXcXMXMXMXVXVXVXVXMXMXxXxXcXZXZXZXMXMXxX3X,XR.M.m.3.                                                                                                                                                                                                    VXPXCXVXPXMXMXMXVXMXMXMXMXMXMXMXMXMXMXMXMXMXMXMXMXcXcXMXcXcXcXxXxXxXlXlX5X[.A.2.1.) _ ]                                                                                                                                                                                                                                               a.{.4XkXkX4X&XE.C.M.e.7.7.:.+.@.@.o.o.o._                                                                                                                       ",
"                                                            D X...$.( ( :.7.w.e.e.6.6.6.;.-.5.1.R.%XE.E.E.E.E.E.E.E.E.E.%X%X%X%X<X<X<X1X2X3X3X3X5X5X5X5X5X5X6X6X5X5XkXkXkXkXkXkXlXlXlXlXlXlXcXcXcXcXcXcXlXlXlXlXcXcXcXcXcXcXcXcXcXcXcXcXcXcXcXcXcXcXcXcXcXcXcXcXcXcXcXcXcXcXcXMXMXVXVXVXMXVXMXMXmXxXcXZXZXVXVXMXxX4X,XR.M.e.3.                                                                                                                                                                                                uXPXVXMXVXSXVXMXSXMXMXMXMXMXMXMXMXMXMXMXMXMXMXMXMXcXcXcXMXMXcXcXcXvXlXlXlX4X`.D.] ' 5._ '                                                                                                                                                                                                                                                 a.'.5XkXkX4X&XE.C.N.e.0.7.:.@.@.o.@.o.Q (                                                                                                                       ",
"                                                          G D X...$.( $.6.7.0.e.e.6.q.6.-.$.-.5.C.%X%XE.E.E.E.E.E.E.E.E.%X%X,X%X<X<X<X1X2X3X3X3X5X5X5X5X5X5X6X6XkX5XkXkXkXkXkXkXlXlXlXlXlXlXcXcXcXcXcXcXlXlXlXlXcXcXcXcXcXcXcXcXcXcXcXcXcXcXcXcXcXcXcXcXcXcXcXcXcXcXcXcXcXcXcXMXMXVXVXVXMXVXMXMXmXxXcXMXZXVXVXMXcX5X1XR.V.e.9.                                                                                                                                                                                              LXLXCXMXSXVXMXVXVXMXMXMXMXMXMXMXMXMXMXMXMXMXMXMXMXcXcXcXcXcXcXcXcXcXlXlXlX3X`.x.] ' ) ) ' J                                                                                                                                                                                                                                                 S.'.5XkXkX4X=X%XK.N.y.y.7.:.@.@.o.o.! Q ..k                                                                                                                     ",
"                                                          4.$.X...$.( $.6.0.e.e.e.w.w.7.;.$.( -.V.,X,XE.%X,XE.!.E.E.E.%X,X,X,X,X<X<X<X1X2X3X3X3X5X5X5X5X5X5X5X5XkXkXkXkXkXkXkXkXlXlXlXlXlXlXcXcXlXlXcXlXlXlXcXcXcXcXcXcXcXcXcXcXcXcXcXcXcXcXcXcXcXcXcXcXcXcXcXcXcXMXcXcXcXcXcXMXMXVXVXVXMXVXMXMXmXcXcXMXZXMXVXVXMXkX1XR.C.m.m.                                                                                                                                                                                          uXLXNXVXAXAXVXVXVXVXMXMXMXMXMXMXMXMXcXcXMXMXMXMXMXcXcXcXcXcXcXcXcXcXcXcXlXkX3X`.b.1.( ( ( _ F                                                                                                                                                                                                                                                   S.'.5XkXkX5X3X%XK.N.T.y.7.:.@.@.o.o.o.Q o.B                                                                                                                     ",
"                                                          D X.X...$.( $.6.0.e.e.0.7.;.w.y.:.E ( V.,X,XE.,X,XE.E.%X%X%X,X,X,X,X<X<X<X<X1X2X3X3X3X3X5X5X5X5X5X5X5XkXkXkXkXkXkXkXkXlXlXlXlXlXlXcXcXlXlXlXlXcXlXcXcXcXcXcXcXcXcXcXcXcXcXcXcXcXcXcXcXcXcXcXcXxXcXcXcXMXMXcXcXcXMXMXMXMXVXVXMXMXVXMXMXmXcXcXcXMXMXVXVXMXkX3XE.R.m.m.                                                                                                                                                                                        NXLXVXLXVXVXVXMXCXVXVXMXMXMXMXMXMXMXcXcXcXcXMXMXMXxXcXcXcXcXcXcXcXcXcXcXcXlX5X%Xx.1.-.` E ) ]                                                                                                                                                                                                                                                     ^.'.5XkXkX5X2X%XK.C.y.y.7.:.@.@.+.O.Q Q o./                                                                                                                     ",
"                                                          &.R ..E *.$.$.;.e.e.0.7.7.7.7.7.7.( T v.1X%X,X%XE.%X%X%X%X%X%X,X<X<X<X<X<X<X2X3X3X2X3X3X5X5X5X5X6X5X5X5X6XkXkXkXkXlXlXlXcXcXcXlXlXcXcXcXcXcXcXcXcXcXlXlXlXlXcXcXcXlXlXcXcXcXcXcXcXcXcXcXcXxXcXcXcXcXcXMXMXMXcXMXMXMXMXMXMXMXMXMXMXMXMXMXMXcXMXMXMXVXVXMXbX3X,XK.C.e.                                                                                                                                                                                      PXLXVXVXBXVXVXVXMXMXMXMXMXMXMXMXMXMXcXcXcXcXcXMXMXMXMXcXcXlXlXxXcXxXxXxXlX6X3XE.z.1.) ( ` ^ 2.                                                                                                                                                                                                                                                      F.{.4XlXkXjX2X%XE.C.e.e.7.:.+.+.+.O.o.! o.$.                                                                                                                    ",
"                                                        A $...E Q *.( $.6.e.e.6.7.7.7.7.7.7.( B v.1XE.,X%X%X%X%X%X%X%X%X<X<X<X<X<X<X<X2X2X3X2X3X3X3X5X5X5X6X5X5X5X6XkXkXkXlXlXlXlXcXcXcXlXlXlXcXcXlXcXcXcXcXlXlXlXlXlXlXcXcXcXcXcXcXcXcXcXcXcXcXcXcXxXcXcXcXcXMXMXMXMXMXMXMXMXMXMXMXMXMXMXMXMXMXMXcXcXcXMXMXVXVXMXZX4X<XP.C.e.D                                                                                                                                                                                 CXPXVXnXVXSXVXVXVXVXMXMXMXMXMXMXMXMXMXMXcXMXcXcXcXcXMXMXMXcXcXlXvXcXcXxXxXcX6X3XJ.n.8.) ( ( T '                                                                                                                                                                                                                                                         F.{.4XlXkXjX2X%XE.C.e.r.7.:.@.+.+.O.o.! o.O.j                                                                                                                   ",
"                                                        G $.$.E *.*.( $.w.r.e.6.6.7.7.5.-.-.( B v.1X%X,X%X%X%X%X%X%X%X&X<X<X<X<X<X<X2X2X3X3X2X3X5X5X5X5X5X6X5X6X6X6XkXkXkXkXlXlXlXcXcXcXlXlXcXcXcXcXcXcXcXcXcXxXcXcXcXcXcXcXcXcXcXcXcXcXcXcXcXcXcXcXxXcXcXMXMXMXMXMXMXMXMXMXMXMXMXMXMXMXMXMXMXMXMXxXxXxXMXMXVXVXMXZX5X<XP.C.N.|                                                                                                                                                                             uXPXLXLXVXVXSXMXMXSXVXMXMXMXMXMXMXMXMXMXMXMXMXMXMXMXxXxXMXMXMXZXcXcXcXcXxXxXcXkX=X%Xn.1.' ) R ( )                                                                                                                                                                                                                                                           /.{.4XlXkXjX2X%XE.Y.N.r.7.:.@.+.+.O.o.! ! *.D                                                                                                                   ",
"                                                        4./ $.E *.$.( -.e.T.e.6.6.6.7.:.-.-.$.^ m.1X,X,X%X%X%X%X%X%X&X<X<X<X<X<X<X<X2X2X3X3X3X3X5X5X5X5X5X5X5X5X6X6XkXkXkXkXlXlXlXcXlXlXlXlXcXcXcXcXcXcXcXcXcXcXcXcXcXcXcXcXcXcXcXcXcXcXzXzXzXcXcXcXxXcXcXMXMXMXMXMXMXMXMXMXMXMXMXMXMXMXMXMXMXMXmXxXxXxXMXMXVXVXMXZXlX2XP.K.N.4.                                                                                                                                                                          LXLXVXCXBXVXVXMXMXMXMXMXMXMXMXMXMXMXMXMXMXMXMXMXMXMXcXcXcXMXZXZXZXbXcXxXxXxXxXkX3X`.b.8.5.( ( ( ) S                                                                                                                                                                                                                                                           /.<X5XlXkX5X2X%XE.Y.N.w.7.:.=.@.+.@.O.! ! O.%.                                                                                                                  ",
"                                                        4./ ..E *.( ( 6.T.T.9.6.6.6.:.:.;.;.-.) m.1X%X%X%X%X%X%X%X&X&X&X<X<X<X<X<X<X2X2X2X3X3X3X5X5X5X5X5X5X5X5X6X6XkXkXkXkXlXlXlXlXlXlXcXcXcXcXcXcXcXcXcXcXcXcXcXcXcXcXcXcXcXcXcXcXcXlXxXcXcXcXcXcXcXcXcXcXMXMXMXMXMXMXMXMXMXMXMXMXMXMXMXMXMXMXMXxXxXxXMXMXVXVXMXZXlX2XE.C.N.c.                                                                                                                                                                      l.LXJXCXLXPXSXVXMXmXMXAXmXMXMXMXMXMXMXMXMXMXMXMXMXcXcXcXcXcXcXMXZXZXZXZXcXxXcXcXkX3X`.D.2.) ( ( R 5.D                                                                                                                                                                                                                                                           d./.2XkXlXkX5X2X%XE.R.N.e.w.:.<.@.@.@.O.o.o...&.                                                                                                                  ",
"                                                      A D $...$.*.$.%.7.T.N.6.6.-.:.:.-.:.:.-.) b.1X%X,X%X%X%X&X&X&X&X&X<X<X<X<X<X<X2X2X2X3X3X3X5X5X5X5X5X5X5X5X6X6XkXkXkXkXlXlXlXlXcXcXcXcXcXcXcXcXcXcXcXcXcXcXcXcXcXcXcXcXcXcXcXcXcXlXxXzXzXzXcXcXcXcXcXcXMXMXMXMXMXMXMXMXMXMXMXMXMXMXMXMXMXMXMXxXxXxXMXMXVXVXMXZXbX2X%XK.N.Z.                                                                                                                                                                    gXLXPXCXVXVXMXmXMXSXMXmXmXmXMXMXMXMXMXMXMXMXMXMXMXMXcXcXcXcXcXcXMXMXZXMXMXcXcXcXlX3X`.D.z.' ) ^ ( :.[                                                                                                                                                                                                                                                             d._.2XkXlXkX5X2X%XE.R.N.e.u.:.<.=.@.@.O.o.O.Q $.                                                                                                                  ",
"                                                      H D X.$.*.*.$.-.e.T.e.6.6.-.:.-.*.-.-.%.) b.1X,X,X&X&X&X&X&X&X&X&X<X<X<X<X<X2X2X2X3X3X3X3X5X5X5X5X5X5X5X5X5X5XkXkXkXkXlXlXlXcXcXcXlXlXlXcXcXcXcXcXcXcXcXcXcXcXcXcXcXcXcXcXcXlXlXlXkXkXkXkXcXcXcXcXMXMXMXMXMXMXMXMXMXMXMXMXMXMXMXMXMXMXMXMXMXMXxXxXmXMXMXMXMXZXbX3X%XP.V.Z.                                                                                                                                                                l.JXVXVXCXPXVXMXSXMXmXMXSXVXMXMXMXMXMXMXMXMXMXMXMXMXMXMXcXcXcXcXcXcXMXMXMXMXMXcXlX6X3XP.b.8.' ) ( ( ( _                                                                                                                                                                                                                                                               k._.2XkXlXkX4X<X%XE.R.T.e.u.:.:.<.@.@.O.O.O.Q $.m                                                                                                                 ",
"                                                      G D E $.*.*.( -.e.T.e.5.6.:.-.*.*.-.-.) ) b.1X,X,X1X&X&X&X&X&X&X<X<X<X<X<X2X2X2X2X3X3X3X3X5X5X5X5X5X5X5X5X5X5XkXkXkXkXlXlXlXcXcXcXcXlXlXcXcXcXcXcXcXcXcXcXcXcXcXcXcXcXcXcXcXlXlXlXlXkXlXkXcXcXcXcXMXMXMXMXMXMXMXMXMXMXMXMXMXMXMXMXMXMXMXMXMXMXxXxXmXMXMXMXMXZXbX5X<XE.V.K.                                                                                                                                                              gXLXVXPXVXVXMXVXVXmXSXSXMXMXMXMXVXMXMXMXMXMXMXMXMXMXMXMXMXcXcXcXcXcXcXMXMXMXMXcXcXlX3X%Xb.8.5.) ( E ) '                                                                                                                                                                                                                                                                 ^.].=XkXlXkX4X<X%XE.R.T.e.u.:.:.<.@.@.O.O.o.Q *.B                                                                                                                 ",
"                                                      D B E *.*.-.-.%.T.T.0.9.5.6.*.-.-.( ( -._ W.&X1X1X%X&X1X&X<X<X<X<X<X1X1X1X2X2X2X3X3X3X3X3X5X5X5X5X5X5X5X5X5X5XkXkXkXkXlXlXlXlXlXcXcXcXlXlXcXcXcXcXcXcXcXcXxXxXcXcXcXcXcXcXcXcXlXlXlXkXkXkXcXcXcXMXMXMXMXMXMXMXMXMXMXMXMXMXMXMXMXMXMXMXMXMXMXMXmXmXcXMXMXMXSXMXbXlX2XP.J.J.G                                                                                                                                                         eXLXJXVXVXVXSXVXVXMXMXVXMXMXMXMXMXMXMXMXMXMXMXMXMXMXMXMXMXMXMXcXcXcXcXcXcXxXmXmXcXcXlX=XW.n.8.-.( ` R ) [                                                                                                                                                                                                                                                                   ^.}.5XkXlX5X3X<X%XE.R.Y.y.u.,.:.>.@.@.@.o.Q Q O.R                                                                                                                 ",
"                                                      D R X.*.*.-.-.) T.T.0.9.5.6.*.*.*.( ( ) _ E.1X1X&X%X&X1X&X<X<X<X<X<X1X1X1X2X2X2X3X3X3X3X3X5X5X5X5X5X5X5X5X6X5XkXkXkXkXlXlXlXlXxXxXcXcXlXlXcXcXcXcXcXcXcXcXcXcXcXcXcXcXcXcXcXcXlXlXlXkXkXkXcXcXcXcXMXMXMXMXMXMXMXMXMXMXMXMXMXMXMXMXMXMXMXMXMXMXMXmXcXMXMXMXVXMXbXlX3X%XP.J.k.                                                                                                                                                      LXLXBXPXSXSXSXVXMXMXMXMXVXVXVXMXMXMXMXMXMXMXMXMXMXMXMXMXMXMXMXMXcXcXcXMXcXcXcXcXcXlX5X3XW.n.0.-.( ` ` ( 1.                                                                                                                                                                                                                                                                    $XOX5XxXcX5X2X<X%XE.R.T.y.u.,.:.>.@.@.O.O.Q ! o.E                                                                                                                 ",
"                                                    m B R ..*.-.-.$.) Y.T.0.0.5.;.-.` ` *.( ( ' 1X1X&X&X&X&X&X&X<X<X<X<X<X&X<X1X2X2X2X3X3X3X3X5X5X5X5X5X5X5X5X5X6X6XkXkXkXkXlXlXlXlXlXlXcXcXcXcXcXcXlXlXcXcXcXcXlXlXlXlXcXlXcXcXcXcXcXlXlXkXkXkXcXcXcXcXMXMXMXMXMXMXMXMXMXMXMXMXMXMXMXMXMXMXMXMXMXMXMXmXcXMXMXMXVXVXZXbX6X<X%XP.U.                                                                                                                                                  gXJXnXMXSXMXZXZXSXVXVXVXVXVXVXVXVXMXVXMXMXMXMXMXMXMXMXMXMXMXMXMXMXMXcXcXMXMXmXcXcXcXlX6X&XP.b.0.) ` -.^ ( ]                                                                                                                                                                                                                                                                       }.OXjXxXlX5X2X<X&XE.R.Y.T.y.,.:.>.@.@.o.o.Q ! ! ..                                                                                                                ",
"                                                    D B W ..*.-.-.$.%.Y.T.0.0.5.-.-.` ( *.( ) 8.1X1X%X&X&X&X&X&X<X<X<X<X<X&X&X&X<X2X2X3X3X3X3X5X5X5X5X5X5X5X5X5X6X6XkXkXlXkXlXlXlXlXlXlXlXcXcXcXcXlXlXlXcXcXcXcXlXlXlXlXcXcXcXcXlXcXcXcXlXkXkXkXcXcXcXcXcXMXMXMXMXMXMXMXMXMXMXMXMXMXMXMXMXMXMXMXMXMXMXxXMXMXMXVXVXVXSXbXlX3X<X'.}.                                                                                                                                              yXCXPXPXVXSXSXMXZXSXVXVXVXVXVXVXVXVXVXMXVXMXVXVXMXMXMXMXMXMXMXMXMXMXMXMXcXcXMXMXmXcXcXlX3X<XL.b.8.0.( ` ( ^ ' A                                                                                                                                                                                                                                                                     k.}.OXjXxXkX5X2X<X<X%XR.T.T.y.,.:.>.@.@.o.o.o.! ! O.k                                                                                                               ",
"                                                    D B E ..*.-.-.-.%.Y.Y.0.9.5.-.-.*.( -.( ) V.1X<X%X<X<X%X&X<X1X1X1X1X<X<X&X&X<X2X3X3X3X3X5X5X5X5X5X5X5X5X5X5X6X5XkXkXkXkXkXkXxXxXxXlXlXlXlXcXcXcXlXlXlXcXcXcXlXlXlXlXcXcXcXcXcXcXcXcXlXkXkXkXlXlXcXcXcXcXcXcXMXMXMXMXMXMXMXMXMXMXMXMXMXMXMXMXMXMXcXcXMXMXBXVXVXVXSXZXcX5X2X{.}.                                                                                                                                            LXLXVXVXBXMXVXVXVXVXVXVXVXVXVXVXVXVXVXMXMXMXMXMXMXMXMXMXMXMXMXMXMXMXMXMXMXMXcXcXMXcXcXvX5X&XL.b.8.5.` ( ( ^ 1.G                                                                                                                                                                                                                                                                       $X}.4XxXbXxX5X3X<X<X%XR.T.T.y.w.:.>.@.@.@.o.o.! ! O.M                                                                                                               ",
"                                                    B B X.O.*.-.*.-.-.T.T.m.9.5.-.-.*.( ( ( ' R.,X%X&X<X&X%X&X<X<X1X1X1X<X&X&X&X<X2X3X3X3X3X5X5X5X5X5X5X5X5X5X5X6X5XkXkXkXkXlXkXxXxXlXlXlXlXlXlXcXcXlXlXcXlXlXlXkXkXkXxXlXlXcXcXcXcXcXcXlXkXkXkXlXlXcXcXxXcXcXcXMXMXMXMXMXMXMXMXMXMXMXMXMXMXMXMXMXMXcXcXMXMXBXVXVXVXSXZXbXlX3X&X}.H                                                                                                                                       yXLXVXVXMXVXSXSXVXVXSXVXVXVXVXVXVXVXVXVXMXMXMXVXMXMXMXMXMXMXMXMXMXMXMXMXMXMXMXMXcXcXMXcXcX5X&XL.b.8.5.) ( ( / 1.G                                                                                                                                                                                                                                                                         }.'.4XcXmXxX5X3X<X<X%XR.Y.T.y.u.:.>.>.@.@.o.o.! ! o.R                                                                                                               ",
"                                                    B B X.O.*.( E :.%.T.Y.M.9.6.:.-.*.` ` ) 8.E.%X%X%X%X&X&X&X&X<X&X1X1X1X&X&X&X<X2X2X3X3X3X5X5X5X5X5X5X5X5X5X5X6X6XkXkXkXkXlXlXxXxXlXlXlXlXlXlXlXlXlXlXlXlXlXlXkXkXkXkXlXlXlXcXcXcXcXcXlXkXkXkXlXlXlXxXxXxXcXcXMXMXMXMXMXMXMXMXMXMXMXMXMXMXMXMXMXMXMXxXMXMXMXVXVXPXVXSXZXbX5X<X'.k.                                                                                                                                  l.LXLXVXSXSXSXVXMXVXPXVXmXBXVXVXVXVXVXVXMXMXMXMXMXMXMXMXmXMXMXMXMXMXMXMXMXMXMXMXMXcXcXcXcXxXkX=XL.b.9.5.) ( ` E ( '                                                                                                                                                                                                                                                                           }.{.5XzXxXxX5X<X<X<X%XR.Y.T.y.u.>.>.>.@.@.o.o.! ! ! X.                                                                                                              ",
"                                                    B W X.*.*.E R >.%.0.T.T.9.6.:.-.*.*.-.) n.1X,X<X%X%X&X<X&X&X&X&X1X1X1X&X&X%X<X2X2X3X3X5X5X5X5X5X5X5X5X5XkX5X6X5XkXkXkXkXlXlXlXlXlXlXlXlXlXlXlXlXlXlXlXlXkXkX5XkXkXkXkXlXlXcXcXcXcXlXlXkXkXkXlXlXlXlXxXxXcXcXcXcXcXcXMXcXMXMXMXMXMXMXMXMXMXMXMXMXMXMXMXMXVXVXVXVXSXSXZXbXkX2X{.}.                                                                                                                                gXLXCXVXAXMXMXMXMXSXVXBXBXVXVXVXVXVXVXVXMXMXMXMXMXMXMXMXmXmXMXMXMXMXMXMXMXMXMXMXMXMXcXcXcXcX5X=X`.b.9.5.-.( W *.( 1.                                                                                                                                                                                                                                                                            }.>XkXzXxXcX5X2X<X<X%XR.Y.T.y.u.:.>.>.@.@.@.o.! ! ! X.                                                                                                              ",
"                                                  A B E ..=.*.Y Y *.:.6.Y.T.0.6.:.*.*.%.) 9.R.,X%X%X%X%X%X%X%X<X<X<X&X%X%X%X%X%X&X1X3X3X5X5X5X5X5X5X5X5X5X5X5X5X5XkXkXkXkXkXkXkXkXkXlXlXlXlXlXkXlXlXkXkXkXkXkX5X5X5X5XkXlXlXlXlXcXcXlXlXlXkXkXkXlXkXkXkXlXlXcXcXcXcXcXcXcXcXcXcXcXcXMXMXMXMXMXMXMXMXMXMXMXMXVXVXVXVXMXMXZXMXxXjX2X}.                                                                                                                            gXVXVXVXVXVXAXVXVXVXVXVXVXVXVXVXVXVXVXVXVXVXVXVXMXMXMXMXVXMXMXMXMXMXMXMXMXMXMXMXMXMXMXMXMXcXlX5X<XL.H.v.%.*.E W E ( )                                                                                                                                                                                                                                                                             ^.].4XjXkXcXjX5X2X<X<XE.R.R.Y.r.w.,.>.>.@.@.@.o.! #.o.X.                                                                                                              ",
"                                                  S B E ..=.` I Y *.:.5.T.T.0.6.7.-.-.) 1.B.E.%X%X%X%X%X%X%X<X<X<X<X%X%X%X%X%X*X&X1X3X3X5X5X5X5X5X5X5X5X5X5X5X5XkXkXkXkXkXkXkXkXkXkXkXkXkXkXlXkXkX5XkX5XkX5X5X5X5X5X5XkXkXlXlXlXcXcXcXlXlXkXkXkXkXkXkXkXkXlXlXcXcXcXcXcXcXcXcXcXcXcXMXMXMXMXMXMXMXMXMXMXMXMXVXVXVXMXMXMXSXMXmXxX4X=X                                                                                                                        uXVXCXVXVXVXBXVXVXVXVXVXVXVXVXVXMXMXVXVXVXVXVXVXMXVXMXMXMXMXVXMXMXMXMXMXMXMXMXMXZXMXZXMXMXMXcXcX5X<XP.B.2.1.*.W W Q W -.G                                                                                                                                                                                                                                                                             /.@XjXjXvXcXjX5X3X<X,XE.R.R.Y.r.r.,.>.>.>.+.@.o.! o.o.o.k                                                                                                             ",
"                                                  D B E $.=.` I W >.;.-.T.M.M.0.5.:.) ) m.R.%X%X%X%X%X%X%X%X<X<X<X<X&X&X%X%X%X%X&X1X3X3X5X5X5X5X5X5X5X5X5X5XkXkXkXkXkXkXkXkXkXkXkXkXkXkXkXkXkXkXkXkXkX5XkX5XjX5XjX5XjXkXkXcXcXcXcXxXlXlXkXkXkXkXkXkXkXkXkXlXlXxXcXcXcXcXcXcXMXMXMXMXMXMXMXMXMXMXMXMXMXMXMXMXMXMXVXVXMXMXSXMXMXxX5X2Xk.                                                                                                                  l.LXVXLXVXVXVXVXBXVXVXMXMXVXMXMXVXMXMXMXMXMXVXVXVXVXVXVXMXMXMXMXMXMXMXMXMXMXMXMXMXMXMXMXZXMXMXcXcXlX=X`.H.v.1.-.` Q Q W $.'                                                                                                                                                                                                                                                                               }.4XvXvXxXcX5X5X2X<X,XE.R.R.Y.r.w.,.>.>.>.+.@.@.o.o.o.X.B                                                                                                             ",
"                                                  D T E *.>.*.I W >.7.5.T.T.M.0.5.5.-.5.Y.!.%X%X%X%X%X%X%X<X<X<X<X<X&X%X%X%XE.%X&X1X3X3X5X5X5X5X5X5X5X5X5X5XkXkXkXkXkXkXkXkXkXkXkXkXkXkXjXjXjXjXjXkXkX5XkXkXjXkXjXjXkXlXlXcXcXcXxXxXlXlXkXkXkXkXkXkXkXkXkXlXlXxXcXcXxXcXcXcXMXMXMXMXMXMXMXMXMXMXMXMXMXMXMXMXVXVXVXVXMXVXVXSXMXcX5X5X}.                                                                                                                gXLXLXVXLXVXVXVXBXVXVXVXVXMXMXMXMXVXMXMXMXMXVXVXVXVXVXVXVXMXMXMXMXMXMXMXMXMXMXMXMXMXMXMXMXMXMXZXcXkX3X{.H.v.1.5.( _ ` Q ( 1.                                                                                                                                                                                                                                                                                OX4XkXlXlXcXkX4X2X<X,XE.R.Y.Y.r.w.u.>.>.>.@.@.@.o.o.o.X.R                                                                                                             ",
"                                                  D T ( =.=.*.Y W :.7.5.T.T.M.n.8.0.0.T.E.,X%X<X&X&X%X%X%X<X<X<X&X&X%X%X%XE.E.E.%X<X3X3X5X5X5X5X5X5X5X5X5X5XkXkXkXkXkXkX5X5X5X5XkXkXjXkXjXjXjXjXjXkXkXkXkXkXlXlXlXlXlXlXxXcXcXcXxXxXcXcXlXkXlXkXkXkXkXkXkXkXxXcXxXxXxXxXcXcXcXMXMXMXMXMXMXMXMXMXMXMXMXMXVXVXVXVXVXVXVXVXVXSXVXMXkXkX4X                                                                                                            eXJXLXLXVXPXBXVXVXVXVXVXVXVXMXVXVXVXMXMXMXMXMXMXMXVXVXVXVXVXVXMXMXVXVXMXMXMXMXMXMXMXMXMXMXMXMXMXZXcXkX3X*XL.b.1.-.( ( ` T ( 2.                                                                                                                                                                                                                                                                                s.OX4XkXlXlXlXkX5X2X1X,X!.~.Y.Y.r.w.u.u.u.>.@.@.@.o.o.! o.$.                                                                                                            ",
"                                                  D R *.:.*.E Y E :.5.5.Y.T.M.m.M.M.T.R.!.E.*X1X&X&X%X&X%X<X<X<X&X&X%X%XE.E.E.E.%X<X3X3X5X5X5X5X5X5X5X5X5X5XkXkXkXkXkXkX5X5X5X5X5X5XjXjXjXjXjXjXkXxXkXkXlXlXlXlXxXxXxXxXcXcXcXcXcXxXcXcXcXlXlXlXkXkXkXkXkXkXzXzXxXxXxXxXxXxXcXcXmXMXMXMXMXMXMXMXMXMXMXMXVXVXVXVXVXVXVXMXVXVXVXMXcXjXvX                                                                                                        uXLXPXLXVXVXBXVXVXVXVXVXVXVXVXMXMXVXVXMXMXMXMXMXMXMXMXVXVXMXVXVXMXMXMXMXVXMXMXMXMXMXMXMXMXMXMXMXMXMXbXkX3X*XH.b.8.%.*.W ` E ( n.                                                                                                                                                                                                                                                                                  $X4X4XlXcXkXkX6X5X2X1X,X!.~.Y.T.y.y.y.u.u.>.@.@.o.o.o.! o.$.                                                                                                            ",
"                                                A D R :.w.*.E Y *.:.:.5.Y.Y.V.V.T.T.R.!.%X%X&X&X&X&X&X&X&X&X<X<X%X<X%X%XE.E.E.E.&X<X3X3X5X5X5X5X5X5X5X5X5X5XkXkX5X5XkXkXkXkX5X5XkXjXjXjXkXkXlXlXxXxXcXcXcXcXcXcXcXcXcXcXcXcXcXcXcXcXcXcXcXcXcXcXkXlXxXxXzXzXkXkXxXxXxXxXxXxXMXMXmXMXMXMXMXMXMXMXMXVXVXVXVXVXVXVXVXVXVXVXVXVXVXZXbXlXvX$X                                                                                                    LXLXJXNXPXBXVXPXVXMXVXVXVXVXVXVXMXVXVXVXVXVXMXMXMXVXVXVXVXVXMXMXMXMXMXMXVXVXVXMXMXMXMXMXMXMXMXMXMXMXcXkX;X`.J.n.8.-.*.W Q *.E )                                                                                                                                                                                                                                                                                     @X4XjXlXlXkXkX5X3X2X1X!.!.~.Y.T.y.y.u.u.u.>.@.@.o.o.o.! o...                                                                                                            ",
"                                                S ^ ( :.y.*.W Y *.:.:.6.R.R.V.V.Y.C.R.E.E.1X1X*X&X&X&X&X&X&X<X<X%X<X%X%XE.E.E.E.&X<X3X3X5X5X5X5X5X5X5X5X5X5XkXkX5X5XkXkX5X5X5X5XkXjXjXkXkXlXlXbXbXbXbXcXcXcXcXcXcXcXcXcXcXcXcXcXcXcXcXcXcXcXcXcXcXcXcXcXcXcXcXzXkXxXxXxXxXxXmXmXmXmXMXMXMXMXMXMXVXVXVXVXVXVXVXVXVXVXVXVXVXVXVXSXZXcXvXhX                                                                                                LXLXVXLXJXPXBXVXSXmXMXSXVXVXVXVXVXVXMXAXVXVXVXVXVXVXVXVXVXVXVXVXMXMXMXMXMXMXVXVXVXMXMXMXMXMXMXMXMXMXMXcXkX3X%XJ.v.9.-.` Q Q O.W -.S                                                                                                                                                                                                                                                                                   d.@X4XkXkXvXlX6X6X3X1X,X!.!.~.~.T.T.y.y.u.u.<.@.@.@.o.o.! o.X.                                                                                                            ",
"                                                D B ( 7.w.*.W W *.w.-.0.R.Y.R.J.R.R.W.E.%X&X&X&X&X%X&X&X&X&X<X<X<X%X%X%XE.E.E.E.&X<X3X3X4X5X5X5X5X5X5X5X5X5X5XkX5X5XkXkXkX5XjXjXjXkXlXlXbXbXbXbXbXbXbXbXbXcXcXcXbXbXcXcXcXcXcXcXbXcXvXcXcXcXcXbXbXbXcXcXbXbXlXlXxXxXxXxXxXxXxXmXmXmXMXMXMXMXMXMXVXMXMXMXVXVXVXVXVXVXVXVXVXVXVXSXSXMXvXvX                                                                                            CXLXJXVXLXVXVXVXVXSXVXVXVXVXVXVXVXVXVXVXVXVXVXVXVXVXVXVXVXVXVXVXVXVXVXVXMXMXMXMXMXMXMXMXMXMXMXZXVXMXMXMXcXkX2X%XJ.v.5.-.*.E Q Q X.$.D                                                                                                                                                                                                                                                                                     $X-X4XjXkXlXlX6X5X2X<X,X!.!.~.T.T.y.y.y.u.u.>.@.@.@.o.! ! o.E m                                                                                                           ",
"                                                D B ( 7.u.*.W W :.7.-.0.R.Y.R.J.R.W.W.E.%X&X&X&X%X%X&X&X&X&X<X<X<X%X%X%XE.E.E.E.&X<X3X3X5X5X5X5X5X5X5X5X5X5XkXkXkX5X5X5X5XjXkXkXcXlXlXlXlXbXbXbXbXbXcXcXcXcXcXvX#X#XXX$X$X].XXXXXXXX}.-XvXcXcXcXlXcXcXcXcXcXcXbXcXcXcXcXcXxXxXxXmXmXMXMXMXMXMXMXVXMXMXMXVXVXVXVXVXVXVXVXVXVXVXVXSXZXMXCXl.                                                                                      gXLXLXCXCXVXPXVXVXVXSXVXVXVXVXVXVXVXVXVXVXVXVXVXVXVXVXVXVXVXVXVXVXVXVXVXVXVXVXMXMXMXVXVXMXMXMXMXVXZXMXMXMXbXlX3X`.J.v.9.:.E E Q Q *.E 4.                                                                                                                                                                                                                                                                                      #X-X4XkXkXlXkX6X5X2X<X,X!.!.~.T.T.y.y.y.u.u.>.@.@.@.o.! ! o.X.M                                                                                                           ",
"                                                D Y ` y.7.E W E >.7.%.0.R.R.R.W.W.J.W.E.%X&X&X&X%X%X%X%X<X<X<X<X<X%X%X%XE.P.E.E.&X3X3X3X4X4X5X5X5X5X5X5X5X5XkXkXkXjX5X5XkXlXlXlXlXlXbXbXbXbXbXbXcXvXjX@X$Xs.d.C i u u u u u u u u u C C d.s.$XhXvXcXcXcXcXbXcXcXcXxXxXxXcXMXMXMXMXMXMXMXMXMXMXMXVXVXMXMXVXVXVXVXVXVXVXVXVXVXVXVXZXSXAXCXhX                                                                                  gXLXLXVXVXVXLXVXVXVXVXVXVXVXVXVXVXVXVXVXVXVXVXVXVXVXVXVXVXVXVXVXVXVXVXVXVXVXVXVXMXMXMXVXVXVXMXMXMXMXVXMXMXMXcXlX3X*XH.v.6.-.*.O.E *.Q ( 2.                                                                                                                                                                                                                                                                                        >X-XjXvXlXkXkX6X2X2X<X,X!.!.~.T.T.y.y.y.u.u.<.@.#.#.o.! ! ! O.T                                                                                                           ",
"                                                B Y *.y.7.E W E :.:.%.0.Y.R.R.W.W.J.W.%X%X%X%X&X&X%X%X%X&X<X<X<X<X%X%X%XW.P.W.%X1X3X3X3X4X4X5X5X5X5X5X5X5XkXkXkX5XjXkXkXlXlXlXlXcXcXcXbXbXcXjX-X$Xk.Z C q q q 5 5 5 5 5 5 5 5 5 5 5 5 5 5 5 q u d.l.#XvXvXcXcXbXSXSXcXSXZXMXMXMXMXMXMXMXMXMXMXMXVXVXMXMXVXVXVXVXVXVXVXVXVXVXVXVXZXVXVXMXCX                                                                                PXJXLXCXCXVXVXVXVXVXPXVXVXVXVXVXVXVXVXVXVXVXVXVXVXVXVXVXVXVXVXVXVXVXVXVXVXVXVXVXVXMXVXMXVXVXVXMXMXMXMXMXMXMXcXlX3X*XH.m.9.6.$.*.*.E *.) 1.                                                                                                                                                                                                                                                                                        $XOX4XjXlXlXkXkX5X2X1X<X,X!.!.~.T.T.y.y.y.u.u.<.@.#.@.o.Q ! ! O./                                                                                                           ",
"                                                D Y ` u.:.R Y Q u.:.-.e.Y.R.R.W.W.W.W.%X%X%X%X%X%X%X%X%X<X<X<X<X<X<X%X%XW.P.W.%X1X1X3X3X4X4X4X5X5X5X5X5X5XkXkXkX4XkXlXlXlXlXcXcXlXcXcXvX>X$Xs.Z u q 7 5 5 5 5 5 5 5 5 5 5 5 5 5 5 5 5 5 5 , , , 5 q u Z l.>XvXcXcXcXMXSXSXMXMXmXMXMXMXMXMXMXMXMXVXVXMXMXVXVXVXMXMXVXVXVXVXVXJXJXPXVXVXVXAX$X                                                                          LXLXVXCXJXPXLXVXBXBXVXLXVXVXVXVXVXVXVXVXVXVXVXVXVXVXVXVXVXVXVXVXVXVXVXVXVXVXVXVXMXVXVXMXMXMXMXMXMXMXMXMXMXMXMXbXlX3X*XL.v.6.:.:.*.*.*.( ) 8.                                                                                                                                                                                                                                                                                          OXOXjXlXlXlXkXkX5X2X1X<X,X!.~.~.~.T.y.w.y.u.u.<.@.@.@.o.o.Q ! O.(                                                                                                           ",
"                                                D Y E 7.:.R W *.u.-.-.e.Y.Y.J.J.W.W.W.%X%X%X%X%X%X%X%X%X<X<X<X&X&X&X%X%X%XW.E.%X1X3X3X3X4X4X4X4X5X5X5X5XkXkXkXkXjXvXlXlXlXcXbXbXcXcX-Xl.d.i q 5 5 5 5 5 7 7 5 6 5 5 4 4 4 4 4 , 5 4 4 , : : : 4 * , 5 5 q C d.#XvXcXSXcXMXMXMXMXMXMXMXMXMXMXMXMXVXVXMXMXMXVXMXMXMXMXMXVXVXVXJXJXPXJXVXSXCXhX                                                                      gXLXLXLXCXPXLXCXVXVXVXVXLXVXBXVXVXVXVXVXVXVXVXVXVXVXVXVXVXVXVXVXVXVXVXVXVXVXVXVXVXMXMXVXVXMXMXMXMXMXMXMXMXMXMXMXcXlX4X*XL.V.0.6.*.*.*.*.( :.8.                                                                                                                                                                                                                                                                                            OX>XkXlXlXlXkXkX5X2X1X<X,X!.~.~.~.T.y.y.y.u.u.<.+.@.@.o.Q Q ! O.E                                                                                                           ",
"                                              A / P W :.:.R W >.u.-.-.e.T.Y.C.R.W.W.W.%X%X%X%X%X%X%X%X&X<X,X<X<X&X&X&X%X%X%X%X&X1X3X3X3X4X4X4X4X5X5X5X5XkXkXkXkXlXlXcXlXcXbXlXjX4X^.d.u 5 , , 6 7 7 7 7 7 0 6 4 4 4 4 4 4 : : : * * 4 4 * * * : 4 4 , : : 5 q C ^.@XcXSXMXMXVXMXMXMXMXMXMXMXMXMXMXMXMXMXMXMXMXMXMXMXVXVXVXVXJXJXVXVXVXAXCXAX                                                                  gXLXCXPXBXmXPXVXVXVXLXPXVXVXVXVXVXVXVXVXVXVXVXVXVXVXVXVXVXVXVXVXVXVXVXVXVXVXVXVXVXVXVXMXMXVXVXVXMXMXMXMXMXMXMXMXMXvXkX4X{.L.D.m.6.:.>...*.*.-.5.S                                                                                                                                                                                                                                                                                           $XOX4XkXlXcXlXkXkX5X3X1X<X,X!.!.~.~.T.y.y.y.u.u.<.+.@.#.o.Q Q ! o.E                                                                                                           ",
"                                              A / Y W >.:.E E :.u.*.:.T.Y.Y.C.R.W.W.W.%X%X%X%X%X%X%X%X&X<X<X<X<X<X<X&X%X*X'.%X1X1X3X3X3X3X4X4X4X5X5X5X5XkXkXkXkXkXkXlXlXlXlX4XXXs.C 7 , 7 7 7 7 7 7 6 6 4 4 4 4 2 - * * * * * * * * * * * * * * * * * , , , , 5 q d.$XvXcXZXZXcXMXMXMXMXMXMXMXMXMXMXMXMXMXMXMXMXMXMXVXVXVXVXVXJXVXVXPXCXAXAX$X                                                            hXLXCXVXPXVXVXPXVXVXVXVXVXVXVXLXVXVXVXVXVXVXVXVXVXVXVXVXVXVXVXVXVXVXVXVXVXVXVXVXVXVXVXVXVXMXMXVXVXVXMXVXMXVXMXMXMXMXMXjX4X{.I.D.v.9.:.` :.O.*.-.5.[                                                                                                                                                                                                                                                                                             XX>X4XkXlXxXlXkXkX6X5X3X<X,X!.!.~.~.T.y.y.y.y.u.<.+.@.#.@.Q ! ! o...                                                                                                          ",
"                                              S / E E ..:.*.E >.:.( :.T.Y.R.J.W.E.E.E.E.%X%X%X%X%X%X&X<X&X&X<X<X<X<X&X%X%X%X&X1X3X3X2X3X4X4X4X4X4X=X5X5XjXcXkXcXlX6XlXlX4X>X^.Z q 7 5 7 y y r 7 4 4 4 : - * * * * * * * * * * & * & & & & & & * * * * * : : , , , 5 u s.4XlXlXbXbXcXcXMXMXMXVXmXMXMXMXMXMXMXMXMXMXMXVXVXVXVXVXVXVXPXVXVXVXAXCX                                                        hXLXLXCXLXVXVXJXJXJXJXJXVXVXVXVXVXVXVXVXVXVXVXVXVXVXVXVXVXVXVXVXVXVXVXVXVXVXVXVXVXVXVXVXVXVXVXVXVXMXMXMXVXVXMXMXMXMXMXmXxX5X&XL.H.9.6.-.7.-.-.*.*.;.4.                                                                                                                                                                                                                                                                                            k.{.>X4XkXlXlXlXlXkX6X4X3X<X,X!.!.~.~.~.T.y.w.w.u.<.+.@.@.@.o.o.! ! O.                                                                                                          ",
"                                              D / E W E =.*.( >.-.R 5.T.Y.R.J.R.E.E.E.E.%X%X%X%X%X%X&X<X&X&X<X<X<X<X&X&X&X%X<X1X3X3X3X3X3X3X2X2X4X2X5X4X5XlXjXlX6X6X6X5XOXs.u 5 7 7 9 y p y 7 4 4 * * * * * * * * * * * * * & & & $ $ = = = & & & & * * * : : , 4 , , u s.OXlX5XbXvXcXcXcXmXVXVXMXMXMXMXMXMXMXMXMXMXVXVXVXVXVXVXVXVXMXSXVXMXAXhX                                                  yXLXLXCXLXPXVXVXVXJXJXJXJXVXVXVXVXVXVXVXVXVXVXVXVXVXVXVXVXVXVXVXVXVXVXVXVXVXVXVXVXVXVXVXVXVXVXVXVXVXVXMXMXMXMXVXVXMXMXMXMXxXkX;X%XJ.m.6.;.-.:.-.-.:.-.3.                                                                                                                                                                                                                                                                                              /.'.5XkXlXlXlXlXlXkX6X6X3X<X,X,X!.!.~.~.T.y.w.w.,.<.@.@.@.#.o.o.o.! O.                                                                                                          ",
"                                              D / ( W E =.*.*.>.` R 5.T.Y.R.J.E.E.E.E.E.%X%X%X%X,X,X&X<X<X&X<X<X<X<X2X&X&X&X<X3X3X3X3X3X3X3X3X2X3X3X4X4XkXlXkXlXlX5X2XS.Z y q y 7 7 6 6 6 4 4 - * * * * * * * * * & * * & & % & $ $ = = = = = = = $ & * * * : : , , , , q Z ^.4XkXvXcXcXMXmXMXVXMXMXMXMXMXMXVXVXVXVXVXVXVXVXVXVXVXVXVXPXVXCXAXAXhX                                            hXgXVXLXLXLXLXJXVXVXVXVXVXVXVXVXVXVXVXVXVXVXVXVXVXVXVXVXVXVXVXVXVXVXVXVXVXVXVXVXVXVXVXVXVXVXVXVXVXVXVXVXVXMXMXMXMXVXVXVXZXbXcX5X2X%XJ.v.9.6.-.-.-.:.*.:.1.                                                                                                                                                                                                                                                                                                }.{.5XlXlXlXlXlXlXkX6X6X3X<X,X,X!.!.~.~.T.y.r.w.,.<.@.@.@.@.o.o.o.o.O.                                                                                                          ",
"                                              D / ( R E *.*.*.:.( ^ 7.Y.Y.R.J.R.E.E.E.E.%X%X%X%X%X,X&X<X<X<X<X<X2X2X2X2X&X2X3X3X3X3X3X3X3X2X2X3X2X3X3X5XkXkXjXkX4X}.s.u q y u y 7 6 , - - * * * * * * & * * & & & & & & $ $ = = = = = + + + + + = = & & * * * : : , 4 5 , 5 C k.OXkXxXvXMXMXmXmXMXMXMXMXMXVXVXVXVXVXVXVXVXVXVXVXVXVXVXVXVXVXCXCXAXCX                                  l.hXAXAXCXLXLXVXVXLXJXVXVXVXVXJXJXVXVXVXVXVXVXVXVXVXVXVXVXVXVXVXVXVXVXVXVXVXVXVXVXVXVXVXVXVXVXVXVXVXVXVXVXVXVXVXVXMXMXVXMXMXMXMXcXkX4X&X'.J.m.6.6.;.-.-.-.*.*.5.                                                                                                                                                                                                                                                                                                S.}.2X4XvXlXcXlXlXkXkX6X6X3X2X<X,X!.!.~.~.T.y.y.w.,.<.@.@.@.@.o.o.! o.O.k                                                                                                         ",
"                                              / ( ( E E ..*.>.7.( ( 0.T.Y.C.J.W.W.W.E.E.%X%X%X%X%X%X&X<X<X<X2X2X2X2X2X2X2X2X2X3X3X3X3X3X3X3X2X2X2X3X3X3X5X5X4X-X>Xd.y 7 u i y 7 6 , - - * * * * * * & & & & & & & $ = + + = + + @ @ @ @ @ @ @ @ + + = = & * * * : : , 4 4 5 7 y d.$XvXjXzXMXMXMXMXMXMXMXMXMXVXVXVXVXVXVXMXMXVXVXVXVXVXCXVXSXMXAXVXAXAXAXCX                    CXAXAXAXCXCXCXAXAXCXLXPXJXVXJXLXVXVXVXVXVXVXVXJXJXVXVXVXVXVXVXVXVXVXVXVXVXVXVXVXVXVXVXVXVXVXVXVXVXVXVXVXVXVXVXVXVXVXSXVXVXVXVXVXMXMXcXxX5X3X&XP.J.m.0.6.:.:.:.-.-.$.6.S                                                                                                                                                                                                                                                                                                 }.{.kXkXlXlXlXlXkXkXkX6X6X3X2X<X,X!.!.!.Y.~.T.y.y.,.<.>.@.@.o.o.! ! ! O.m                                                                                                         ",
"                                              / ( ( E E E *.:.7.( ( 0.T.V.C.J.K.W.W.E.E.E.%X%X%X%X%X&X<X<X<X2X2X2X2X2X3X3X3X4X3X3X3X4X3X2X3X2X2X=X2X2X2X2X2X2X$Xd.y 7 i i y r 7 , - & & & * * * & & & & = = = + + + @ @ @ @ @ @ @ @ @ @ @ @ @ @ + + + = = & * * : : , 4 6 7 6 5 y d.OXvXxXxXcXMXMXMXMXMXMXMXVXVXMXVXVXVXMXMXVXMXVXVXVXVXVXVXMXSXCXVXAXCXCXAXLXAXAXAXAXAXAXAXAXAXAXAXAXVXVXVXJXVXLXCXCXLXPXJXVXJXVXVXVXVXVXVXJXJXVXVXVXVXVXVXVXVXVXVXVXVXVXVXVXVXVXVXVXVXVXVXVXVXVXVXVXVXVXVXVXVXSXSXVXVXMXVXVXMXMXxX5X=X%XP.B.m.0.7.:.-.-.-.-.-.6.D                                                                                                                                                                                                                                                                                                   I.2XkXlXkXlXlXlXkXkXkXkX6X3X3X1X,X,X!.!.~.~.T.y.y.w.<.>.@.@.o.o.! ! ! o.N                                                                                                         ",
"                                              _ ( ( E E ..:.y.y.( ( 0.T.V.Y.J.K.W.W.R.E.E.%X%X%X%X%X&X<X<X<X<X2X2X3X3X3X4X4X4X3X3X3X3X2X2X2X2X2X&X&X<X3X2X&X/.H 7 7 u i y y r - - * * * * * & & & & & = = = + + @ @ @ X X X X X X X X @ @ @ @ @ @ @ + + = = & * * * - 4 6 4 6 9 7 u d.$XvXvXxXcXMXMXVXVXMXMXMXVXMXMXVXVXVXVXMXMXMXMXVXVXVXBXVXVXPXVXVXPXPXVXVXLXVXAXVXAXVXAXVXCXCXVXVXVXVXPXPXVXVXPXPXJXVXVXJXVXVXJXVXVXJXJXJXJXVXVXVXVXVXVXVXVXVXVXVXVXVXVXVXVXVXVXVXVXVXVXVXVXVXVXVXVXVXVXVXVXVXVXVXVXMXMXMXMXxXjX=X'.L.B.m.0.7.7.5.-.*.*.*.%.G                                                                                                                                                                                                                                                                                                   U.Z.5XjXcXlXlXkXkXkXkXkXkX6X3X3X<X,X,X!.!.~.~.T.y.y.w.,.=.@.@.o.o.! o.o.o.M                                                                                                         ",
"                                              ) ( ( E E ..:.y.y.( ( 0.T.V.R.J.K.W.W.R.E.E.E.%X%X%X%X&X<X<X<X2X2X3X3X=X3X4X4X4X4X3X3X2X2X3X2X3X2X2X&X2X3X&X_.s.q , i i y r 7 - - * * & & = + $ & & = + + + + + + @ @ X X X X X X . . X . X X @ @ @ @ @ @ + + = = & * - - 4 6 6 7 y 7 y d.>XvXlXbXMXMXMXVXMXMXMXMXMXMXVXVXVXVXMXMXVXAXMXMXBXVXPXVXVXVXVXVXVXLXLXVXLXVXVXVXVXAXAXVXVXLXJXVXVXPXPXVXJXVXBXVXPXJXVXJXJXJXVXVXVXJXJXJXVXVXVXVXVXVXVXVXVXVXVXVXVXVXVXVXVXVXVXVXVXVXVXVXVXVXVXVXVXVXVXVXVXVXVXMXMXMXMXxXjX4X{.L.B.m.9.6.7.-.:.:.*.*.%.1.                                                                                                                                                                                                                                                                                                    U.,X6XkXxXxXlXkXkXkXkXkX6X6X3X3X<X,X,X!.!.~.~.T.y.y.w.,.=.@.@.o.@.o.o.o.o.B                                                                                                         ",
"                                              / ( *.*.E $.>.y.y.( ( 0.T.V.C.C.J.R.W.R.E.E.E.%X%X%X,X%X<X&X&X2X=X3X=X4X4X4X4X4X4X4X3X=X=X4X3X3X2X2X3X3X&X}.k.u , i i p y 7 , - * & & & & $ $ $ $ $ + + + + + @ @ X X . . . . X X X X X X X X X X @ @ @ @ @ + + + & & * - 4 4 6 6 r r 7 u l.>XkXcXxXMXMXVXMXMXSXMXMXMXVXVXMXMXMXMXVXMXMXVXVXVXVXVXVXVXVXVXJXVXJXVXVXVXVXVXVXVXJXJXJXJXJXJXJXJXVXVXPXJXJXJXVXVXVXVXJXJXVXVXVXVXVXVXVXVXVXVXVXVXVXVXVXVXVXVXVXVXVXVXVXVXVXVXVXVXVXVXVXVXVXVXVXVXVXVXVXVXVXVXMXMXxXjX4X{.L.D.v.0.7.:.>.*.:.-.*.6.4.                                                                                                                                                                                                                                                                                                    k.Z.<X4XcXbXzXlXkXkXkXkXkX6X6X3X3X<X,X,X!.!.!.~.T.y.y.,.,.>.@.@.@.o.o.o.o.o.B                                                                                                         ",
"                                              / ( ` *.E $.;.y.y.` ( 0.T.V.C.C.J.R.R.R.E.E.E.%X%X%X%X%X,X%X&X2X=X3X=X4X4X4X4X4X4X4X2X=X=X4X4X3X3X2X2X<X<XS.u , i i i r t 4 - * * & & & & $ $ $ $ + + + + + @ @ X X X . . . . . X X X X X X X X X @ @ @ @ @ @ + + = & * * - 4 4 6 r r r 7 C $X4XlXcXMXmXMXmXmXVXMXMXMXVXVXMXMXMXMXVXVXMXMXVXVXVXVXVXVXVXVXJXVXVXJXVXVXVXVXVXVXJXJXJXJXJXJXVXJXVXVXPXPXJXJXVXVXVXVXJXJXVXVXVXVXJXJXVXVXVXVXVXVXVXVXVXVXVXVXVXVXVXVXVXVXVXVXVXVXVXVXVXVXVXVXVXVXVXVXVXVXMXMXxXxXjX4X{.`.H.b.m.0.7.>.O.=.*.-.6.2.                                                                                                                                                                                                                                                                                                      U.P.3XkXcXcXcXlXkXlXlXlX6X6X6X3X2X<X,X,X!.!.~.Y.T.y.y.,.<.>.@.@.@.o.o.o.o.o.B                                                                                                         ",
"                                              ) ( Q ` E $.;.y.y.-.( 0.T.N.C.C.C.R.R.R.E.E.E.%X%X%X%X%X%X&X&X&X=X3X3X3X4X4X4X4X4X3X2X2X2X-X4X4X3X2X2X<X}.H > y i i y t 6 - * * * & & & & = = = + + + + @ @ X X X X . . . . . . . . X X X X X . X X @ @ @ @ @ @ + + # & * * : 4 4 6 7 y t 7 d.}.jXxXMXxXMXMXmXMXMXMXMXMXVXMXMXMXMXMXMXVXVXVXVXVXVXVXVXVXVXVXVXVXVXVXVXVXVXVXVXVXVXVXVXVXVXVXVXVXVXVXVXJXJXVXVXJXVXJXJXVXVXJXJXJXJXJXJXVXVXJXJXJXJXVXVXJXJXJXJXVXVXVXVXVXVXVXVXVXVXVXVXBXBXBXBXVXVXVXMXMXxXlX5X=X{.L.H.B.v.0.7.:.=.>.+.*.%.c.                                                                                                                                                                                                                                                                                                      H I.<X6XlXxXxXcXlXkXlXlXkX6X6X6X3X3X<X,X,X!.!.~.T.y.y.w.,.<.>.@.@.@.o.o.! o.o.B                                                                                                         ",
"                                              / ( Q ` E $.;.e.y.:.( 0.T.N.C.C.C.R.R.R.R.E.E.E.%X%X%X%X%X%X&X&X2X2X3X3X4X4X3X4X3X3X2X4X4X-X4X4X4X2X2X}.k., t Z u y t 6 , - * * & & & $ = = = = + + + + @ @ X X . . . . . O . . . . . . X X X . X X X @ @ @ @ @ @ + + = & * * 2 2 4 6 r y 7 u k.>XjXcXxXMXMXmXMXMXMXMXMXVXMXMXMXMXMXMXVXVXVXVXVXVXVXVXVXVXVXVXVXJXVXVXVXVXVXVXVXVXVXVXVXVXVXVXVXVXVXVXJXVXVXVXJXJXJXJXVXVXJXJXJXJXVXVXVXVXJXJXJXJXVXVXJXJXJXJXVXVXVXVXVXVXVXVXVXVXVXVXVXVXBXBXVXVXMXMXmXxX5X2X'.L.J.b.v.9.7.7.:.=.=.+.$.3.                                                                                                                                                                                                                                                                                                        A.I.2X5XvXxXxXxXlXkXlXlXkX6X6X6X2X<X<X,X!.!.R.Y.T.y.w.w.,.<.>.@.@.@.o.o.! o.o.B                                                                                                         ",
"                                              / ( Q *...*.;.7.y.6.%.0.N.N.V.C.C.R.R.R.R.E.E.E.E.E.E.%X%X%X&X&X&X<X2X2X3X3X3X3X3X3X3X4X4X4X4X5X5X6X}.$Xu , i i y t 6 , - - & & = $ $ + + + + + + + + @ @ X . . . . . . . O O O X . . . . X X X X X X @ @ @ @ @ @ + + + & & * * - 4 4 6 r y , C $X-XcXxXcXMXMXMXMXMXMXMXMXMXMXMXMXMXMXVXVXMXMXVXVXVXVXVXVXVXVXVXVXVXVXVXVXVXVXVXVXVXVXVXVXVXVXVXVXVXVXVXVXJXJXJXJXVXJXJXJXJXVXVXVXVXVXVXVXVXVXVXVXVXJXJXJXVXVXVXVXVXVXVXVXVXVXVXVXVXVXVXVXVXBXBXMXMXMXxX5X2X'.J.B.v.0.9.7.7.:.-.*.$.$.4.                                                                                                                                                                                                                                                                                                        H D.L.6XjXlXlXcXxXkXkXkXkX6X5X6X3X2X<X<X,X!.!.~.Y.y.w.w.w.,.<.>.@.@.@.o.o.o.o.o.R                                                                                                         ",
"                                              / E Q *.*.*.;.7.0.7.%.6.N.N.V.V.C.R.R.R.R.E.E.E.E.E.E.%X%X%X%X&X&X<X<X2X3X3X3X3X2X3X3X4X4X4X4X5X5X5X}.H > u i y r 6 6 - - * & & & $ = + + + + + + @ @ @ @ X . . O . . . . O O O O . . . . X X X X X X @ @ @ @ @ @ @ + + + & * * * - 4 6 9 y 7 7 d.OXcXcXxXcXMXMXMXMXMXMXMXMXMXMXMXMXMXVXVXMXMXVXVXVXVXVXVXVXVXVXVXVXVXVXVXVXVXVXVXVXVXVXVXVXVXVXVXVXVXVXVXJXJXJXJXVXJXJXJXVXVXVXVXVXVXVXVXVXVXVXVXVXVXJXJXVXVXVXVXVXVXVXVXVXVXVXVXVXVXVXVXVXBXBXMXMXxXkX=X'.J.B.0.0.7.7.;.:.-.*.-.-.1.                                                                                                                                                                                                                                                                                                          c.H.%XlXkXlXvXcXvXkXkXkXkX6X6X5X3X2X<X,X!.!.!.R.Y.y.w.w.,.<.<.>.@.@.@.o.o.o.o.o.R                                                                                                         ",
"                                              / R E *.*.*.-.7.0.7.%.6.N.V.V.V.C.Y.R.R.R.E.E.E.E.E.E.%X%X%X%X&X&X<X<X2X2X2X2X2X=X3X3X4X4X4X4X5X5X>X$X, 7 i y r 6 6 4 - - & & & & $ = + + + + + + @ @ @ @ X X . . O O . . X X O O . . . . X X X X X X @ @ @ @ @ @ @ @ + + + & * * * , 4 7 y y , u l.kXcXxXcXMXMXMXMXMXMXMXMXMXMXMXMXMXMXMXMXMXVXVXVXVXVXVXVXVXVXSXVXVXVXVXVXVXVXVXVXVXVXVXVXVXVXVXJXJXVXVXVXVXVXVXVXVXJXJXVXVXVXVXJXJXJXJXVXJXVXVXVXJXJXJXJXJXJXJXVXVXVXVXVXVXVXVXVXVXVXVXVXBXBXMXmXjX-X{.H.v.0.7.7.:.>.:.-.*.*.-.1.                                                                                                                                                                                                                                                                                                          Z c.J.1XlXlXcXvXvXlXkXkXkXkX6X6X5X3X2X<X,X!.!.~.Y.N.r.w.w.,.,.<.>.@.@.@.o.o.o.o.o.R                                                                                                         ",
"                                              / R E O.*.*.-.7.0.e.%.6.N.V.V.V.C.C.Y.R.R.R.E.E.E.E.E.%X%X%X%X&X&X&X&X2X2X2X2X2X2X3X4X4X4X4X4X5X5X>XC : i p r r 6 - - - * & & = + = = + + + + + + + @ @ @ @ X X . O O . . . . X O . . . . X X X X X X X X @ @ @ @ @ @ + + + = & * * * - , r r t 6 d.OXvXvXcXMXMXmXMXMXMXMXMXMXMXMXMXMXMXMXMXMXVXVXVXVXVXVXVXVXVXSXVXVXVXVXVXVXVXVXVXVXVXVXVXVXVXVXVXJXJXVXVXVXVXVXVXVXJXJXJXVXVXVXJXJXJXJXJXJXVXVXVXJXJXJXJXJXJXJXJXVXVXVXVXVXVXVXVXVXVXBXMXMXMXmXjX2X{.L.b.0.0.7.>.>.:.-.-.-.-.1.                                                                                                                                                                                                                                                                                                            c.m.P.3X6XkXlXkXvXlXkXkXkXkX6X6X5X3X3X<X,X!.!.R.Y.T.r.w.w.,.,.<.=.@.@.@.o.o.o.! o.R                                                                                                         ",
"                                              / R E ..O.*.-.7.7.7.6.6.T.T.V.C.V.C.C.K.R.R.E.E.E.E.E.%X%X%X%X&X&X&X2X2X2X2X2X&X&X2X=X4X4X4X4XkX5Xk., u i p r 6 6 - - - * & & & # # # + + + + + + + @ + @ @ @ X X X X . O O O O . . . o X X X X X X X X X @ @ @ @ @ @ @ + + = & & * - - - 6 r r 7 u $XvXvXMXMXMXZXMXMXMXcXMXMXMXMXMXMXMXMXVXVXVXVXMXVXVXVXVXVXVXVXVXVXVXVXVXVXVXVXVXVXVXVXVXVXVXVXVXVXVXVXVXVXVXVXJXJXJXVXVXVXJXJXJXJXJXJXVXVXVXVXVXVXJXJXJXVXVXVXVXVXVXBXVXVXVXVXVXVXMXVXVXMXmXjX{.P.V.m.0.7.7.:.>.>.:.-.-.6.$.                                                                                                                                                                                                                                                                                                            G b.J.1X5XlXlX6XlXcXxXkXkXkXkX6X6X6X2X2X<X,X!.!.~.Y.T.y.w.w.w.,.,.<.@.@.@.@.o.X.o.o.R                                                                                                         ",
"                                              / R E ..O.*.*.:.7.w.;.6.T.N.T.V.V.C.C.R.R.R.R.E.E.E.E.%X%X%X%X&X&X&X=X2X2X2X2X&X&X2X=X4X2X5X5XkXOXw 5 i p r t 6 4 - - * * & & & # # # # # # + + + + + + + @ @ @ @ X X X . O . . . . . o o X X X X o X X X @ @ @ @ @ @ @ + + = & & & - - - 4 7 r 7 7 d.>XvXMXMXZXZXMXcXcXcXcXcXMXMXcXMXMXMXVXVXVXVXVXVXVXVXVXVXVXVXVXVXVXVXVXVXVXVXVXVXVXVXVXVXVXVXVXVXVXVXVXVXVXVXJXJXVXVXVXVXJXJXJXJXVXVXVXVXVXVXVXVXJXJXVXVXVXVXJXJXVXBXVXVXVXBXVXVXMXMXMXzXjX=XP.V.m.q.6.7.7.-.*.u.-.%.9.4.                                                                                                                                                                                                                                                                                                              x.J.P.3X6XlX6X6XkXcXxXlXkXkXkX6X6X5X2X2X<X,X!.!.~.Y.T.y.w.w.w.,.,.<.<.@.@.@.o.X.o.o.R                                                                                                         ",
"                                              / R E ..O.*.*.:.7.w.6.6.e.T.N.V.V.C.C.R.R.R.R.E.E.E.E.%X%X%X%X&X&X&X=X=X2X2X<X&X&X2X=X6X2XkX5XkXk.> u i p t 6 6 , - - * & & & = # = # = = # + # # + + + + + + + + @ o X X . . . . X X X X X X X X o o X X X X @ @ @ @ @ + + = & & & * - - - 6 7 r , i $XvXxXZXZXMXZXcXxXxXxXxXxXcXcXcXMXMXMXVXVXVXVXMXMXVXVXVXVXVXVXVXVXVXVXVXVXVXVXVXVXVXVXVXVXVXVXVXVXVXVXVXVXVXJXJXJXVXVXVXVXJXVXVXVXVXJXJXJXJXVXJXJXJXVXVXVXVXVXVXVXVXVXVXVXVXVXVXMXcXkX4X{.P.V.m.0.0.9.6.;.-.:.*.*.;.4.D                                                                                                                                                                                                                                                                                                             c.b.P.*X5XlXlXkX6X6XlXkXkXkXkXkX6X6X6X2X2X<X,X!.!.~.Y.T.r.w.w.w.,.,.<.<.@.+.@.o.X.o.o.R                                                                                                         ",
"                                              / R E ..O.*.*.:.7.7.6.7.e.N.M.V.V.C.C.C.R.R.R.E.P.E.E.%X%X%X%X&X&X&X=X2X2X2X2X&X&X2X3X4X4XkX5XkXC , i i r r 6 , , - - - & & & & # = # = = # # # # + + + # # # + + @ @ o X X X X X X X X X X X X X X o X X X X @ @ @ @ @ + + + = & & * - - - 4 7 r 7 y l.hXvXmXMXMXcXcXxXxXxXzXkXzXcXxXcXMXMXMXVXMXVXVXMXVXVXVXVXVXVXVXVXVXVXVXVXVXVXVXVXVXVXVXVXVXVXVXVXVXVXVXVXVXJXJXJXVXVXVXVXVXVXVXVXVXJXJXJXJXVXJXJXJXVXVXVXVXVXVXVXVXVXVXVXVXVXMXMXkX3X{.L.B.M.e.0.v.9.6.;.:.:.$.;.;.D                                                                                                                                                                                                                                                                                                               H.H.P.3XkXcXvXkX6XkXkXkXkXkXkXkX6X6X6X2X2X<X,X!.!.~.Y.T.r.w.w.,.,.,.<.<.@.@.@.o.X.o.o.R                                                                                                         ",
"                                              / R E ..O.*.*.-.7.7.7.7.e.N.N.V.V.V.C.C.K.R.R.E.P.E.E.%X%X%X&X&X&X&X=X2X2X2X2X=X=X=X4X3X4X5XkXOX, q i y r t 6 , 4 - - - * & & & & = = = = = # # # + + + + # # + + + @ o o X o o o X X X X X X X X X X X . X @ @ @ @ @ @ + + + = & & & - - - , 6 r 7 , d.>XvXcXMXZXcXxXxXxXlXzXkXjXxXxXxXMXMXMXMXMXVXMXMXVXVXVXVXVXVXVXVXVXVXVXVXVXVXVXVXVXVXVXVXVXVXVXVXVXVXVXVXVXVXVXVXVXJXJXVXVXVXVXJXVXVXVXJXJXJXJXJXJXVXVXVXVXMXMXMXVXVXVXVXVXVXMXkX4X'.J.B.m.0.9.0.0.9.6.;.;...;.t.|                                                                                                                                                                                                                                                                                                               U.B.J.&X6XzXxXxXvXjXkXlXlXlXkXkXkXkX6X6X2X2X<X,X!.!.~.Y.T.r.w.w.,.,.,.<.<.@.+.@.o.o.o.o.R                                                                                                         ",
"                                              / R E ..O.*.*.-.7.7.6.w.y.M.M.V.V.C.C.C.K.R.R.E.E.E.%X%X%X&X&X&X&X&X&X&X=X=X=X&X&X=X4X=X4X5XvXs.> i i r r 6 7 6 6 2 - - * * & & & = = # = = = # # = $ $ + # # # # # + @ o o X X o o o X X X X X X X X . . . X @ @ @ @ @ + + + = & & & - - - - 6 7 t , i $XvXcXcXcXzXxXlXlXxXlXkXkXlXxXxXcXMXMXMXMXMXMXVXMXVXVXVXVXVXVXVXVXVXVXVXVXVXVXVXVXVXVXVXVXVXVXVXVXVXVXVXVXVXVXVXVXJXVXVXVXVXVXJXJXVXVXJXVXJXJXJXVXVXVXVXVXBXMXMXVXVXVXVXVXMXzX-X{.J.V.e.q.6.6.9.6.6.6.;.=.=.t.|                                                                                                                                                                                                                                                                                                                 Z.B.P.3XjXzXxXxXvXlXkXlXlXlXlXkXkXkX6X6X2X2X<X,X!.!.~.Y.T.y.w.w.,.u.,.<.<.@.+.+.o.o.o.o.X.                                                                                                        ",
"                                              / R E ......*.-.:.7.7.e.T.M.M.V.V.V.C.C.R.R.R.E.E.E.%X%X%X&X&X&X&X&X&X&X&X&X&X&X&X=X3X4X4X5X4Xu , i p y r 6 t 6 6 4 2 - - * & & & = = # = = = # # = = $ $ $ $ # # $ # + @ @ @ o o X X X X X X X X X X . . X X X @ @ @ @ + + + = = & & & - - - 6 7 t 7 q k.vXxXcXxXkXzXlXxXcXcXlXkXlXlXxXcXMXMXMXMXMXMXMXMXVXVXVXVXVXVXVXVXVXVXVXVXBXVXVXVXVXVXVXVXVXVXVXVXVXVXVXVXVXVXJXJXJXJXVXVXJXJXJXJXVXVXVXVXVXVXVXVXVXVXVXVXVXVXBXVXVXMXMXmXjX-X{.L.B.m.q.q.6.6.6.;.;.;.=.&.&.4.                                                                                                                                                                                                                                                                                                                U.c.J.<X5XkXxXxXxXxXxXkXlX6XkXlXkXkXkX6X6X2X2X<X,X!.~.Y.T.r.y.y.w.,.u.,.<.<.@.@.@.#.o.o.o.$.                                                                                                        ",
"                                              / R E ......*.-.-.7.7.e.T.M.N.T.T.V.Y.C.R.R.R.E.E.%X%X%X%X&X&X&X&X&X&X&X=X&X&X&X&X=X=X4X4X4X>X, y i p r r t 7 6 6 4 2 - - * * & & = = # = # = # # $ $ $ $ $ $ $ $ $ $ # # + @ @ o @ @ o X X X X X X X . . X @ @ @ @ @ @ + + + = = & & & * - , 6 6 7 t , d.>XjXcXzXxXxXlXxXxXxXlXlXlXlXxXcXMXMXMXMXMXMXMXMXVXVXVXVXVXVXVXVXVXVXVXVXBXVXVXVXVXVXVXVXVXVXVXVXVXVXVXVXVXVXJXJXJXJXVXVXJXJXJXJXVXVXVXVXVXVXVXVXVXVXVXVXJXVXVXVXMXmXxXkX-X&XL.B.m.q.q.;.6.6.;.:.=.=.=.t.4.                                                                                                                                                                                                                                                                                                                x.B.B.%X7X4XcXlXxXxXxXxXzXkX6XlXlXkXkXkX6X6X2X3X<X,X!.~.Y.T.r.y.y.w.,.u.,.<.<.@.@.@.#.o.o.o.X.                                                                                                        ",
"                                              D E E E ....*.-.-.:.7.w.e.M.N.V.T.C.C.C.J.R.R.E.E.%X%X%X%X%X%X&X&X&X<X2X=X&X&X&X=X2X2X4X5XkXk.> u p p r r 7 6 6 6 4 2 - - * & & & & & $ $ = = # $ $ $ $ $ $ $ $ $ $ $ $ $ % % $ $ + + @ @ o o X X X @ @ @ @ @ @ @ @ @ @ + + + = = & & * - - 4 6 6 7 7 7 C OXvX4XkXjXjXvXlXlXlXlXkXlXxXcXcXMXMXMXMXMXMXMXMXVXVXVXVXVXVXVXVXVXVXVXVXVXVXVXVXVXVXVXVXVXVXVXVXVXVXVXVXJXJXJXJXJXVXVXVXVXVXVXVXVXJXJXJXVXVXVXVXBXBXVXVXJXJXVXVXMXcX4X2X`.L.H.B.m.q.6.;.q.;.:.>.*.>.;.3.                                                                                                                                                                                                                                                                                                                  z.H.L.3XlXlXlXkXkXxXzXmXxXlXlXkXlXlXkXkXkX6X3X<X<X,X!.~.Y.T.r.y.w.w.,.,.,.<.<.@.@.+.+.X.o.o.$.                                                                                                        ",
"                                              D ( E E ....*.-.-.:.7.7.e.M.M.M.V.C.C.C.C.R.R.E.E.%X%X%X%X%X%X&X&X&X&X=X2X&X&X&X2X3X3X4XkX5XZ , u p y r t 7 6 6 6 4 2 - * * & & & & & $ $ = = # $ $ $ $ $ % % $ % % % * : : : : : % $ + @ o o @ @ @ @ @ @ @ @ @ @ @ @ @ + + + = = & & & * - 4 6 6 6 7 7 u $XkXjXkXjXjXvXlXlXlXlXkXlXxXcXcXMXMXMXMXMXMXMXMXVXVXVXVXVXVXVXVXVXVXVXVXVXVXVXVXVXVXVXVXVXVXVXVXVXVXVXVXJXJXJXJXJXJXVXVXVXVXVXVXJXVXJXJXVXVXVXVXVXVXVXVXJXJXVXMXcX4X&X'.H.H.v.v.9.6.6.;.;.$.=.:.=.*.M.                                                                                                                                                                                                                                                                                                                  c.B.J.*X6XcXxXcX6X6XlXxXmXxXlXlXkXlXkXlXkXkX6X3X<X<X,X!.~.Y.T.r.w.w.w.,.,.,.<.<.@.+.+.+.X.o.X.X.                                                                                                        ",
"                                              D ( E E E O.*.-.-.:.7.7.e.e.M.N.V.C.C.C.C.R.R.E.E.%X%X%X%X%X%X&X&X&X&X<X<X&X&X<X2X2X5X4XlX4Xq 5 i p r r t 7 6 6 4 - - - * * & & & & & & $ $ = $ $ $ $ & & % % & & : : : 3 3 3 3 3 : : % + @ @ @ @ @ @ + + + + + @ @ + + + + + = = & & & * - 4 6 6 6 7 7 y $X4XkXjXjXkXjXvXlXlXlXkXlXxXcXcXMXMXMXMXMXMXMXMXVXVXVXVXVXVXVXVXVXVXVXVXVXVXVXVXVXVXVXVXVXVXVXVXVXVXVXVXVXVXJXVXJXJXJXJXJXJXVXVXJXJXVXVXVXVXVXVXVXVXVXVXVXVXMXxX5X&XP.J.B.m.9.9.6.6.6.;.&.q.$.;.%.0.                                                                                                                                                                                                                                                                                                                  a.B.B.P.3XbXxXcXlX6X6XlXxXxXxXlXkXlXlXlXlXkXkX5X3X<X,X!.!.Y.C.T.r.w.w.w.,.,.,.<.<.+.+.+.+.X.#.o.$.                                                                                                        ",
"                                              D / E E E ..*.>.-.:.7.7.e.e.M.N.V.V.V.C.C.R.R.E.E.%X%X%X%X%X%X&X&X&X&X<X<X&X&X2X2X4X5X5XlXOX> 7 i y r r t 6 6 4 , - - - * * & & & & & & & $ $ $ $ $ $ & * * * * : 3 5 5 5 5 q q q 5 3 : % $ + @ @ @ + + + + + + + + + + + + + = = & & & * - 4 6 7 7 7 7 q l.>XkX5XjXkXjXzXlXlXlXkXxXxXMXMXMXMXMXMXMXMXMXMXVXVXVXVXVXVXVXVXVXVXVXVXVXVXVXVXVXVXVXVXVXVXVXVXVXVXVXVXVXVXVXVXJXJXJXJXJXJXVXVXVXVXVXVXVXVXVXVXVXVXVXVXVXMXzX4X&XP.J.B.M.e.6.6.6.6.6.;.;.;.;.&.3.                                                                                                                                                                                                                                                                                                                    H.m.B.'.kXxXmXcXkX6X6XlXxXxXxXlXlXlXlXlXlXkXkX5X2X2X<X!.!.Y.C.N.r.w.w.,.,.,.,.<.<.@.+.+.+.#.+.O.$.                                                                                                        ",
"                                              D / E E E ..*.>.-.:.7.7.e.M.M.V.V.V.V.C.Y.R.R.E.E.%X%X%X%X%X&X<X<X&X<X<X<X&X2X2X2X5X5XkXlX$X> y i y r t 7 6 6 , - - - - * * & & & & & & & $ $ $ $ & & & * * * : 3 5 q q w w UXUXw q q 5 : > $ + + + + + + + + + + + + + + + + = & & & & * - 4 6 7 r 6 6 7 k.>XkXkXjXkXjXjXlXlXlXlXxXxXcXMXMXMXBXMXMXMXMXMXVXVXVXVXVXVXVXVXVXVXVXVXVXVXVXVXVXVXVXVXVXVXVXVXVXVXVXVXVXVXJXJXJXJXVXVXJXJXJXJXJXVXVXVXVXVXVXVXVXVXVXMXmXzX4X{.'.J.B.M.q.6.6.6.6.;.6.;.t.&.&.t.                                                                                                                                                                                                                                                                                                                    b.b.b.L.3XlXxXxXlXkXkXkXlXcXxXxXxXlXcXlXkXkXkXkX5X2X2X<X!.!.R.C.T.r.y.w.,.,.,.,.<.<.+.+.+.+.+.+.+.$.                                                                                                        ",
"                                              D R E E W E *.>.-.:.7.7.e.M.M.V.V.V.V.C.C.R.R.E.E.%X%X%X%X%X&X&X&X&X<X<X<X2X2X2X2X5X5XlXlX^.> y i r r t 7 7 6 , - - - - * * * & & & & & & & $ $ $ $ & & * * : 3 5 q w C C d.d.d.C C w q 5 : % $ + + + + + + + + + + + + + + + & & & & & * - 4 7 9 r 7 6 7 s.>X5XkXjXkXjXjXxXlXlXlXxXxXmXMXMXMXBXBXMXMXMXMXVXVXVXVXVXVXVXVXVXVXVXVXVXVXVXVXVXVXVXVXVXVXVXVXVXVXVXVXVXVXJXJXVXVXVXVXJXJXJXJXVXJXVXVXVXVXVXVXVXVXMXmXjX4X{.`.J.B.M.e.6.6.6.;.;.;.;.;.;.q.4.                                                                                                                                                                                                                                                                                                                    c.v.c.J.&XlXzXzXzXlXlXlXlXlXxXlXlXxXxXcXlXkXkXkX6X5X2X2X<X!.!.Y.C.T.r.y.w.,.,.,.,.<.<.<.+.+.+.+.+.+.$.                                                                                                        ",
"                                              D T R W W W *.>.:.>.:.7.e.e.M.M.V.V.V.C.C.J.R.E.E.%X%X%X%X&X&X&X&X&X&X<X<X2X2X3X3X5XlXkXkXS.> u i y r t 7 7 6 6 - - - - * * * * * * & & & & & & & % % & * : 3 5 q w C d.s.^. Xj.s.d.C w q 3 > $ + + + + + + + + + + + + + + = & & * * * * - 4 7 r p r 7 5 d.>X5XkXjXkXjXjXvXlXlXlXxXxXmXMXMXVXBXVXMXMXMXMXVXVXVXVXBXVXBXBXVXVXVXVXBXBXBXBXVXVXVXVXVXVXVXVXVXVXVXVXVXJXJXJXVXVXVXVXVXVXVXVXVXVXVXVXVXVXVXVXVXMXmXzX=X{.L.J.B.m.e.6.6.6.;.;.;.;.;.=.;.&.G                                                                                                                                                                                                                                                                                                                     c.M.0.P.3XkXjXzXlXkXlXcXxXxXlXlXkXxXxXcXlXlXkXlXkX5X2X2X<X!.!.~.~.T.y.y.w.,.,.,.<.<.<.<.@.+.+.+.+.X.$.                                                                                                        ",
"                                              S T R W W R *.-.:.>.:.7.0.e.M.T.V.T.V.V.C.C.R.R.E.%X%X%X%X&X&X&X&X%X&X&X<X2X2X3X6X5XvXkX5Xk.; u p r r t 7 7 6 4 - - - - * * * * * * * * * * * * * & & * 3 3 3 5 q C d.j.iXZXSXbX-Xs.d.C w 5 : $ $ + + + + + + + + + + + + + = & * * * - - - 4 7 r p y 9 5 d.>X5XkXjXkXjXjXvXlXlXxXxXxXmXMXMXMXVXVXVXMXMXMXVXVXVXVXBXBXBXBXVXVXVXBXBXBXBXBXVXVXVXVXVXVXVXVXVXVXVXJXVXVXJXJXVXVXVXVXVXVXVXVXVXVXVXVXVXVXMXMXMXxXzX4X{.P.J.B.M.e.6.;.;.;.;.6.;.;.;.;.t.D                                                                                                                                                                                                                                                                                                                     U.m.9.R.3XlXkXkXcXlX4XkXcXcXxXlXlXlXxXxXcXlXlXkXkX6X5X2X<X<X!.!.~.~.T.y.y.w.,.,.<.<.<.<.<.+.@.+.+.+.X.D                                                                                                         ",
"                                              D B E ! W E ( :.-.:.;.6.0.e.M.T.V.V.T.Y.Y.C.J.R.E.%X%X%X%X%X%X%X%X%X%X,X<X<X2X5X5XkXkX4X5Xs.> u u y r 7 7 7 6 , - - - - - - - * * * * * * * * * * * % 1 3 3 5 q w C s.#XSXSXSXSXMX).s.C w 5 : $ # # + @ # # + + = # # # + # & & & * - - - - 4 7 r i p r 7 d.#XlXlXjXkXjXjXkXlXlXlXxXxXxXmXMXMXMXMXMXMXMXMXMXMXVXVXBXBXMXMXMXMXMXMXMXBXVXVXVXVXVXVXVXVXVXVXVXVXVXJXJXJXJXVXJXJXJXJXVXVXVXJXJXJXJXVXVXMXMXcXxXjX=X{.L.H.B.M.e.6.$.;.;.6.q.q.;.;.;.q.G                                                                                                                                                                                                                                                                                                                     U.v.z.L.&X6XkXkXkXkXkXkXlXlXxXxXxXlXlXxXxXcXlXkXkXkX5X4X2X<X,X,X!.!.~.Y.N.e.r.,.,.<.<.<.<.=.+.>.+.+.+.+.D                                                                                                         ",
"                                              S B W P ! E ( :.:.:.:.7.0.e.M.N.M.V.T.Y.Y.C.C.W.E.%X%X%X%X%X%X%X%X%X%X,X<X<X2X5X5XkXkX5X4Xs.> u u y r t 7 7 6 6 , - - - - - - 1 1 1 1 1 1 * * * * * % * 3 3 5 q w C j.MXPXcX#X0XZXoXs.C w 5 : % $ # # # @ @ # # # # # # # # = & * - - - - 4 6 9 p p i y 7 d.>XvXlXkXkXjXjXkXlXlXlXxXxXxXxXMXMXMXMXVXVXMXMXMXMXVXVXBXBXMXMXMXMXVXVXMXMXVXVXVXVXVXVXVXVXVXVXVXVXJXJXJXJXJXVXJXJXJXJXVXVXJXVXVXVXVXVXVXMXMXcX5X2X{.L.H.B.M.M.6.;.$.;.6.q.6.%.6.6.t.4.                                                                                                                                                                                                                                                                                                                    k.4.B.b.*X7XkXkXkXkXkXkXlXlXlXlXxXxXcXcXxXxXlXlXkXkXkX5X4X2X<X,X,X!.!.R.Y.N.e.r.,.,.<.<.<.<.=.+.@.+.+.+.$.B                                                                                                         ",
"                                              A B W P P E ( :.:.:.;.7.e.M.M.N.T.V.T.Y.Y.C.C.R.E.%X%X%X%X%X%X%X%X%X%X%X,X<X2X5X5X5XkX5X5Xs.> u u y r t 7 7 7 6 6 - - - - 2 2 1 1 1 1 1 1 1 1 1 1 1 * * : 5 5 q w d.j.zXSXxX XiXSXiXg.C w 5 3 % $ @ # # + * 8 0 0 4 * # & & = & - - - - 4 4 6 9 p p i y q d.>XvXkXlXkXjXjXkXlXlXlXxXxXxXxXMXMXMXMXMXVXVXVXMXMXMXMXBXBXMXMXMXVXVXVXMXMXBXVXVXVXVXVXVXVXVXVXVXVXVXVXVXVXVXVXJXJXJXJXVXVXVXVXVXVXVXVXVXcXcX5X2X{.L.H.B.V.M.9.%.&.;.;.7.w.6.;.q.3.4.                                                                                                                                                                                                                                                                                                                      J.c.b.P.3X6XkXlXkXkXkXxXlXlXlXlXxXxXcXcXxXxXlXlXkXkXkX5X4X2X<X,X!.E.~.Y.T.N.r.r.,.<.<.<.<.<.>.@.@.@.+.+.=.m                                                                                                         ",
"                                              A B W P P W ( *.:.;.;.7.e.M.M.M.N.V.V.Y.Y.R.R.R.E.%X%X%X%X%X%X%X%XE.E.%X%X&X2X2X5X4XkX5X4Xs.> u p y r r r 7 7 6 6 4 2 2 2 2 2 2 2 2 2 1 * 1 1 1 3 1 * * * 5 5 q w d.s.+XZXSXSXSXSX-Xs.C w 5 : % $ # # + $ 0 i p.i p 0 1 & & * * - - - 4 4 6 6 r p p i u y s.4XvXlXlXlXjXjXjXkXlXlXxXxXxXxXMXMXMXMXMXMXVXVXMXMXMXMXBXBXMXMXMXVXVXVXMXBXBXVXVXVXVXVXVXVXVXVXVXVXVXVXJXJXVXVXVXJXJXJXVXVXVXVXVXVXVXMXMXcX5X2X'.L.J.B.M.0.9.4.&.&.;.q.w.7.7.e.4.Z.                                                                                                                                                                                                                                                                                                                      c.3.B.H.1X3XkXlXlXkXkXxXxXlXlXlXlXcXcXcXcXxXxXlXkXkXkXkX5X4X2X<X,X,X!.~.Y.N.r.r.w.,.<.<.<.<.<.=.@.@.@.+.=.=.                                                                                                          ",
"                                              A B W P W E ( *.=.:.;.7.0.M.T.M.V.V.V.Y.Y.R.R.E.E.%X%X%X%X%X%X%X%XE.E.%X'.%X<X2X5X5X6X5X5Xs.; u p y r r r r 7 6 6 4 4 4 4 4 4 4 4 4 4 4 * 3 1 1 1 1 * * * 3 5 5 w C s. XaXZXSXSXiXj.d.C q 5 : $ % $ # @ 1 p p.p.p.p.p 8 * & * 1 1 - 4 4 4 6 6 r p i i u y k.4XvXkXlXlXkXjXjXjXkXkXxXxXxXxXMXMXMXMXMXMXMXMXMXMXMXMXMXMXMXMXMXMXMXMXVXVXVXVXVXVXVXVXJXVXVXVXVXVXVXVXVXVXVXVXVXVXVXVXVXVXVXVXVXVXVXMXcXkX3X'.J.B.B.M.0.7.%.%.4.t.q.q.w.w.e.9.Z.                                                                                                                                                                                                                                                                                                                      z.1.v.b.&X6X4XlXkXkXkXkXlXlXlXlXxXcXxXxXxXxXxXxXlXkXlXkXkXkX5X2X<X<X,X!.~.T.r.r.w.,.,.<.<.<.<.=.=.@.+.@.+.=.&.                                                                                                          ",
"                                              A B W W W E E *.=.:.;.7.0.e.M.M.V.V.C.C.R.R.R.E.E.E.%X%X%X%X%X%XE.E.E.%X%X'.&X2X3X4X6X5X5Xs.; u i y y y r r t 7 6 6 4 4 4 4 4 4 4 - - * * * 1 1 3 3 * * * 3 3 5 q w d.j.^..XaX.Xs.d.C w q 3 : $ $ # + # 4 i p.p.p.p.p.p 2 * * 2 2 2 4 4 4 6 7 r p i i y y k.4XvXkXlXlXlXjXkXkXkXzXcXxXxXxXmXMXMXMXMXMXMXMXMXMXMXMXMXMXMXMXMXMXMXMXVXVXVXVXVXVXVXVXVXVXVXVXVXVXVXVXVXVXVXVXVXVXVXVXVXVXBXVXVXVXMXcXkX2X{.L.B.m.m.q.:.-.$.&.t.q.q.q.6.T.e.C.                                                                                                                                                                                                                                                                                                                      G 9.' B.W.5X5XlXlXkXkXkXcXlXlXlXlXxXcXxXxXxXcXxXxXkXlXkXkXkXkX4X2X<X,X!.!.~.T.r.r.w.,.,.<.<.+.<.<.=.@.@.+.+.=.;.                                                                                                          ",
"                                                B R W W E E *.=.:.;.7.7.e.M.M.M.V.V.C.R.R.E.E.E.E.E.%X%X%X%X%XE.E.E.E.%X'.%X<X3X5X6X5XkXs.; y i u y y y y r 7 6 6 6 4 4 4 4 4 , , , , * * 1 4 8 4 * * * : 3 3 5 w C d.d.s.s.d.C C w q 5 : > $ @ @ # # 8 i p.p.p.p.p.p 8 1 - 2 2 2 4 4 4 6 7 r i i i y y l.hXvXlXxXxXxXlXzXzXxXzXzXxXxXxXmXMXMXMXMXMXMXMXMXMXMXMXMXMXBXVXVXVXBXBXVXVXVXVXJXJXVXVXJXJXVXVXVXVXVXVXVXVXVXVXVXVXVXVXVXVXVXBXVXMXxXkX=X{.L.B.m.e.q.6.-.$.$.;.q.q.q.e.N.3.8X                                                                                                                                                                                                                                                                                                                      G 6.) 0.J.7X5X4XcXjXlXkXlXlXlXlXxXxXxXxXxXxXcXcXcXcXkXkXkXkXkX5X4X2X<X,X!.~.T.r.w.w.,.,.<.<.<.+.<.=.=.@.@.+.+.=.;.                                                                                                          ",
"                                                B W W E E E *.=.>.;.7.7.e.e.M.M.V.V.C.R.R.E.E.E.E.E.%X%X%X%XE.E.E.E.E.E.%X%X<X3X6X5X5XkXs.; y i y y y y y y t 7 6 6 6 4 4 4 , , 7 7 , * & * 8 9 8 : & & * 3 3 5 5 q w C C C w w w q 5 3 : % $ @ # # # 4 p p.i p.p.p.i e 2 2 2 2 2 4 4 6 6 7 r i i p y u l.vXvXxXxXxXxXxXxXcXxXxXzXxXxXxXmXmXMXMXMXMXMXMXMXMXMXMXMXMXVXVXVXVXVXVXVXVXVXVXJXJXVXVXJXJXVXVXVXVXVXVXVXVXVXVXVXVXVXVXVXVXVXVXMXmXkX5X{.L.H.B.M.q.6.;.$.$.$.;.w.6.q.M.m.!.                                                                                                                                                                                                                                                                                                                        t.$.5.v.*X5XkXcXjXkXlXlXlXlXlXlXcXcXxXxXxXxXcXcXcXcXkXkXkXkXkX5X2X2X<X,X!.Y.r.w.,.,.,.,.<.<.<.+.<.@.@.@.@.+.+.=.&.                                                                                                          ",
"                                                N W E E E E O.*.:.:.6.7.e.0.M.V.V.C.C.R.K.E.E.%XE.E.%X%X%X%XE.E.E.E.E.%X%X%X<X2X2XlX4X4XS.; q u u u u u u u t 7 7 6 6 4 4 4 , r i i y , & * 4 9 9 4 * % * : : 3 5 5 q q q 5 5 5 5 3 3 : % + $ @ # # # 1 p i p.p.p.p.i r 2 2 2 2 4 4 4 6 6 t y i i i r u $XvXvXcXcXcXxXxXcXcXcXcXxXxXxXxXMXmXMXMXMXMXMXMXMXMXMXMXMXMXVXVXVXVXVXVXVXVXVXVXVXVXVXVXJXJXVXVXVXVXVXVXVXVXVXVXVXVXVXVXVXVXBXMXmXxX4X{.`.J.B.m.e.6.$.$.&.t.;.w.w.7.N.m.8X                                                                                                                                                                                                                                                                                                                        v.$.%.e.E.3X5XkXjXvXvXlXkXkXkXxXcXcXcXcXcXcXcXzXzXcXcXlXkXkXkX5X4X2X<X,X!.Y.N.w.w.,.,.<.<.+.<.<.+.=.+.@.+.@.#.+.<.&.                                                                                                          ",
"                                                N Y W E E E Q *.:.>.;.7.e.e.M.T.N.V.C.R.R.E.E.%XE.E.%X%X%X%XE.E.E.E.E.%X%X%X&X2X6X6X5XkX^.> 7 u u u u i i u y t 7 7 6 6 6 6 6 u Z Z i 7 , & : 8 5 3 * % & * : : : 3 5 5 3 3 : : : : : % $ + @ + # # @ 1 e p i p.p.p.i r 8 2 2 2 4 4 6 6 7 r p i i i t i $XvXcXcXcXcXcXxXcXcXbXcXcXxXxXxXMXMXMXMXMXMXMXMXMXMXMXMXMXMXVXVXVXVXVXVXVXVXVXVXJXJXVXVXJXJXVXVXVXVXVXVXVXVXVXVXVXVXBXBXBXBXMXMXxX5XOX'.L.J.B.e.6.&.&.&.&.&.w.w.7.y.9.8Xk.                                                                                                                                                                                                                                                                                                                      2.1.%.6.R.<X6XkXjXkXvXvXlXkXkXxXcXcXcXcXcXcXcXcXzXzXxXcXxXkXkXkX5X2X<X,X!.~.N.r.w.,.,.<.,.<.<.<.+.<.=.+.+.+.@.#.+.;.%.                                                                                                          ",
"                                                N B E E Q E E *.>.>.:.7.0.e.e.N.N.V.V.K.R.E.E.%XE.E.%X%X%XE.E.E.E.E.E.E.%X%X%X<X3X3XlXkX].> 5 u i i C Z Z C u t 7 7 7 6 6 6 7 u Z Z Z y , & * 3 3 * % % % % * * * : : : : & % % % % % $ # + + # # # + # 8 p i p.p.p.p r 8 2 4 4 4 4 6 6 7 r p i i i y Z #XcXMXxXcXcXxXxXcXcXcXcXbXcXcXcXMXMXMXMXMXMXMXMXMXMXMXMXVXVXVXVXVXVXVXVXVXVXVXVXJXJXJXJXJXJXJXJXJXVXVXVXVXVXVXVXVXVXBXBXBXMXmXxXjX=X'.L.J.B.m.9.%.$.$.&.t.q.e.q.y.e.C.c.                                                                                                                                                                                                                                                                                                                      3.6.) 9.J.1X3XlXkXkXkXvXvXzXzXzXxXxXxXcXxXcXcXxXxXzXzXzXcXxXkXkX5X2X<X,X!.R.C.r.w.,.,.<.<.,.<.<.+.+.+.<.<.+.+.@.X.O.&.D                                                                                                           ",
"                                                N B R Q Q E E O.>.>.*.-.7.e.e.M.N.N.V.R.R.E.E.%XE.E.%X%X%X%XE.E.E.E.E.E.%X%X%X<X2X5X6X5X4X> , u i C Z Z Z Z u y 7 7 7 6 6 6 7 y Z Z Z i 6 * * & * % % & % $ & * * * * * * * % % % % $ $ # # # $ # $ + # 2 p p i i i p e 8 4 4 4 4 6 6 6 7 r p i i u y d.hXcXcXcXMXcXxXxXxXxXxXzXcXcXcXcXMXMXMXMXMXMXMXMXMXMXMXVXMXVXVXVXVXVXVXVXVXVXJXJXJXJXJXJXJXJXJXJXVXVXVXVXVXVXVXVXVXBXBXMXMXmXxXkX2X{.L.J.V.m.9.6.%.$.&.6.q.r.e.e.e.N.U.                                                                                                                                                                                                                                                                                                                      c.%.-.8.J.&X3X5XjXjXkXzXlXjXzXxXxXxXxXxXxXxXcXcXxXxXzXzXxXcXkXkXkX5X2X<X,X!.C.N.w.,.<.<.<.<.<.+.+.+.<.<.<.=.+.+.@.X.$.&.D                                                                                                           ",
"                                                m M R E Q W Q O.>.*.*.-.7.0.e.M.N.N.V.Y.R.E.E.%XE.E.%X%X%X%X%X%XE.E.E.E.%X%X%X&X2X6XlXjXjXw > y i C Z Z Z Z j u 7 7 7 0 0 0 8 9 i i i u 6 : * & * % % % % $ $ & % % % % % % $ $ % % # # # # % % % & # # 2 e p p p p p 9 8 8 8 8 8 6 6 7 t y i i i y u l.vXcXxXcXcXxXvXjXjXjXjXjXkXxXxXxXMXMXMXMXMXMXMXMXMXMXVXVXMXMXVXVXVXVXVXVXJXJXJXVXVXVXJXJXJXJXJXJXVXVXVXVXVXVXVXVXVXBXBXMXMXxXkX4X{.P.J.V.m.6.%.%.%.%.6.q.r.q.e.C.m.Z.                                                                                                                                                                                                                                                                                                                      c.4.6.5.V.&X4X5XjXjXjXjXzXkXkXxXxXxXxXxXxXxXxXxXxXxXzXcXcXzXxXkXkX6X3X<X,X!.8XN.r.w.,.<.<.+.+.@.+.+.<.<.<.<.=.@.@.#.X.X.&.S                                                                                                           ",
"                                                m b W E Q W W O.*.*.*.*.7.0.0.e.N.T.V.Y.R.E.E.%XE.E.%X%X%X%X%X%XE.E.E.E.%X%X%X&X2X3XlXlXjXs.; 5 u Z Z A Z Z C u t 7 7 0 0 0 8 4 4 , , 4 , * * * * % % $ $ $ $ $ % % % % % $ $ $ % % $ $ # % & * * * * & 1 8 r p p r 9 8 8 8 8 8 6 6 6 7 r y i i i t Z >XvXcXxXbXzXkXjXjX4X4X5X5XjXzXxXxXmXMXMXMXVXVXMXMXMXMXVXVXMXMXVXVXVXVXVXVXJXJXJXJXVXVXVXVXJXJXJXJXVXVXVXVXBXBXBXBXBXMXMXMXxXvX4X{.'.J.V.M.6.;.$.$.&.6.9.e.N.e.M.K.P.                                                                                                                                                                                                                                                                                                                      2.6.6.6.m.E.3X5XkXzXzXjXvXlXlXkXlXxXxXxXxXxXxXxXzXzXxXxXxXcXzXxXkXkX5X2X<X!.~.~.N.r.w.,.<.<.+.+.@.+.+.<.<.<.<.<.+.#.+.X...&.                                                                                                            ",
"                                                x V T W E E W Q *.>.*.*.7.7.0.e.M.M.V.Y.R.E.E.%XE.%X%X%X%X%X%X%XE.E.E.E.%X%X%X&X<X2XkXlXjX#X: : u C Z A A Z C u y 7 7 0 0 0 8 4 , , - * * * * * * & % $ $ $ $ $ % % % % % % $ $ $ % $ $ % & * * * * 1 * 1 8 0 9 9 0 8 6 8 8 8 8 6 6 6 7 r p i i u t d.>XvXcXlXcXjXjX4X4X4X4X5X5XkXzXxXxXmXmXMXMXVXVXVXMXMXMXVXVXMXMXVXVXVXVXVXVXJXJXJXJXVXVXVXVXJXJXJXJXVXVXVXVXVXVXVXBXMXMXMXmXjX4X{.'.J.B.m.q.;.&.$.%.6.9.e.M.T.T.V.U.                                                                                                                                                                                                                                                                                                                      c.;.E e.9.J.1X5XkXzXzXzXxXvXkXlXkXlXxXxXxXcXcXcXcXxXxXcXcXxXxXzXxXkXkX5X2X,X!.8X~.y.y.w.,.,.<.+.+.#.+.+.<.<.<.<.<.<.#.+.+.$.&.                                                                                                            ",
"                                                j V Y Y W W W W O.>.*.*.:.7.0.e.M.M.V.Y.R.E.E.%XE.%X%X%X%X%X*X%X%XE.E.%X%X%X%X&X2X6X4XlXcXvXq > u C Z A Z Z C u y 9 9 0 0 0 8 4 : , * * , * * 1 * * % $ $ $ $ $ $ $ % % % $ $ $ $ % % % * * * & * * 1 1 1 2 8 8 6 6 4 8 8 8 8 8 6 6 7 r y i i i u y l.vXvXcXxXlXjX4X4X4X4X4X5X5XxXxXxXxXmXMXMXMXMXMXMXMXMXMXVXVXMXMXMXVXVXVXVXVXJXJXJXVXVXVXVXVXVXVXJXVXVXVXVXVXVXVXVXMXMXMXmXzX5X<X'.I.B.m.q.q.&.$.$.;.6.e.M.N.M.M.K.c.                                                                                                                                                                                                                                                                                                                    k.4.=.:.5.E.<X6X6XkXzXxXzXxXvXkXkXlXxXxXxXcXcXcXcXcXxXxXcXcXcXxXzXxXkX5X2X<X,X!.8X~.r.r.w.,.,.<.+.+.X.#.+.<.,.<.<.<.<.+.+.+...&.                                                                                                            ",
"                                                  N Y W P W W E Q *.>.*.-.7.y.e.T.T.V.Y.R.R.E.E.%X%X%X%X<X%X%X%X*X%X*X%X%X%X%X*X5X5X6X5XbXvXs.> 5 u Z Z Z Z C C u q 9 0 0 8 8 4 4 : : * * * 1 1 * & % % $ $ $ $ $ $ % % % $ $ % $ % % & % % * * * * * * 1 1 2 4 4 4 4 8 8 8 8 6 9 6 r y u i Z i y C >XvXvXcXzXxX4X4X4X4X4X5XkXkXkXzXcXMXMXMXMXMXMXMXMXMXMXVXVXVXMXMXVXVXBXVXVXVXVXVXVXVXVXVXVXVXVXVXVXVXVXVXVXVXVXBXVXMXmXxXzXkX&XP.J.B.V.M.6.;.;.$.6.9.e.V.V.R.C.J.U.                                                                                                                                                                                                                                                                                                                    | m.1.6.9.J.%X3X6XkXxXxXzXzXxXvXvXlXlXxXxXxXxXxXxXxXxXxXxXxXxXcXcXcXkX5X4X2X<X,X!.!.~.~.T.y.y.,.<.<.+.+.+.#.+.u.,.,.w.;.;.=.=.<.4.                                                                                                            ",
"                                                  N Y W P W W W Q *.>.>.:.7.w.e.M.T.V.Y.R.R.E.E.%X%X%X<X<X%X&X&X&X%X%X%X%X%X,X<X3X4XlX4X5XcX@X5 , u C Z Z Z Z C u y 9 0 0 8 8 4 4 4 : * * * 1 1 * & % % % $ $ $ $ $ $ $ $ $ $ $ % % % & & & * * * * * * * 1 2 4 4 4 4 8 4 8 8 8 6 9 r y i Z Z u y d.4XvXvXcXjXjX4X4X4X4X5X5XkXkXkXcXcXMXMXMXMXMXMXcXcXMXMXVXVXVXMXMXmXMXBXVXVXVXVXVXVXVXVXVXVXVXVXMXVXVXVXVXVXVXVXBXMXmXcXxXjX3X'.K.V.V.M.e.6.%.$.;.6.0.N.C.B.J.J.P.                                                                                                                                                                                                                                                                                                                    c.3.) 6.v.H.%X3X6XkXkXzXzXzXzXxXvXlXvXxXxXxXxXxXxXxXxXxXxXzXxXzXcXcXkXkX4X2X2X<X,X!.!.~.~.T.y.y.,.,.<.<.+.+.#.+.u.w.w.w.6.w.:.=.<.4.                                                                                                            ",
"                                                  S I W P W W W Q *.>.>.-.7.7.0.M.M.V.Y.R.R.E.E.%X%X%X,X<X<X%X%X<X<X<X<X<X1X1X1X3X2X6X6XlXvXSXC > q u Z Z Z Z C u y 9 9 0 8 8 4 4 2 * * * * 1 1 & & % $ $ $ $ # # # # # # $ $ $ % % & * % & * * * * * * 1 1 1 2 4 4 4 4 8 8 0 0 7 r y i Z Z Z u u $XvXvXvXcXjXjX4X4X4X4X5XkXlXxXxXcXcXMXMXMXMXMXmXmXMXMXMXVXVXVXSXxXjXxXMXVXVXVXVXVXVXVXBXVXVXVXVXMXVXVXVXVXVXBXBXmXmXxXzXjX-X=XP.K.V.B.M.9.;.%.%.6.6.e.Y.C.V.J.J.                                                                                                                                                                                                                                                                                                                    | m.6.6.6.J.'.3X6XlXkXkXzXzXzXzXxXxXxXxXxXxXxXxXxXxXxXxXxXxXxXxXcXcXcXkXkX4X2X<X<X,X!.!.~.Y.T.y.y.y.,.,.<.<.+.+.=.,.w.r.r.w.r.w.<.<.|                                                                                                             ",
"                                                  S M W K W W W E O.*.>.:.7.7.0.M.T.V.Y.R.R.E.E.%X%X%X%X<X<X%X%X%X<X<X1X1X,X,X%X&X3X2XbXlX4XvX#X> , u C Z Z Z Z u y 9 7 0 8 8 4 4 2 * * * * * * * & % % $ $ $ $ # # # # $ $ % % % & * * & * * * 1 1 1 1 1 1 2 2 4 4 4 8 8 6 0 7 r y i Z Z Z i y Z vXvXvXxXxXjXjX4X4X4X5XkXkXxXxXcXcXMXMXMXMXMXMXMXMXMXMXMXVXVXMXcXjXiXzXMXMXBXVXVXBXVXVXVXVXVXVXMXMXVXVXBXBXMXMXmXmXzXjX5X4XOX'.P.B.V.M.e.6.%.%.;.7.9.N.C.V.R.P.                                                                                                                                                                                                                                                                                                                    4.t.6.6.6.M.%X3X6XlXkXzXxXxXcXcXxXxXxXxXxXxXxXxXxXxXxXxXxXxXxXxXxXcXcXcXkXkX4X2X<X<X,X!.!.~.Y.T.y.y.y.,.,.<.<.=.+.<.w.r.r.r.e.y.u.,.;.D                                                                                                             ",
"                                                  m B W K W W W E Q *.*.:.:.7.7.e.M.M.C.R.R.E.E.E.%X%X%X%X%X%X%X%X%X,X,X%XE.E.P.H.1X3X5XlXvXvXcXC > q u Z Z Z Z u y q 7 0 8 8 4 2 2 * * * * 1 * * * & & & $ $ # # # # # $ % % % % * * * * * * * * 1 1 1 1 2 2 2 4 4 4 8 0 6 0 7 r i Z Z Z Z u u ^.vXcXxXcXjX4XjX4X4X4X5XkXkXxXxXcXMXMXMXMXMXMXMXVXVXVXVXMXMXMXcX5X=X4XkXMXMXMXVXVXVXBXBXVXVXVXMXMXMXMXMXMXMXmXmXzXjXjX4X3X&X{.L.J.V.V.M.9.1.%.-.-.e.N.C.m.B.K.                                                                                                                                                                                                                                                                                                                    4.w.;.;.6.m.E.3XlXlXkXkXxXcXxXcXcXxXxXxXxXmXmXxXxXxXxXxXxXxXxXcXcXzXcXxXxXkXkX2X2X<X<X,X!.!.~.~.~.y.y.y.w.,.<.q.;.=.<.w.y.r.r.e.e.w.,.t.                                                                                                              ",
"                                                  j B W P P W W E E *.*.>.:.7.7.e.M.M.C.Y.R.E.E.E.%X%X%X%X%X%X%X%X%X%XE.E.P.J.J.H.L.3X3XlXvXcXvX$X> : q C Z Z C u u y 7 0 8 8 4 2 2 1 1 1 1 1 1 * * * & & & & $ # # # $ # % % % % * * * * * * 1 * 1 1 1 2 2 4 4 4 4 8 6 0 6 7 r u Z Z Z d.i 7 d.jXjXcXxXxXjX4X5X4X5X5XkXkXzXxXMXMXMXMXMXMXMXMXVXVXVXVXBXMXMXcXkX{.{.2XlXxXmXMXVXVXVXBXMXMXMXMXMXmXmXmXmXmXmXzXzXjX4X4X3X&X'.'.J.V.V.m.m.6.1.-.5.6.e.N.V.K.!.k.                                                                                                                                                                                                                                                                                                                H m.;.=.:.6.B.,X3XkXlXxXxXxXcXxXxXcXcXxXxXmXmXmXmXxXxXxXxXxXxXxXxXcXcXzXcXxXkXkXkX2X<X<X<X,X!.!.~.~.~.T.y.y.r.,.,.q.q.;.,.e.y.r.e.w.w.:.;.%.                                                                                                              ",
"                                                    B Y W P W W E E ` *.*.>.7.7.e.T.M.V.C.R.E.E.E.%X%X%X%X%X%X%X%X%XE.E.W.J.J.J.K.H.&X6XlXjXcXjXcXC > 5 u Z Z Z C u y 7 7 8 8 4 4 2 1 1 1 1 1 1 1 1 * * * * & & & & & & # # & & * * * * * * 1 1 1 1 1 2 2 2 4 4 4 4 8 0 0 7 r p i Z Z d.Z y u $XcXxXxXzXlX4XjX5X5X5XkXkXxXcXMXMXMXMXMXMXMXMXVXVXVXJXVXVXMXcXjX=X'.{.2XkXxXmXMXBXBXBXBXMXMXMXmXmXxXxXzXzXzXzXjXjX4X4X3X<X'.P.J.J.V.M.M.9.1.5.6.6.N.M.m.Z.P.U.                                                                                                                                                                                                                                                                                                                G 3.;.w.-.%.C.*X=XbXcXxXxXmXmXmXxXxXcXcXcXcXmXmXmXmXmXxXxXxXmXmXxXxXxXxXzXzXxXkXkX5X2X<X<X,X,X!.!.~.Y.T.T.y.y.r.w.w.q.q.w.w.y.y.e.w.w.;.=.;.&.                                                                                                              ",
"                                                    S I W P W W E E ` *.*.>.:.7.y.T.M.V.Y.R.E.E.E.E.%X%X%X%X%X%X%X%XE.E.E.W.J.J.K.%X'.lX5XkXlXvXcX#X: > q C Z Z C u y q 7 0 8 4 4 4 1 1 1 1 1 1 1 1 * * * * * * * * * * * * * * * * * * * 1 1 1 1 1 2 4 4 4 4 4 4 8 0 9 9 9 y i Z Z d.d.i q s.vXvXZXzXkXkX4XkX5XkXkXlXcXcXMXMXMXMXMXMXMXMXMXVXVXJXJXJXVXMXlX2X`.I.'.2X4XlXxXMXMXMXMXMXMXmXmXmXxXzXzXzXjXjXjXjX4X4X3X2X<XP.J.J.V.m.M.e.6.1.5.9.9.M.m.K.P.I.                                                                                                                                                                                                                                                                                                                G 9.;.;.:.0.m.P.4XxXmXMXmXmXmXmXmXxXcXcXcXcXcXxXmXmXmXmXxXxXxXmXmXxXxXxXxXzXzXlXkXkX5X2X<X<X,X,X!.!.~.Y.Y.T.T.y.r.e.w.q.q.w.e.y.y.e.q.;.&.$.$.D                                                                                                               ",
"                                                    S I P P W W E Q E *.>.*.:.y.y.T.T.T.Y.R.E.E.E.E.E.E.%X%XE.E.E.E.E.E.E.E.J.J.b.J.&X4XkXlXlXvXvXcXd.% 5 u Z C Z i u y 7 0 8 8 4 4 4 2 1 1 1 1 1 1 1 1 1 1 1 * * * * * * * * * * * * * * 1 1 1 1 2 4 4 4 4 4 4 8 8 0 9 e p i C Z Z d.C 5 C vXvXxXcXzXkXjX4X4XkXkXkXcXcXMXMXMXMXMXMXMXMXmXMXMXVXVXJXVXMXbX5X`.I.L.'.<X6XlXxXxXmXMXMXMXmXmXxXzXzXzXjXjXjXjXjX4X4X4X2X'.P.P.K.J.V.M.0.6.1.5.6.0.M.V.K.I.I.                                                                                                                                                                                                                                                                                                                3.q.$.,.;.9.V.%X-XzXmXBXmXmXmXmXmXmXxXxXxXxXcXcXcXmXmXmXmXmXmXmXmXmXmXmXcXxXcXcXcXkXkX4X2X<X<X,X,X!.!.~.~.Y.T.T.y.r.e.r.q.q.e.y.y.e.q.;.$.$.X./ A                                                                                                               ",
"                                                    A T W P W W E Q Q >.:.*.-.-.7.T.T.T.R.R.R.E.E.E.E.E.%XE.E.E.E.E.E.E.E.E.E.R.J.P.&X3X5XkXlXlXcXvXMXw : 5 u Z Z C u y 9 7 8 0 8 4 4 4 4 1 1 1 1 1 1 1 1 1 1 1 1 1 * * * * 1 1 1 * * 1 1 1 1 1 2 4 4 4 4 4 4 4 8 0 e e p i i C Z d.C q q #XvXxXMXcXzXjXjX4XkXkXkXxXcXcXMXMXMXMXMXMXMXMXMXMXMXVXVXVXMXcXlX{.I.I.P.'.<X3XlXcXcXxXmXxXxXxXzXzXjXjXjXjXjXjX4X4X4X3X2X<X'.P.K.K.C.V.M.9.9.6.9.9.0.m.K.Z.,XU.                                                                                                                                                                                                                                                                                                              B.&.=.u.E 6.V.`.-XzXmXmXmXmXmXmXmXmXxXxXxXxXxXcXcXcXmXmXmXmXmXmXmXmXmXmXmXmXxXcXcXcXkXkX5X2X<X<X<X,X!.!.~.~.Y.T.T.T.r.e.r.r.e.N.T.y.e.q.<.$.X.X.&.m                                                                                                               ",
"                                                    j D W P P W E Q Q >.:.` ` ( -.0.T.T.R.R.W.E.E.E.E.E.E.E.E.E.%XE.E.E.E.E.E.E.E.,X1X3X4X4XkXcXcXvXMXhX3 > 5 u C Z i u y 9 7 0 8 8 8 4 4 4 4 4 4 4 1 1 1 1 1 1 1 1 1 1 1 1 1 1 1 1 1 1 1 1 2 4 4 4 4 4 4 4 4 8 8 9 e p i i d.C Z C q q $XvXAXmXZXcXkXjXjXkXkXkXcXcXMXMXMXMXMXMXZXMXMXMXMXMXMXMXMXZXbXkX2XI.b.J.P.'.&X2X5XkXlXcXxXvXzXjXkXjXjXjX4X4X4X4X4X2X2X2X&X'.P.P.K.C.C.V.M.e.0.0.0.M.B.V.K.Z.I.                                                            s.k.$X>XvXOX                                                                                                                                                                                                                                    | 3.&.:.>.*.0.B.`.4XxXmXxXxXxXxXmXmXmXmXxXxXxXxXxXxXxXxXmXmXmXmXmXmXmXmXmXmXmXmXxXzXcXlXkXkX4X2X<X<X<X,X,X!.~.~.Y.T.N.N.r.N.e.N.N.T.T.y.r.q.<.=.X...%.                                                                                                                ",
"                                                      D W P P W Q O.Q >.:.` E W R -.M.Y.R.R.E.E.E.E.E.E.E.E.E.E.E.E.E.E.E.E.E.E.,X1X1X3X2X3X4XkXlXcXxXcX^.> > q u C Z i u y 9 7 0 0 8 8 8 8 4 4 4 4 4 4 4 4 4 4 1 1 1 1 1 1 1 1 1 1 1 1 1 2 4 4 4 4 4 4 4 8 0 0 e p p i i i d.i i q q ^.cXAXzXMXcXzXjX4XjXkXkXxXcXMXMXMXMXMXMXMXMXMXMXMXMXMXMXMXMXcXlX2XL.D.B.K.P.P.'.<X3X5XkXlXlXkXjX5X5X4X4X4X4X4X2X2X=X2X=X<X{.'.P.P.K.K.C.V.V.N.M.M.V.V.C.K.P.Z.                                                      k.S.^.$X>XvXlXlXbXlX#X                                                                                                                                                                                                                                c.t.;.=.*.=.7.v.%X4XzXmXmXxXxXcXxXxXmXmXmXmXmXxXxXxXxXxXxXmXmXmXmXmXmXmXmXmXmXmXmXxXzXxXlXkX5X4X2X2X<X<X,X,X!.~.Y.Y.Y.N.N.N.N.N.N.C.Y.T.T.w.q.;.=.X.X.%.                                                                                                                ",
"                                                      S R P P W Q Q E >.:.` E W R / 0.Y.Y.R.E.J.E.E.E.E.E.E.E.E.E.E.E.E.W.E.E.%X1X<X<X<X&X2X3X4XlXcXlXbXcXZ > : q u C C i y 9 9 0 0 8 8 8 8 8 8 4 4 4 4 4 4 4 4 4 4 4 4 4 4 4 4 4 4 4 4 4 4 4 8 8 8 8 8 8 0 9 e p i i i i i i i w 5 d.cXvXzXSXxXzXjXjXjXkXkXxXzXMXMXMXMXMXMXMXMXMXMXMXMXMXMXMXMXcXkX2X'.H.b.V.R.K.P.'.'.&X2X3X4X4X4X2X2X2X2X=X=X=X=X=X=X=X&X&X{.'.'.P.P.K.K.C.C.C.C.C.V.C.K.R.K.K.                                          | | k.4.c.U.I.{.4XkXZXZXZXZXcXxX4XXX                                                                                                                                                                                                                            G 3.6.$.;.;.;.5.B.%X6XlXcXmXmXxXcXcXxXxXmXmXMXmXmXmXxXxXxXxXxXmXmXmXmXmXmXmXMXMXmXmXmXxXxXcXlXkX5X4X2X2X<X<X,X,X!.!.Y.C.Y.N.N.N.N.N.C.Y.Y.Y.N.e.q.;.=.+.$.4.                                                                                                                ",
"                                                      m R W P W Q Q E *.:.Q E E R T 5.T.R.R.E.E.E.E.E.E.E.E.E.E.%X%X%XE.W.%X%X1X1X<X,X,X,X1X3X4X5XkXbXjXSXjXC > : 7 u C C i y 9 9 9 0 0 0 0 8 8 8 8 4 4 4 4 4 4 4 4 4 4 4 4 4 4 4 4 8 8 8 8 8 8 8 8 0 0 9 e p p p i i i C i i q 7 d.vXAXzXMXZXzXjXjXjXkXkXkXcXcXMXMXVXVXMXMXMXMXMXMXMXMXVXMXmXxXlX2X'.H.n.v.C.R.K.P.P.'.'.{.{.&X&X&X&X{.{.{.&X&X{.{.=X&X&X&X{.'.'.'.E.P.P.K.K.K.J.J.R.J.K.K.K.K.4.                          H H | k.k.k.c.c.U.U.U.U.H.'.3XkXcXMXMXmXMXMXxXkX-XXX                                                                                                                k.x.G                                                                                                     4.3.6.:.*.-.6.v.J.%X6XcXcXmXmXMXMXcXxXxXxXmXmXMXMXMXmXmXmXmXmXmXMXMXMXmXmXmXmXMXMXmXmXmXxXxXcXkXkX5X4X2X2X<X<X,X,X!.R.C.C.C.N.N.N.T.Y.Y.C.Y.T.N.e.q.q.=.=.&.D                                                                                                                 ",
"                                                      j Y W Y E Q Q E >.:.Q E E E T ) M.R.R.J.E.E.E.E.E.E.E.%X%X%X%X%X%X%X%X%X%X%X%XE.E.E.%X&X3X5XOXlXbXjXSXhXw : : 5 u i i i y y 9 9 9 9 9 0 0 8 8 8 8 8 8 8 8 8 8 8 8 8 8 8 8 8 8 8 8 8 8 0 0 0 9 9 e p p i i i Z Z i i y 0 q d.vXCXcXAXxXjXzXjXjXjXkXlXlXxXmXMXMXVXVXVXMXMXcXxXmXZXMXVXMXmXzX3X{.L.b.3.B.R.R.K.P.P.P.'.'.'.'.'.'.'.'.'.'.{.{.{.&X&X&X&X&X&X{.'.'.E.P.P.K.K.K.P.P.E.P.K.K.V.m.4.4.| | G | | | 4.4.4.c.c.c.c.U.U.U.U.U.D.F.F._.=X4XkXbXZXSXMXMXMXMXZXMXvX4XOX$X                                                                                                          x.J.2.1.1.2.| H                                                                                               9.6.:.>.>.:.5.v.%X3X5XjXxXcXmXMXMXMXMXmXcXcXmXmXMXMXMXMXMXmXmXmXMXMXMXMXmXmXmXmXMXMXMXmXmXxXcXcXkXkX5X4X2X2X<X<X,X,X!.K.C.C.C.N.N.N.Y.Y.C.C.C.V.N.e.q.q.=.=.&.m                                                                                                                 ",
"                                                      j M W Y W Q Q E >.:.` E E E R T 5.R.V.n.R.E.E.E.E.E.E.E.%X%X%X%X%X,X,XE.P.H.J.J.B.J.J.`.*X&X6X4XlXlXjXSXhXw : > 5 y i i i y y 9 9 9 9 0 0 0 8 8 8 8 8 8 8 8 8 8 8 8 8 8 0 0 0 0 0 0 0 9 9 9 e p p i i i i C i i i i 9 q d.AXvXAXxXvXxXjXjXjXjXjXzXzXxXxXMXMXVXVXMXmXMXmXmXMXMXMXMXMXmXzX5X{.P.B.v.2.B.R.Y.K.K.P.P.'.'.'.'.'.'.'.'.'.'.'.'.&X&X&X&X&X&X&X'.'.'.P.P.P.K.K.R.P.E.E.K.J.B.c.4.3.3.3.3.3.4.m.3.3.3.v.v.m.B.b.B.b.D.F.`.{.3X6XbXMXVXZXVXVXBXVXVXVXMXMXxX4X>X{._.                                                                                                      a.`.D.z.m.5.) 5.' c.                                                                                          | 9.-.*.>.>.-.0.V.E.&X5XxXmXmXmXmXmXmXmXMXMXMXcXmXmXMXMXMXMXMXMXMXMXMXMXMXMXmXmXmXmXMXMXMXmXmXmXxXcXkXkX5X3X2X2X<X<X,X,XR.K.C.C.C.N.N.C.Y.R.K.C.V.N.e.e.q.6.;.&.;.                                                                                                                  ",
"                                                        m W Y Q Q Q E -.u.*.W Q W E R ^ Y.R.v.m.V.R.R.R.E.E.%X%XE.E.,X!.E.R.V.B.V.B.B.B.B.B.J.L.%X%X2X5XlXcXcXMXxXu > : 5 q u C i u u y 9 9 7 0 0 0 8 0 0 9 9 9 9 0 0 0 0 0 9 9 9 0 0 9 9 e e e p i i i i i C i i i i y q q d.AXxXMXcXxXjXjXjXjXzXzXxXxXxXcXMXMXMXMXMXMXMXmXmXmXMXMXMXmXcXxX4X&XW.B.m.9.1.M.R.R.K.K.P.P.'.%X%X%X'.'.'.'.'.'.%X&X<X&X=X{.&X&X&X&X%X'.P.P.E.E.R.R.E.R.C.m.9.9.9.6.t.t.t.t.3.3.3.3.c.c.c.c.c.D.I.`.=X4XkXvXcXcXMXMXVXVXVXVXMXMXVXBXBXMXmXjX4X<X'.H.G                                                                                                   D.D.b.b.D.H.v.8.5.1.c.                                                                                      A &.w.=.*.>.-.5.n.H.*X3XkXxXcXMXmXmXmXmXMXMXMXMXmXmXmXmXMXMXMXMXmXmXmXMXMXMXMXMXMXMXMXMXmXmXmXmXmXmXxXxXvXjX5X4X2X2X<X<X,X,XE.R.K.C.V.M.C.R.R.K.C.Y.N.r.e.e.w.q.;.;.4.                                                                                                                  ",
"                                                        m Y I W Q Q E -.7.*.Q Q W W W ^ T.R.V.M.V.Y.R.R.W.W.W.W.E.E.E.R.R.C.M.M.N.N.M.M.V.V.V.J.P.E.%X2X5XkXcXcXxXzXC > : : 5 q i Z i i y q e 7 9 9 0 0 0 9 e e e e e e e 9 9 9 e 9 9 9 e e p i i i i i i i i i i i q 9 q l.AXMXmXxXcXzXjXjXjXjXkXxXxXxXmXMXMXMXMXMXMXMXmXmXmXmXmXMXmXxXxXkX=X%XQ.m.0.6.5.m.R.R.R.E.E.%X%X%X*X*X{.{.'.'.'.&X&X&X{.=X=X=X=X=X&X&X<X,X%XE.E.R.K.V.B.B.v.v.9.9.6.t.6.9.9.3.3.3.c.c.c.H.H.I.'.&X4XkXxXxXMXMXMXMXMXBXVXVXVXVXMXMXMXBXBXMXmXkX3X{.P.H.G                                                                                               a.c.B.n.n.H.L.I.P.m.5.8.c.                                                                                    4.;.;.>.O.*.:.8.n.`.{.4XkXlXcXcXmXmXmXmXmXMXmXmXmXmXmXmXmXMXMXMXMXMXMXMXMXMXMXMXMXMXMXMXMXmXmXmXmXmXmXmXxXvXjX5X4X2X2X<X<X,X,XE.K.K.V.V.V.C.R.K.K.R.C.r.e.e.e.q.6.q.&.4.                                                                                                                  ",
"                                                        j M Y W W Q E -.7.*.Q Q ! W W T 0.Y.Y.V.V.C.Y.R.J.J.J.J.E.E.E.R.C.M.M.M.M.N.M.M.m.B.V.J.J.P.'.&X3X5XlXlXAXAXxXd.: : : : q u Z C i i y y 9 9 9 0 9 9 9 e e p p p p p p p p p p p p i i i i i C i i i i i y 9 5 w eXAXMXzXxXzXkXjXjXjXjXvXzXxXxXxXmXMXMXMXMXMXMXMXMXMXMXmXcXcXcXxXkX4X*XL.m.0.0.6.5.9.C.E.E.E.%X%X&X&X&X{.&X&X{.{.{.&X&X&X=X=X=X=X=X&X&X&X{.'.'.P.P.J.J.B.m.v.v.9.9.9.9.v.c.c.c.c.b.D.I.I.{.{.2X5XkXcXbXSXMXVXVXVXVXVXVXVXVXVXBXBXMXMXBXBXMXMXxXjX=X'.J.B.G                                                                                             a.U.c.v.n.b.L.{.{.%XJ.8.0.c.                                                                                H 3.;.;.=.O.*.;.8.n.L.=X4XkXxXcXxXmXmXmXmXmXmXMXMXMXmXMXMXMXMXMXMXMXMXMXMXMXMXMXMXMXMXMXMXMXMXmXmXMXMXmXmXmXxXjXjX5X4X2X2X<X<X,X!.E.K.V.V.V.C.K.K.K.K.C.C.N.e.r.e.q.6.q.&.D                                                                                                                   ",
"                                                        j N I W W Q E -.7.-.Q Q Q P W T ' Y.!.V.V.V.V.Y.J.J.J.W.E.E.R.C.B.M.M.N.M.M.M.M.B.B.J.J.W.W.%X*X&X3X5XkXvXcXcXxX|.q : : : 5 y C Z C C i p p e 9 9 9 9 9 e p p p i i i i i i i i i i i i i i i C i i p w 9 5 i hXnXmXzXSXxXkXjXjX4X5XjXkXxXxXxXxXxXMXMXMXMXMXMXMXMXMXMXmXcXcXxXkX4X&XP.b.n.6.7.5.5.8.V.E.E.P.'.%X&X&X&X{.&X&X&X&X&X&X=X=X3X2X2X&X{.{.&X&X'.'.P.L.J.J.H.B.B.m.m.v.c.v.B.B.D.I.I.`.{.=X4X5XlXxXcXMXZXMXVXVXBXVXVXVXVXVXVXVXVXVXBXBXBXMXBXBXMXmXzX4X&XP.J.B.|                                                                                           x.H.c.3.v.V.D.P.&X=X&XW.n.n.b.Z                                                                             4.4.&.;.$.*.*.5.9.b.L.&X5XkXxXxXxXxXmXMXmXmXmXMXMXMXMXMXMXMXMXMXMXMXMXMXMXMXMXMXMXMXMXMXMXMXMXMXmXmXMXMXmXmXmXxXjX5X4X3X2X<X<X<X,XE.E.K.K.C.C.K.R.R.K.K.C.V.N.e.e.e.q.q.t.t.                                                                                                                    ",
"                                                        j m M Y W Q E -.7.:.O.Q Q W E R ) Y.!.V.Y.T.V.V.C.V.J.E.E.R.J.B.B.B.V.N.M.M.M.V.V.V.J.J.E.E.P.'.&X2X4X5XjXvXxXcXMXAXd.3 > 5 : 5 i i C d.C i i y e 9 9 9 9 e p p p i i i i i i i i i i i i C i p w q 9 5 q l.AXAXMXMXMXjXkXjXjX4XjXkXkXjXxXxXxXmXmXMXMXMXMXMXMXMXMXMXMXmXcXxXkX4X=X`.D.v.0.7.;.;.-.%.0.R.E.'.'.'.&X&X&X&X&X&X{.{.OX=X=X&X{.{.{.{.{.'.'.'.'.P.J.J.B.B.B.v.B.B.b.b.B.I.I.'.&X2X4XkXcXcXMXMXMXVXVXVXVXVXVXVXJXJXJXJXVXVXVXVXVXVXBXBXBXBXBXVXMXmXjX=X'.P.V.U.|                                                                                         A.c.2.v.v.n.b.L.&X4XOX3X%XJ.z.D.a.                                                                        D t.6.;.=.=.*.;.5.8.b.`.=XlXxXxXcXcXmXmXMXMXmXBXBXBXMXMXMXMXMXMXMXMXmXmXMXMXmXmXMXMXMXMXMXMXmXMXMXmXmXmXmXmXmXmXmXxXkX5X4X3X2X<X<X,X,XE.P.K.K.K.K.R.R.R.K.C.C.V.V.N.M.e.q.q.t.3.                                                                                                                    ",
"                                                          x M Y W Q E -.7.:.*.Q W W E ^ _ T.R.V.Y.T.V.V.B.V.K.E.E.R.B.B.B.V.V.V.M.M.V.V.V.V.J.J.W.P.P.P.'.&X3X5XlXlXxXjXxXzXVXeXC : > 5 5 5 q i i i i i i y e e 9 9 e e w p p p p i i i i i i i i w q q q 5 q d.hXMXMXxXxXzXzXzXkXjXjXjXjXkXkXjXxXxXxXxXmXMXMXMXMXMXMXMXMXMXmXcXzXkX4X=X*XL.b.v.0.7.:.-.-.%.5.M.E.'.,X%X&X&X&X&X&X&X{.{.=X=X=X{.{.'.,X,X'.'.P.I.H.D.b.b.b.c.B.B.I.I.P.'.{.2X5XkXcXcXZXMXZXMXMXBXBXVXVXVXVXJXJXJXVXJXJXVXVXVXVXVXVXVXBXBXBXBXBXMXmXzX4X=X'.J.M.v.|                                                                                       U.c.2.9.3.2.v.b.L.3XkXjX4X&XW.x.D.A.                                                                    D &.;.=...O.O.O.$.5.v.b.*X5XkXxXMXMXMXmXmXMXMXMXMXBXBXBXMXMXMXMXMXMXMXMXmXMXMXMXmXmXmXMXmXMXMXMXmXmXmXMXmXmXmXmXmXmXxXxXkX5X4X2X<X<X<X,X%XE.P.K.E.R.R.R.R.R.K.C.C.V.V.M.M.e.q.;.t.4.                                                                                                                    ",
"                                                          j N M W Q E *.7.7.*.E W W E ( ^ T.R.C.T.T.V.B.B.C.R.R.R.J.V.B.B.V.V.V.V.V.V.V.V.W.R.J.J.J.P.P.'.{.2X5X5X-XvXbXzXMXmXVXmX#Xu > : : 5 5 9 q w i i y w w e 9 9 9 e e e e e p p p p p p w 9 q 5 : 5 d.#XAXbXcXxXxXjXZXbXjXjXjXjXkXkXkXkXlXxXxXmXmXMXMXMXmXMXMXMXMXMXmXmXcXkX4X=X{.`.D.v.0.6.:.:.*.;.%.%.9.K.P.,X<X<X{.&X<X{.<X<X&X{.OXOX{.{.'.'.'.}.I.I.I.D.D.I.I.I.P.P.'.<X2X5XkXlXcXZXZXMXMXMXVXMXMXMXBXVXVXVXVXVXVXVXVXCXCXBXBXBXMXMXBXVXVXBXBXBXBXMXMXxXjX=X{.P.V.M.m.|                                                                                     k.c.2.8.M.z.b.J.L.*X4XjXjXjX=X*XD.A.A.                                                                A q.;.=.=.O.+.>.*.( ' n.H.*XkXcXxXxXMXMXMXMXMXMXMXMXMXMXMXMXBXMXMXMXBXBXMXBXMXMXMXMXMXMXMXMXmXmXmXmXmXmXmXmXmXmXmXmXmXmXxXzXkX5X4X2X<X<X,X%XE.E.E.P.E.!.R.E.R.K.K.C.C.V.V.M.M.e.q.;.q.D                                                                                                                     ",
"                                                          j N b Y E E *.y.u.*.Q E W W E ^ T.R.Y.T.T.V.M.B.Y.R.R.R.J.J.V.V.V.C.C.V.V.V.V.J.W.R.W.W.W.P.P.`.'.2X3X3XbXkX-XxXxXmXmXMXAXAXl.w : > : 3 5 5 9 q q w w w q 9 9 9 9 9 9 9 e w w w q 5 5 : : q d.>XcXxXkXjXkX5XkXcXkXjXkXjXjXkXkXkXlXlXlXxXxXmXmXMXMXMXmXmXMXMXMXMXcXcXcX5X2X{.`.H.b.v.0.;.7.;.-.6.%./ 1.B.I.'.{.{.{.{.<X{.&X&XOXOXOXOXOX}.}.`._._._.`.`.{.{.&X2X2X3X6X6XcXcXMXMXMXMXBXBXVXVXVXVXVXVXMXVXVXVXBXBXBXBXBXBXVXVXVXVXCXCXMXMXBXBXBXMXMXMXMXMXkX4X=X'.J.V.e.9.|                                                                                   Z c.0.8.n.2.b.D.I.*X4XkXzXzXjXOX*XL.x.A.C                                                           D &.&.O.+.O.O.O.O.O.-.5.n.L.;X5XxXxXmXVXmXMXMXMXMXMXMXmXMXMXMXMXMXMXMXMXBXBXMXBXMXMXMXMXMXMXMXMXmXmXmXmXmXmXmXmXmXmXmXmXmXmXxXxXkX5X4X2X<X,X,X'.E.P.E.E.E.E.E.R.R.K.K.C.C.N.V.M.M.q.q.<.4.                                                                                                                      ",
"                                                            x M I E E Q 7.y.:.*.E E W E ( 0.R.R.T.T.V.M.B.R.R.E.J.J.J.J.J.J.J.C.C.J.J.J.J.J.J.R.W.W.P.P.L.`.&X3X4X4X4XjXkXzXxXxXMXxXcXMXAX@Xd.C 5 : : 3 5 5 5 9 9 9 9 9 9 9 9 9 9 0 5 5 3 : 5 i d.$XcXbXkX5X6X4XOX{.{.=X5XlXlXjXkXkXzXzXzXzXxXxXxXxXmXmXMXMXMXMXmXMXMXcXcXcXkX4X&X'.L.H.B.v.v.0.9.6.6.6.5.2.2.2.x.S.`.{.OXOXOXOXOXOXOXOXOX+X+X+X@XiXjXjXxXxXxXcXcXcXcXcXcXcXcXcXMXMXMXBXBXVXVXVXVXVXVXBXBXBXMXMXMXBXBXBXVXVXVXCXBXMXMXMXMXMXmXMXVXBXBXVXVXMXmXzXjX=X{.P.C.M.e.e.|                                                                                   4.9.9.0.n.b.D.L.*X;XkXzXmXmXzX-X[.*XA.U.a.                                                    m &.;.&.=.+.+.+.+.O.O.*.5.n.J.*X;XjXxXMXMXMXMXMXBXmXmXmXmXmXmXmXmXmXMXmXMXMXMXMXMXMXMXBXMXMXMXMXMXMXMXMXMXmXmXMXmXmXmXmXmXmXxXmXxXzXkXkX4X3X2X<X,X,X%XE.P.E.E.E.E.R.R.R.R.K.C.N.C.M.M.e.6.<.;.4.                                                                                                                      ",
"                                                            x V I W W Q :.y.u.-.` E W E ( 9.R.R.T.V.V.B.C.R.R.R.J.J.J.J.W.W.W.W.W.J.J.J.W.W.W.R.E.W.P.P.P.*X&X3X3X2X4X4XjXkXzXzXxXcXxXjXjXxXcXxXMX0Xj.d.w 3 : : : : 3 3 3 3 3 3 3 5 q C d.|.zXcXcXcXlX5X5X2X{.`.`.`.`.&X4XlXlXzXzXxXzXzXxXcXxXxXxXxXmXmXMXMXMXMXmXMXMXcXzXkX4X=XP.J.J.B.B.B.m.v.m.v.v.n.x.D.I.L.{.OX4X5XjXjXjXjXlXlXlXlXxXcXcXMXMXMXMXMXMXMXMXMXMXMXMXMXMXMXMXMXMXBXBXBXVXVXJXJXJXJXVXVXVXVXBXMXMXMXMXMXVXVXCXCXBXBXMXMXMXMXMXMXVXBXBXMXMXMXzXkX-X&X%XW.C.M.9.9.|                                                                                 G 9.6.8.n.b.L.*X=X-X5XzXxXmXmXzXjX=X*XD.H.c.                                                D ;.=.+.o.O.=.=.=.*.*.*.-.8.m.P.*X-XxXmXVXMXmXMXMXMXMXMXMXmXmXmXmXmXmXmXmXmXmXMXMXMXBXMXMXMXMXMXMXMXMXMXMXmXmXmXmXmXmXmXmXmXmXmXxXxXzXzXkXkX4X3X<X,X%X%XE.E.E.E.E.E.E.R.K.R.R.C.V.M.N.M.M.e.q.<.t.|                                                                                                                       ",
"                                                            j m I I W E *.y.y.7.*.E E E ( 6.R.R.V.V.V.B.C.R.R.R.K.K.P.W.J.J.W.W.E.R.W.E.W.E.E.E.E.E.P.P.'.&X=X2X2X2X4X4XkXkXkXkX4XkXkX4X-XjXcXSXMXMXMXMXMXnXeX|.l.d.d.d.d.d.j.l.#XhXCXmXmXMXMXxXcXkX=X=X{.`._.L.I.L.`.&X3X5XlXxXxXxXxXxXmXcXMXMXxXxXmXmXmXmXMXMXmXcXcXxXkX4X;X{.J.V.B.B.B.B.B.b.b.D.I.*X;X4XlXcXcXcXcXMXmXmXMXMXMXMXMXMXMXMXMXBXVXVXVXVXVXVXBXMXBXBXBXBXBXBXVXBXMXMXMXBXVXVXVXVXVXVXJXVXVXVXVXBXCXCXBXBXBXBXBXBXBXBXBXBXBXBXBXBXBXBXMXMXMXxXjX4X&X*XP.J.B.0.9.3.G                                                                               G c.0.5.n.b._.[.-X4XkXxXxXmXmXmXzXjXOX*XL.H.c.                                            $.<.X.@.@.o.o.O.>.>.*.%.;.9.v.J.'.=XjXmXVXVXVXBXmXmXMXMXMXMXMXMXMXmXmXmXmXmXmXMXMXMXMXCXCXMXMXMXBXMXMXMXMXmXmXmXmXMXMXmXmXmXmXmXxXxXxXxXzXkXkX5X2X2X<X,X%XE.E.E.E.!.!.E.R.K.K.R.C.C.V.M.M.M.0.w.w.;.4.A                                                                                                                       ",
"                                                            j m I K W E ` 7.y.7.-.` E E ( 5.R.R.V.B.V.B.K.R.E.K.P.P.E.E.W.W.W.W.P.P.P.W.W.E.E.E.E.P.P.P.%X&X2X=X2X3X4X4X5X5X5X5X4X2XOX[.oXOX-X4XzXMXMXxXxXMXMXxXMXAXAXAXMXAXAXAXMXAXSXAXMXxXjX4XOXOX=X&X`.I.I.P.L.`.'.{.=X4XkXcXcXcXcXmXmXmXmXmXxXxXmXmXmXmXMXMXcXzXzXjX4X=X{.`.P.B.B.B.B.J.L.P.*X;XkXbXbXZXZXMXMXMXVXVXVXVXBXBXVXVXVXBXBXBXCXCXBXBXBXBXBXBXBXBXBXBXBXBXVXVXVXBXMXMXMXBXBXVXVXVXVXVXVXVXJXJXVXVXBXBXBXBXBXBXVXVXVXVXVXVXVXVXVXVXBXMXMXMXxXkX4X=X*XP.J.C.M.0.9.3.G                                                                             Z c.c.8.8.n.L.[.-XjXkXzXxXxXmXmXmXxXzXOX&XL.I.c.H                                     m &.=.X.o.#.o.o.@.@.O.O.*.;.6.v.B.P.&X4XzXMXMXVXVXVXVXmXVXMXVXMXMXMXMXMXMXMXMXMXMXMXMXMXMXMXCXCXMXMXMXMXMXMXmXmXmXmXmXmXmXmXmXxXmXxXxXxXxXzXzXzXkXkX5X2X2X<X%XE.E.E.E.E.!.!.R.K.K.C.C.C.V.N.M.e.N.9.w.q.;.4.                                                                                                                        ",
"                                                              m M K Y E E -.y.y.7.*.E E / 5.R.E.R.V.B.V.R.E.P.P.E.P.P.P.P.P.W.W.P.P.P.%X%X%X'.P.P.P.P.'.&X3X2X2X3X2X3X3X4X3X=X=X&X&X&X{.{.OX4XkXkXxXxXcXxXxXxXzXvXvXxXxXxXlXlXjXcXjXjXjXjX-XOXOXOXOX{.[.`.'.`.'.*X*X{.&X=X4XkXcXcXxXcXxXxXxXxXxXxXmXmXmXmXmXMXMXcXzXjX4XOX[.`._.I.J.I.I.'.&X2X5XbXbXZXZXZXVXVXBXBXBXVXVXVXVXVXVXVXBXBXBXVXVXVXVXVXVXMXMXMXMXMXCXMXMXMXMXBXBXBXBXMXMXMXMXBXBXBXVXVXVXVXCXVXVXVXVXVXVXVXVXVXVXVXVXVXVXVXVXVXVXVXVXBXMXMXcXxX5X=X&XP.K.C.M.0.0.9.c.H                                                                             c.c.z.n.b.L.*X-XjXzXxXxXxXmXmXmXmXxXcX-X=X'.H.b.k.                                V X.=.+.X.+.@.#.@.@.@.O.>.-.:.9.B.L.*X3XjXzXMXVXBXBXBXBXBXMXBXBXMXMXMXMXMXMXMXMXMXMXMXMXMXmXmXMXMXMXMXMXMXMXMXMXmXmXmXmXmXmXmXmXmXxXxXzXzXzXzXzXzXkXjX5X4X2X<X,X%XE.E.E.E.E.E.E.K.K.K.C.C.V.V.M.N.e.N.0.w.;.6.4.                                                                                                                        ",
"                                                              x N b Y W E *.7.y.7.-...E E 5.R.E.R.J.V.J.E.E.P.P.P.P.P.P.'.'.E.E.P.P.%X%X%X%X'.'.P.P.%X%X<X3X3X3X3X3X3X3X3X2X&X&X'.&X<X<X&X{.=X-XlXjX-XjXkXjXjX4XjX4X-XOX=X4X4X5X-X4X-XOXOXOXOXOXOXOX{.`.`.&X&X&X&X&X&X&X=X4XkXxXxXxXxXxXxXxXxXxXxXxXmXmXmXmXcXcXcXjX-X{.[.`._._.`.{.{.2X5XlXbXZXMXMXVXVXVXVXVXVXVXVXVXBXVXVXVXVXCXCXCXCXBXBXVXBXVXMXMXMXMXMXMXMXMXMXMXMXBXBXBXBXBXBXBXBXBXBXBXBXBXBXBXBXVXVXVXVXVXVXVXVXVXBXBXBXBXBXBXBXBXBXVXBXMXMXMXxXkX4X&X%XP.K.V.m.0.0.0.c.                                                                            k.c.z.x.D.L.[.-XkXxXxXmXmXmXmXxXxXxXzXxX-X=X{.I.D.x.                          D 4.&.#.#.#.#.@.@.@.o.o.O.O.*.7.7.e.B.P.&X4XkXMXMXBXBXMXMXMXMXMXBXBXBXMXMXMXMXMXMXMXBXBXBXBXMXmXmXmXMXMXMXMXMXMXMXMXMXmXmXmXmXmXxXxXxXmXxXzXzXzXzXzXkXkXjXjX4X3X2X<X,X%XE.E.E.E.P.P.K.K.K.C.C.C.N.N.N.N.e.N.e.w.6.q.A                                                                                                                         ",
"                                                              j N K I W E ( :.0.0.:.*.$.E %.Y.E.E.W.J.J.E.P.P.P.P.P.P.P.'.'.'.%X'.'.%X*X*X*X%X%X'.%X%X&X&X2X3X3X4X3X3X3X2X2X&X%X&X%X%X'.&X&X3X5X-X4XlXkXjX4X4X4XOXOX=X2X3X=X=X{.OXOX{.[.OX3X3XOX=X3X2X2X2X<X<X<X<X<X2X=X2X4XkXxXxXxXxXxXxXxXxXxXxXxXxXMXxXxXxXkXjX-XoX[.`.`.'.{.-XjXxXMXZXMXMXVXVXVXVXVXVXMXmXmXVXVXBXBXCXVXBXVXVXMXMXMXMXMXBXCXCXCXCXMXMXMXMXVXMXMXBXBXBXBXVXVXVXVXVXVXVXBXBXBXBXBXMXMXMXMXMXBXBXVXBXBXBXBXBXBXMXMXMXMXMXMXMXMXMXmXxXkX4X=X{.'.K.V.M.e.m.m.0.c.                                                                          Z D.z.b.D.`.OX-XkXlXcXxXmXmXmXxXxXcXcXzXzXiX-X{._.H.c.                    B $.$.+.+.o.o.o.o.#.o.o.@.@.>.:.7.6.9.B.R.,X=X5XxXMXVXVXVXVXMXMXcXMXMXMXBXBXMXmXMXMXMXBXBXBXBXBXBXBXBXmXmXMXMXCXCXCXMXMXmXmXmXmXmXmXxXxXxXxXxXzXzXzXzXzXkXkXjXjX5X4X3X<X,X%XE.E.E.E.P.P.P.K.K.K.C.C.C.N.N.N.M.e.e.e.w.6.9.                                                                                                                          ",
"                                                                N b I Y E ` ` 7.y.7.*.*.E %.Y.E.E.W.J.W.P.P.P.P.P.P.P.P.'.'.'.'.'.%X%X*X%X*X*X*X*X%X&X<X&X=X=X4X2X2X=X2X&X&X&X%X*X%X<X<X&X{.=X=X4X4X4X4X4X5X4XOX=X=XOX{.{.{.{.{.{.{.{.=X=X=X3X5X4X3X2X3X2X2X2X2X2X2X3X4X4X5XjXjXxXxXxXxXxXcXcXcXxXxXxXxXxXxXkXjX@XoX].].[.{.2X5XMXVXSXVXVXVXVXVXVXVXVXVXBXMXMXMXMXMXBXVXBXBXBXMXMXMXMXMXMXCXMXBXBXBXBXBXMXCXCXMXBXBXBXBXVXVXVXVXVXVXVXVXVXVXBXBXBXMXMXMXMXMXMXMXBXVXBXBXBXBXMXMXMXMXMXMXMXMXMXMXmXxXxXjX2X&X'.P.C.M.m.e.m.m.v.c.                                                                          U.x.x.G.`.;XjXzXxXcXkXxXmXmXmXxXxXcXcXxXxXjX-XOX`.I.A.              D 4.&.$.O.o.o.o.o.#.@.@.@.@.@.@.+.*.6.0.M.J.%X<X3XjXzXMXMXVXBXVXVXCXxXxXxXmXMXBXBXMXMXmXmXMXBXBXBXBXBXBXBXBXBXmXMXMXCXCXCXMXMXmXmXmXxXxXxXzXzXzXzXzXzXzXzXzXkXkXkXjX5X4X3X2X<X,X'.E.E.E.E.P.P.P.K.K.K.C.C.C.N.N.N.M.M.e.7.w.6.3.                                                                                                                          ",
"                                                                m n K U T ` ` *.7.y.7.-.( 5.T.E.E.E.P.P.P.P.P.P.E.E.E.E.%X'.%X%XP.E.E.E.%X%X%X'.&X&X&X2X=X4X4X4X3X2X2X&X&X&X&X&X<X&X&X<X<X=X2X4X4X4X4X5X4X4X-X=XOXOX{.{.{.{.{.{.{.=X=X2X3X4X4X4X4X4X4X4X5X5X5X5X5X5X2X4X4X5XjXjXzXxXxXxXmXxXmXmXxXxXcXcXlXjXOXOXXXXX+X@XjXzXZXZXVXVXVXVXVXVXVXVXVXVXBXBXBXBXMXMXMXMXVXVXVXVXMXMXMXMXMXMXMXBXBXBXMXMXBXCXCXMXMXMXCXBXBXBXMXBXBXBXVXVXVXVXVXVXVXBXBXBXBXMXBXMXBXBXBXVXBXBXBXMXMXCXCXCXMXBXVXMXMXmXxXjX4X=X&X*XW.C.N.e.e.m.B.H.D.`.k.                                                                      k.D.A.`.*X-XjXzXxXxXmXmXmXmXmXmXxXxXxXcXxXzXkX-XOX[.L.b.A     B &.;...O.O.o.o.o.o.#.#.#.#.@.@.@.@.+.=.:.6.M.K.%X<X3X5XzXxXmXMXVXBXBXBXCXCXCXCXMXMXBXBXBXMXmXMXMXMXMXMXMXBXBXBXBXMXMXMXMXMXMXMXMXMXMXmXmXxXzXzXzXjXjXjXjXzXzXzXzXjXjXjX5X5X4X3X2X<X&X%X%XE.E.E.E.E.P.K.K.K.C.C.C.N.N.N.N.M.e.6.w.9.9.D                                                                                                                           ",
"                                                                x n b U E ` Q *.-.6.7.7.-.5.M.E.%X%XP.P.P.P.P.P.P.P.E.E.'.'.%X%XE.E.E.E.%X%X%X*X&X&X2X3X4X4X4X4X4X3X3X2X2X2X&X&X<X<X&X2X=X2X4X4X4X4X5X5X4X4X-X=X=XOXOX{.{.{.{.{.=X=X2X2X4X4X4X4X4X4X4X4X5X5X5X5X5X5X5X5X5X5XkXkXzXzXxXxXmXMXMXMXcXxXzXjX-XOXOXXX+XOXjXzXxXMXMXVXVXVXVXVXVXVXVXVXVXVXMXMXBXBXBXBXMXMXVXVXBXBXMXMXMXMXMXMXBXBXBXBXMXMXBXCXCXMXMXMXCXCXBXBXMXBXBXBXVXVXVXVXVXVXVXVXBXBXBXBXBXBXBXBXVXVXBXBXBXMXCXCXBXBXBXBXVXMXMXxXjX4X=X&X*XW.J.N.e.0.0.B.J.I._.oX@X0X0X|.l.                                                              S.D._.[.-XjXzXxXmXmXmXMXmXmXmXmXxXxXxXmXcXzXkX4XOX{.`.D.c.%.;.:.O.O.o.#.#.#.#.#.#.#.@.@.@.@.@.+.=.:.7.0.M.K.%X2X4XjXzXmXMXMXVXBXVXBXBXMXBXBXmXmXMXMXMXMXMXmXMXMXMXMXMXMXMXMXMXMXMXMXMXMXBXMXMXMXMXmXmXxXzXzXzXjXjXjXjXjXjXzXjXjXjXjX5X4X4X2X2X<X&X%X%XP.E.E.E.E.E.K.K.K.C.C.C.N.N.N.M.M.e.e.q.q.9.c.                                                                                                                            ",
"                                                                h N N U W Q Q *.*.%.7.0.0.6.M.R.E.%X%XE.P.P.P.P.P.P.P.E.P.P.'.%X'.P.'.'.%X%X'.'.&X&X2X4X4X5X5X5X4X4X5X4X3X3X2X=X3X3X=X=X=X-X4X4XjXjX5X4X4X4X4X=X2X2X2X=XOX2X<X2X2X4X4X4X4X5X5X5XjXjXjX5X5X5XkXkXkXkXkXkXkXkXkXzXcXcXxXxXxXmXmXxXxXzXjX@XoXoX+X+X4XjXxXMXMXVXMXVXVXVXVXVXVXVXVXBXVXVXMXMXVXBXBXBXMXMXBXBXBXBXBXMXBXBXMXMXMXBXMXMXMXMXCXCXCXCXMXMXCXCXMXBXMXMXBXBXVXVXVXVXVXBXBXBXBXBXBXBXBXVXBXBXVXVXBXBXCXBXCXCXBXBXMXMXMXmXxXzX4X<X{.'.P.J.B.M.0.0.M.J.L._.[.-X+X+X0XeXeXeXwXrXhXl.l.                                                k.S.S.=X6XlXcXcXmXmXmXmXmXmXmXmXmXxXmXmXmXcXxXzX4X=X{.'.H.v.9.q.;.O.+.@.@.#.o.#.#.@.@.@.@.+.+.>.=.:.7.M.C.E.&X2X5XkXzXMXMXMXBXBXBXBXBXMXMXmXmXMXMXMXMXmXmXMXMXMXMXMXMXmXmXmXmXmXMXMXMXMXmXMXMXMXMXMXmXmXxXxXxXzXjXjXjXjXjXjXjXjXjXjX5X4X2X2X<X<X,X%X%XE.P.P.P.E.E.K.K.R.R.C.V.V.N.N.M.M.e.e.e.w.q.6.3.                                                                                                                            ",
"                                                                  m N b I Q Q *.( ( -.7.7.6.n.Y.E.%XE.E.P.P.P.P.P.E.E.P.P.P.%X%X'.%X%X%X%X'.'.'.<X2X2X4X5X5X5XkXjXjX5X4X4X4X=X=X4X4X4X-X-X4X4XjXkXjX5X5X4X4X4X4X4X2X2X2X2X2X2X2X4X4X4X4X5X5X5XjXjXjXjXjXjXkXkXkXkXkXkXkXkXkXxXzXcXxXxXxXxXxXxXzXzXiX@X+XoX@XjXjXcXcXMXMXMXMXMXVXVXVXMXMXMXVXVXBXVXVXMXMXMXBXBXBXBXBXBXBXBXBXBXBXMXBXBXBXMXMXMXMXMXMXCXCXCXCXMXMXCXCXMXMXVXVXBXBXBXBXVXBXBXBXBXBXBXBXVXVXVXVXBXBXVXVXBXBXBXBXCXCXBXCXMXmXmXzXkX5X&X%X'.P.J.B.M.m.m.v.B.H._.[.oX@X@X@X9X0XwXhXwXqXgXgXgXCXgXl.                                          ^.F.`.6XlXcXMXxXxXxXxXmXmXmXmXmXmXmXmXmXmXcXzXzX4XOX{.'.L.v.9.-.*.=.@.o.@.#.#.#.@.@.+.@.+.>.=.>.7.e.V.E.%X3X4XkXzXxXmXMXMXMXBXMXMXMXMXMXMXMXMXMXMXMXMXMXMXMXMXMXMXMXMXMXmXmXmXMXMXMXMXmXmXmXmXMXMXmXmXzXzXzXzXjXjXjXjXjXjXjXjX5X5X5X4X2X2X<X<X,X%X%XE.P.P.P.P.E.K.K.K.R.R.C.V.V.N.N.M.M.e.e.e.w.6.q.4.                                                                                                                            ",
"                                                                  x N n K W Q Q ( ( *.-.-.5.0.m.E.E.E.E.W.E.P.P.E.E.E.E.E.E.%X%X%X%X%X'.'.'.'.&X2X2X6X5X5X5X5X5XjXjXjX4X4X4X4X4X4X4X4X4X4X4X4XjXkXkXjXjX4X4X4X4X4X4X4X4X4X4X4X4X4X4X4X4X4XjXjXjXjXjXjXkXkXkXkXkXkXzXzXzXzXzXxXzXzXzXxXcXcXxXzXjXiX@X@X@XiXzXxXMXMXMXMXMXMXMXMXMXMXVXMXMXMXMXBXBXVXVXBXBXMXBXBXBXVXVXBXBXBXBXVXVXMXMXBXBXBXBXMXMXMXMXMXCXCXBXBXMXCXMXMXMXBXBXBXBXBXBXBXBXBXBXBXBXBXBXBXBXBXBXBXBXBXBXBXBXMXMXMXMXMXMXMXmXxXkX4X2X'.'.P.J.V.M.M.m.v.b.D.I._.[.oX+X@X@X0X0X9X9XwXnXwXCXnXhXVXCXd.w d.gXLXJXFXgXgXuXuX|.l.l.l.d.d.      ^.$X].4XlXxXxXmXmXmXxXxXxXxXmXxXxXmXmXmXmXmXcXxXxX4XOX{.[.L.B.9.6.:.<.+.o.@.@.@.@.@.@.+.>.<.:.7.e.N.W.%X=X5XkXzXmXMXMXMXMXMXBXBXBXMXMXMXMXMXMXMXMXMXMXMXMXMXmXMXMXMXMXMXmXmXMXMXMXMXmXmXmXmXmXmXmXmXmXmXmXxXzXjXjXjXjXjXjX5X4X4X4X4X4X2X2X<X<X,X%XP.E.E.K.K.K.K.K.K.K.K.K.K.C.C.V.N.N.M.e.e.w.w.q.t.q.D                                                                                                                             ",
"                                                                  j N n L P Q E ( ` *.*.-.5.7.9.W.E.E.E.P.E.E.P.P.E.E.E.E.E.%X%X%X%X*X'.'.{.&X2X2X4X5X5X5XjXjXjXkXkXjXjXjXkXkXkX4X4X4X4X4X4X5X5XkXkXkXjXjXjX5X5X4X4X4X4X4X5X5X5X4X4X4X4X4XjXjXjXjXjXkXkXkXkXkXkXzXxXzXxXxXzXzXzXcXcXxXxXjXjX@X@X@X@XiXzXmXMXMXMXMXMXMXVXMXMXMXMXVXVXMXMXMXMXBXBXVXVXMXBXBXBXMXMXVXVXBXBXBXBXBXVXMXMXMXMXBXBXMXMXMXMXCXCXCXCXMXMXMXMXMXMXMXBXBXBXBXBXBXBXBXVXBXBXBXBXBXBXBXCXBXBXBXBXBXBXMXMXMXMXMXMXmXxXkX5X2X{.'.P.J.C.N.M.e.v.v.b.D./.[.oXoX+X#X@XiXpXpXpXaXsXnXnXBXnXnXBXd.C rXPXPXKXHXNXKXGXKXKXKXKXHXHXHXGXKXVX#X$XoX4XcXZXmXMXMXmXxXxXxXxXmXxXmXmXmXmXmXmXMXcXcXjX;X{.{.L.v.9.7.;.=.=.@.@.@.@.>.>.>.>.:.7.e.M.Y.E.&X3XkXzXmXMXBXVXVXVXVXMXVXBXBXBXMXMXMXMXMXMXMXMXMXMXBXBXmXMXMXMXMXMXmXmXMXMXmXmXmXmXmXmXmXmXmXmXxXxXzXzXjXjXjXjXjXjXjX5X4X4X2X2X2X<X<X,X,X!.P.P.R.R.K.K.K.K.K.K.K.K.K.C.V.V.N.M.M.e.e.e.w.;.q.;.t.                                                                                                                              ",
"                                                                    m c v K W E ` *.*.*.-.7.5.8.V.W.E.W.J.W.P.P.P.P.P.P.P.P.E.E.P.%X'.'.'.&X<X2X4X5X5XjXjXjXjXjXjXjXjXjX5X5X5X5X4X5X5X5X4X4X4X5XkXkXkXkXjXjXjXjXjX5XjX4X4X5X5XjXjXjXjXjXjXjXjXjXjXjXkXkXkXkXkXkXzXzXzXcXxXzXzXzXxXxXjXjX@XOXOX@XjXzXxXMXMXVXMXMXMXMXVXVXVXVXMXMXVXVXBXBXMXBXBXBXVXVXMXMXBXBXVXVXMXVXMXMXBXBXVXVXMXMXMXMXBXBXMXMXCXCXCXCXCXCXCXCXMXMXMXMXMXMXBXBXMXMXMXMXMXMXVXVXBXBXBXBXCXCXCXBXCXCXBXBXMXMXMXMXMXmXxXkX4X=X{.'.P.J.J.V.M.0.0.v.b.D.L._.[.oXoXoXiXiX0XqXaXpXpXpXnXwXsXVXBXmX|.j.HXGXNXGXJXPXKXGXHXHXHXHXKXKXKXHXKXJX.XXXjXkXxXmXMXMXMXmXmXcXmXmXmXmXxXxXxXxXmXmXcXcXcXkX;X{.{.L.B.0.0.7.>.,.>.O.>.<.:.:.6.7.e.V.K.E.&X3X5XlXmXMXBXBXBXJXVXVXVXMXMXMXBXMXMXMXMXMXmXmXMXMXMXMXMXMXmXmXmXmXMXMXMXmXmXmXmXmXmXmXmXmXmXmXmXmXxXxXzXzXjXjXjXjXjX4X4X5X4X2X2X2X<X<X<X,X%XP.E.K.K.K.K.K.K.K.K.K.K.K.C.C.V.V.N.M.e.e.e.q.w.6.<.;.4.                                                                                                                              ",
"                                                                    j c v L W ` *.E ` *.-.-.5.5.m.J.R.W.J.W.P.J.P.P.P.P.P.P.P.P.P.P.'.'.'.&X2X5X4X5XjXjXjXjXjXjXjXjXjXjX5X5X4X4X5X5X5X5X5X5X4X5XkXkXkXkXkXkXkXjXjXjXjXjX4XjXjXjXjXjXjXjXjXjXkXkXjXkXkXkXkXkXkXkXxXzXcXcXcXcXkXkXjXjX@X@X+X@XjXjXxXMXMXMXMXMXVXVXVXVXVXVXBXBXMXVXVXVXVXBXBXBXBXBXVXVXMXVXBXVXVXVXMXMXMXMXBXBXBXMXMXMXMXMXBXBXMXMXCXCXCXCXCXCXCXCXCXMXMXMXMXCXCXBXMXMXMXMXMXMXMXVXBXBXBXBXCXCXCXBXBXCXCXMXMXMXMXmXxXzXjX4X&X'.P.L.H.H.C.M.0.9.0.v.b.I.`.[.[.oXoX@X@X0XiXpXpXsXsXsXsXBXnXnXmXsX|.eXHXGXJXKXGXKXKXKXHXHXKXKXKXKXKXHXGXVX0X XjXzXMXmXBXmXmXmXcXMXMXMXmXmXxXxXxXxXmXmXxXxXcXjX;X{.{.L.V.5.0.w.:.:.,.:.:.7.0.M.M.C.R.%X<X2X4XkXxXmXMXVXBXVXVXVXVXVXBXmXmXmXmXmXmXmXmXmXmXmXmXmXmXmXMXMXmXmXmXmXMXMXMXMXmXmXmXmXmXmXmXmXmXmXmXxXxXzXzXjXjXjXjXjXjX4X4X4X4X2X2X2X<X<X,X'.P.P.K.K.K.K.K.K.K.K.K.K.K.C.C.C.V.N.M.e.e.q.q.6.w.7.=.;.|                                                                                                                               ",
"                                                                      V v v Y ` ` Q *.*.` -.-.5.v.R.R.J.R.R.J.J.L.P.P.P.P.P.P.P.P.P.P.'.&X3X6X3X5X5XjXjXzXjXjXkXkXkXkX5XkXkXkX5X5X5X4X4X4X5X4X4XkXkXkXjXjXjXjXjXjXjXjXjXjXjXjXjX4X4X4XjXkXkXkXkXkXkXjXkXkXkXcXcXlXlXlXkXjXjX-X-X+X@X@X@XiXjXzXxXMXMXMXMXMXVXVXVXVXVXBXBXBXBXMXMXVXVXVXVXVXBXBXBXBXBXBXBXVXBXBXBXMXBXBXBXVXVXMXMXBXBXBXMXMXMXBXBXBXBXMXMXMXMXMXMXMXMXMXMXMXMXBXBXMXMXMXMXMXMXMXMXMXMXMXMXBXBXBXBXBXMXCXCXmXmXxXzXzXjX-X=X'.P.L.J.B.B.M.M.0.9.0.v.D.L.[.oXoX+X+X@X0X0XpXpXpXsXsXsXsXsXnXBXmXsX|.pXGXGXHXHXHXHXKXKXKXKXKXHXHXHXHXHXJXBX9X+XzXxXmXMXBXBXMXmXcXcXmXmXmXmXxXxXxXxXmXmXMXxXxXjX=X=X{.L.V.M.0.e.w.w.w.w.7.M.V.W.E.%X&X3XjXkXxXMXMXVXVXVXVXVXVXBXBXBXMXMXmXmXMXMXmXmXmXmXmXmXmXmXmXmXmXmXmXmXmXmXmXmXmXmXmXmXmXmXmXmXmXmXmXzXzXzXzXzXzXjXjXjXjXjX4X4X4X4X4X2X2X<X<X<X%X'.E.P.K.K.K.K.K.K.K.K.K.K.K.C.V.V.N.N.M.e.e.w.q.q.w.;.,.;.                                                                                                                                ",
"                                                                      m c v W E ` *.Q Q Q ` -.6.9.V.Y.Y.R.J.J.P.L.P.P.P.P.P.P.E.E.P.P.P.%X2X6X4X5X5XjXjXkXkXkXkXkXkXkXkXkXkXkXjXkXjXjXjXjXjXkXkXkXkXkXjXjXjXjXjXjXjXjXjXjXjXjXjXjX5XjXkXkXkXkXkXkXkXkXkXkXkXjXjX4X4X4X4X-X@XOX@X@X@XjXjXzXxXmXMXMXMXMXMXVXVXVXVXVXVXBXBXBXBXMXMXVXVXVXVXBXBXBXBXBXBXBXBXBXBXBXBXMXMXBXBXBXVXMXMXBXBXBXMXMXMXMXBXMXMXMXMXMXBXMXMXMXMXMXMXMXMXBXBXMXMXMXMXMXMXMXMXMXMXMXMXBXBXBXMXMXMXCXmXxXxXkXkXjX4X=X*XP.J.J.V.B.M.0.9.6.9.0.n.L.`.[.oX+X@X@X0X0XwXpXpXsXsXsXsXsXsXnXnXmXwX|.nXBXGXJXJXHXHXHXHXKXHXHXHXHXHXHXHXHXBX0X+XxXxXmXBXBXBXMXmXxXcXmXmXmXmXxXxXxXxXmXmXcXxXxXjX=X=X{.L.V.m.M.e.e.e.e.M.V.R.W.*X=X;X5XkXmXmXVXVXVXVXVXVXBXBXBXBXBXMXMXMXmXmXMXMXmXmXmXmXmXmXmXmXmXmXmXmXmXmXmXmXmXmXmXmXmXmXmXmXmXmXmXmXzXzXzXzXzXjXjXjXjXjXjX4X4X4X4X4X4X2X2X<X<X<X%X'.P.P.K.K.K.K.K.K.K.K.K.C.C.C.V.N.N.N.e.e.w.q.q.q.;.;.<.4.                                                                                                                                ",
"                                                                      x l n Y W Q *.K K P E *.7.8.m.V.R.J.J.J.P.P.P.P.P.P.P.E.E.E.J.P.P.'.<X3X5X4X5X5XkXkXlXlXlXkXlXlXlXlXkXkXkXzXzXzXkXkXkXkXkXkXkXkXkXjXjXjXjXjX4X4X4X4X4X4X4X5X5X5X5XkXkXkXkX5X5X5XkXjX4X-X-XOXOXOXOXOXOXOX@XiXjXzXcXMXMXMXMXMXMXMXMXVXVXVXVXVXVXBXBXBXBXVXVXVXVXVXVXMXMXVXBXMXMXMXMXMXMXBXBXMXMXBXBXBXBXBXMXBXBXMXMXMXMXBXBXMXMXMXMXMXMXMXMXMXMXMXMXMXMXMXMXMXMXMXMXMXMXMXMXMXMXMXMXMXMXMXMXMXmXxXzXjXkX5X4X=X&X`.L.J.B.B.M.M.9.6.6.6.9.v.b.L.`.[.oX+X0XqX0XwXwXwXpXsXsXnXnXnXnXsXnXmXeX#XmXBXBXBXHXHXHXHXHXHXHXHXHXHXHXJXJXBXBX9X@XxXxXmXmXBXmXmXmXxXxXmXmXmXxXxXxXxXxXmXmXcXxXxXjX-X=X*XL.V.M.M.M.M.N.V.R.E.%X=X4XkXlXxXMXVXJXJXVXVXBXBXVXMXMXBXMXMXmXmXmXmXmXMXmXmXmXmXmXmXmXmXmXmXmXmXmXmXmXmXmXmXmXmXmXmXmXmXmXmXzXmXzXzXzXzXzXzXjXkXkXjXjXjX4X4X4X4X4X4X2X2X2X<X%X%X'.E.P.K.K.R.R.R.J.K.C.C.C.C.V.V.N.M.M.e.e.q.q.;.;.;.q.;.                                                                                                                                  ",
"                                                                        N n K W Q *.v L K I E 7.9.9.M.Y.C.J.W.P.P.P.P.P.P.P.E.E.W.J.P.P.P.*X<X2X2X4X4X5X4X5X5X5X6XkXlXlXlXlXkXkXkXzXzXzXzXkXzXkXkXkXkXkXjXjXjXjX4X4X4X4X4X4X4X4X4X4X4X5X5X4X4X4X2X-X=X=XOX@X@X@XOXOXOXOXOX-X4XjXzXcXcXMXMXMXMXMXMXMXMXMXVXVXVXVXVXVXBXBXBXBXVXVXVXVXVXMXMXMXVXVXMXMXMXMXMXMXVXVXBXBXBXBXBXBXBXMXMXBXMXMXMXMXBXBXMXMXMXMXMXMXMXMXMXMXMXMXMXMXMXMXMXMXMXMXMXMXMXMXMXMXMXMXMXMXMXMXMXxXxXzXjX4X3X&X*X`.L.L.J.B.M.M.9.6.6.6.9.v.B.L.L.`.[.oX+X0XqXaX0X0XpXpXpXsXsXnXsXnXnXnXnX|.9XmXBXBXBXBXHXHXHXHXHXGXHXGXHXGXGXHXBXBX0X9XzXxXMXmXmXmXmXxXxXxXmXmXmXxXxXxXxXxXmXmXcXxXxXjX-X=X*XL.b.B.V.V.V.R.E.%X&X=X5XjXxXmXMXVXVXJXJXVXBXBXMXMXMXMXMXmXmXmXmXmXmXmXmXmXmXmXmXmXmXmXmXmXmXmXmXmXmXmXmXmXmXmXmXmXmXmXmXmXzXzXzXzXzXzXzXzXjXjXjXjXjXjX4X4X4X4X4X4X4X2X2X2X&X%X%X'.P.P.K.K.R.R.R.J.C.C.C.C.C.V.N.N.M.e.e.w.q.;.;.;.;.q.4.                                                                                                                                  ",
"                                                                        N N b P Q *.L K W K W 7.0.8.m.Y.R.K.R.J.P.P.P.P.P.P.E.E.J.J.P.P.L.P.'.&X<X<X<X&X&X*X%X*X&X=X3X4X5XkXkXkXkXkXzXkXzXkXzXkXkXkXkXjXjXjX4X4X4X4X4X5X5X5X5X5X4X4X3X3X2X=XOXOX{.OXOXOXOXOX@X-XOX=X=X4X4XjXkXcXcXcXMXmXMXMXMXMXMXMXMXMXMXMXMXMXVXMXBXBXBXBXVXVXVXMXMXMXMXMXMXVXVXVXMXMXMXVXVXVXBXBXBXMXMXMXBXBXMXMXMXMXMXMXMXBXMXMXMXMXMXMXmXmXmXmXmXMXMXmXMXMXMXMXMXMXMXMXMXMXMXMXMXMXMXMXMXMXxXxXjXjX4X=X&X*XP.L.L.J.B.B.m.m.0.9.9.8.v.b.D.H.L.`.[.oXoX+X+X0X0X0XpXpXpXzXnXnXnXnXnXmXzX|.wXmXCXCXCXCXCXCXCXCXCXNXCXNXHXGXNXNXVXnX9X0XjXzXMXmXMXMXmXxXxXmXMXmXmXxXxXxXxXxXmXmXcXxXxXjX=X{.[.L.J.B.B.J.W.E.%X&X4X5XjXxXmXMXVXVXVXVXVXBXBXmXmXMXMXmXmXmXmXmXmXmXmXmXmXmXmXmXmXmXmXmXmXmXmXmXmXmXmXmXmXmXmXmXmXmXmXxXxXxXzXzXzXzXzXzXzXjXjXjXjXjXjXjX4X4X4X4X4X4X4X2X2X2X&X%X%XE.E.P.K.K.R.R.K.K.C.C.C.C.V.V.M.N.M.e.e.w.q.;.;.;.;.q.G                                                                                                                                   ",
"                                                                        x N n P W ` P K W L Y -.0.9.0.V.Y.R.E.P.P.P.P.P.P.P.E.W.L.L.W.E.L.L.'.'.'.%X%X%XP.H.J.L.P.`.*X&X3X3X5XkXkXkXlXlXlXkXlXlXlXlXlXkXkXjXjX5X4X4X4X5X5X4X4X4X2X2X2X{.{.`.`.`.[.[.OX=X-X-X-X-X4X4XjXkXkXkXcXcXxXMXMXMXMXMXMXMXVXVXMXMXMXMXVXMXMXMXMXMXBXBXVXVXMXMXMXMXMXMXVXVXVXVXMXMXVXVXBXBXBXBXBXBXMXMXMXBXMXMXMXMXMXMXBXBXMXMXMXMXMXMXmXmXmXMXmXMXMXmXmXmXMXMXMXMXMXMXMXMXMXMXMXMXMXmXmXmXzXjXjX4X2X&X'.P.L.J.J.V.V.M.m.0.9.v.n.b.b.D.A.D.D.F./._.[.oXoX+X@XiXiXpXpXzXzXnXpXnXnXnX0X.XpXmXBXBXNXCXNXCXNXNXCXCXNXNXGXNXNXNXBXpX#X@XjXzXmXmXMXMXcXcXxXmXCXCXmXxXxXxXxXxXmXmXxXxXxXkX=X{.[.L.H.J.L.J.W.%X=X4X5XkXxXmXmXMXVXVXMXBXBXBXmXmXmXBXmXmXmXmXmXmXmXmXmXmXmXmXmXmXmXmXmXmXmXmXmXmXmXmXmXmXmXmXmXmXmXxXxXxXxXzXzXzXzXzXzXzXjXjXjXjXjXjXjX4X4X4X4X4X4X4X4X2X2X2X&X%X%XP.E.K.K.K.K.K.K.C.C.C.C.V.V.M.M.M.e.e.e.q.;.;.;.;.;.r.                                                                                                                                    ",
"                                                                          z n K W ` Q L W K I R 0.0.0.M.Y.R.E.E.P.P.P.P.E.E.E.P.J.J.E.E.L.P.P.L.P.P.P.J.n.z.9.v.b.B.P.P.%X&X<X2X3X4X5X5X5X4X5XkXkXkXkXjXjXjX5X5X4X4X4X4X4X4X4X2X2X&X`.`._._.`.{.&X=X3X4X5X5X4X4XjXkXkXkXzXzXxXcXxXmXMXMXMXMXVXVXVXVXMXMXMXMXMXMXMXMXMXMXBXBXVXVXBXBXMXBXBXMXBXBXBXBXMXMXBXBXBXBXBXBXMXMXMXMXBXBXBXMXMXMXMXMXMXMXMXMXMXMXMXmXmXmXmXmXMXMXMXMXmXmXMXMXMXMXmXmXmXmXmXmXmXMXmXmXzXzXjXjX-X=X{.'.P.J.J.B.V.V.m.m.9.9.n.b.G.I.G.G.F.G.A.A.A.D.F.F._.[.oX+X@X0XiXiXpXpXpXpXpXzX.X.XiXzXnXNXNXNXNXNXNXNXNXNXNXNXNXNXNXsXnXqX#X0XjXjXMXmXmXMXxXcXxXmXCXCXmXxXxXxXxXxXmXmXxXzXxXkX-XOX[.L.H.H.L.P.*X&X3X5XkXzXmXMXmXmXmXMXmXmXMXMXMXmXBXBXBXBXBXBXmXmXmXmXmXmXmXmXmXmXmXmXmXmXmXmXmXmXmXmXmXmXmXmXmXmXmXmXxXzXzXzXzXzXzXzXzXzXjXjXjXjXjXjXjX4X4X4X4X4X4X4X4X2X=X&X&X%X%XP.E.K.R.K.K.K.C.C.C.C.V.V.M.M.M.M.e.e.q.q.;.;.;.=.=.4.                                                                                                                                    ",
"                                                                          x n n W ` *.L W P Y M 7.0.0.m.Y.R.E.E.E.P.P.P.E.E.P.J.J.J.E.P.L.P.P.H.P.R.C.v.1._ ) %.9.v.B.B.H.L.L.'.'.{.&X&X{.{.OX=XOXOXOX-X-X-X4X4X4X4X4X4X3X2X2X&X'.`.I.F.F.`.{.2X3X3X4X4X5X5XjXjXjXjXkXzXzXzXxXcXmXmXmXmXmXmXMXVXVXVXMXMXMXMXMXMXMXMXMXMXBXBXVXVXBXBXBXBXBXBXBXBXBXBXMXMXBXBXBXBXMXMXMXMXMXMXBXBXBXMXMXMXMXMXMXMXMXmXmXmXmXmXmXmXmXmXmXMXMXMXmXMXMXMXmXmXmXmXmXmXmXmXmXmXmXzXzXjX4X-X=X{.'.P.L.J.V.V.V.m.n.9.9.8.D.L.`.:X:X[.)./.S.A.x.x.x.A.S.F.(.(.XXoXoXoX+X@XiX0XiX-X^.oXiXpXpXsXsXsXsXsXsXsXsXsXsXsXsXsXsXsXwX9X.X@XjXzXMXmXmXmXxXcXxXmXCXCXmXxXxXxXxXxXmXmXxXzXxXkX-XOX[.L.D.H.L.`.&X=X5XkXkXxXmXmXmXmXmXmXmXmXMXMXmXmXBXBXBXBXBXBXBXmXmXmXmXmXmXmXmXmXmXmXmXmXmXmXmXmXmXmXmXmXmXmXmXmXmXxXzXzXzXzXzXzXzXjXzXjXjXjXjXjXjXjX4X4X4X4X4X4X4X4X4X2X=X&X&X%X%XE.E.K.R.K.K.K.C.C.C.V.V.V.V.M.M.M.e.w.q.q.;.;.=.;.t.D                                                                                                                                     ",
"                                                                          j N b I Q *.I W W K K ` T.0.0.T.C.J.E.P.E.E.P.E.E.E.J.B.W.W.L.P.P.H.W.R.Y.0.%.( ( ) ( %.%.1.8.b.D.H.L.P.L.L.L.I.`.[.[.XXOX4XjXjXjXkXjXjX5X4X3X1X*XP.H.D.D.I.`.{.=X3X4X5X5X5X5X4X4XjXjXjXjXjXkXzXzXzXzXxXxXmXmXmXMXMXMXMXMXMXMXMXMXMXMXMXMXMXVXBXBXBXBXBXBXMXVXVXVXBXBXBXBXMXBXBXBXMXMXMXMXMXMXMXMXMXMXmXmXmXmXmXmXMXMXCXCXmXCXmXmXmXmXmXmXmXCXCXCXmXmXmXmXmXmXmXMXmXmXmXmXmXxXzXjXjX4X=X&X*X`.L.H.D.b.B.M.m.m.9.9.9.b.`.(.[.:X:X:X:X[.[._./.S.A.A.A.A.S.S.F.F.F._.[.XX.X+X[./.F./.;XaXiX0X0X0X0X0XwXwXpXpXpXpXpXpXsXpXiX X#X@XjXxXxXmXMXMXMXmXxXxXxXxXmXmXmXxXxXxXmXmXxXzXzXkX-XOX[.L.H.L.P.*X=X-XjXjXzXxXmXmXmXmXmXmXmXmXmXmXmXmXmXmXBXBXBXBXBXBXmXmXMXMXmXmXmXmXmXmXmXmXmXmXmXmXmXmXmXmXmXmXmXmXxXxXxXxXzXzXzXkXkXkXjXjXjXjXjXjXjX4X4X4X4X4X4X4X4X4X4X2X=X&X&X%X%XE.E.R.R.R.J.J.C.C.C.V.N.N.V.V.M.M.w.w.,.w.6.;.;.t.3.                                                                                                                                      ",
"                                                                            N n I Q -.W W W K K T 0.y.9.M.Y.W.W.P.E.P.P.E.E.P.J.B.R.J.L.L.L.J.W.Y.T.5.( ( ( ` %.%.%.5.v.b.H.L.L.J.P.P.P.*X&X=X4X5XjXjXjXjXkXlXkX6X5X=X`.L.D.b.b.D.L.`.*X&X3X4X4X4X4X5X4X4XjXjXjXjXjXjXkXzXzXzXzXxXxXmXmXmXmXMXMXMXMXMXMXMXMXBXBXBXMXMXVXBXBXBXBXBXBXMXMXVXVXBXBXBXMXMXMXBXMXMXMXMXMXMXMXMXMXMXMXMXMXMXmXmXmXMXMXCXmXmXCXmXmXmXmXmXmXmXCXmXCXmXmXmXmXmXmXmXMXmXmXMXmXxXjXjX4X4X=X&X*X'.P.L.J.B.V.M.m.n.0.v.v.b.H.[.[.oXoXoXoXoXoXoXoX:X[.[./././.S.S.S.A.x.A.S.^.).(.G.x.x.D.(.oXoX+X+X+X0X0XiXpX0X0XpXpXpXpXpXpX-X(.XX-XjXxXxXMXMXMXmXmXmXxXxXxXmXmXmXxXxXxXxXxXxXzXzXkX-XOX[.I.H.L.`.*X=X-XjXzXxXxXmXmXmXmXmXmXBXmXmXmXmXmXmXmXBXBXBXBXBXBXmXmXMXmXmXmXmXmXmXmXmXmXmXmXmXmXmXmXmXmXmXmXmXmXxXxXxXzXzXzXkXkXkXkXjXjXjXjXjXjX4X4X4X4XjX4X4X4X4X4X2X=X2X&X&X'.E.E.E.R.R.R.J.J.C.C.C.V.N.N.N.V.M.M.q.w.:.*.;.;.$.t.c.                                                                                                                                      ",
"                                                                            x N I Q >.E P W P K I 7.T.9.9.Y.J.J.P.P.E.E.E.E.J.J.V.J.J.J.J.J.J.Y.T.0.) ( ( ` 5.5.6.9.v.J.P.%X%X*X%X%X%X&X<X2X4XkX4X5X5X6X6X6X3X3X&X%XL.D.D.D.D.D.P.'.&X&X3X4X4X4X4X4X4X4X4XjXjXjXjXjXkXkXkXzXzXzXxXxXmXmXmXmXMXMXMXMXMXMXMXMXMXMXBXBXVXVXBXBXBXBXBXVXVXMXMXBXBXBXMXMXMXMXMXMXMXMXmXmXmXmXmXmXMXMXMXMXMXMXmXMXMXMXmXmXmXmXmXmXmXmXMXmXmXmXmXmXmXmXzXzXmXmXmXmXmXmXmXxXjXjX4X=X=X{.'.`.P.H.J.B.m.m.m.9.9.v.n.b.I.`.[.[.oXoXoXoXoXoX+X;X-X-X-X-X;XoXoX(.(./.^.S.S.S.A.D.z.[ f.x.A./.(. X#X#X.X.X+X+X0X0X0X0XqXqXqX0XXX^.].-XjXzXzXMXMXMXMXmXmXxXxXxXmXmXxXxXxXxXxXxXxXzXzXkX-XOX[._.H.H.P.*X;X-XjXzXxXxXmXmXmXmXmXmXBXBXBXBXBXBXmXmXmXBXmXmXmXmXmXmXmXmXmXmXmXmXmXmXmXmXmXmXmXmXmXmXmXmXmXmXmXmXxXxXzXzXzXkXkXjXjXjXjXjXjXjXjXjX4X4X4XjX4X4X4X4X4X4X=X=X&X&X%X'.E.P.P.K.J.J.C.C.C.C.C.V.N.N.M.M.M.e.6.,.<.$.;.q.$.q.                                                                                                                                        ",
"                                                                              N K Y ` >.Y W W I M ( T.9.8.V.B.J.J.P.P.P.E.K.J.B.V.V.J.B.b.B.V.T.0.%.( ( ` 5.8.0.B.C.P.E.%X&X=X2X2X2X2X2X3X3X5X5X3X3X3X1X&X%XL.D.b.b.b.b.D.L.L.`.`.*X&X2X3X4X4X4X4X4X4X4X4X4XjXjXjXjXkXkXkXzXzXzXxXxXmXmXmXmXMXmXMXMXMXMXMXMXMXMXBXBXVXMXMXBXBXBXBXBXMXMXMXBXBXBXMXMXMXMXMXMXMXMXmXmXmXmXmXmXmXMXMXMXMXMXMXMXMXMXmXmXmXmXmXmXmXmXmXmXmXmXmXmXmXmXmXmXmXmXmXmXzXzXjXjX4X4X=X&X{.'.P.J.J.B.v.v.v.0.9.9.8.n.D.I.`.[.[.[.[.oXoXoX+X+X+X@XiXiXiXpXpXzXzXiXiXiXiX+XoX_.A.z.G f.f.g.g.A.S.^.^.^.^.(.(.XX(.(.XXXX#X#XXXXX^.S.].-XjXzXzXmXmXMXMXMXmXmXmXmXmXmXxXxXzXzXzXxXxXxXzXkX-XOX[._.H.H.P.*X=X-XjXzXxXxXmXmXmXmXmXmXBXBXBXBXBXBXBXBXmXmXmXmXmXmXmXmXmXmXmXmXmXmXmXmXmXmXmXmXmXmXmXmXmXmXmXmXmXzXxXxXzXzXkXjXjXjXjXjXjXjXjXjXjX4X4X4XjX4X4X4X4X4X4X4X=X2X&X&X'.'.P.P.P.K.J.C.C.C.C.C.V.V.N.N.M.M.m.9.6.;.=.=.=.&.&.3.                                                                                                                                        ",
"                                                                              x N I ` u.E W W Y M R 7.0.9.m.V.J.J.J.J.K.R.J.J.B.V.V.V.V.v.B.V.M.5.) ( ) 5.0.M.V.R.P.%X<X2X2X3X4X4X4X3X3X5X3X=X&XW.J.b.z.] 2.2.8.v.n.b.L.L.`.`.*X*X&X=X2X4X4X4X4X4X4X4X4X4X4XjXjXjXjXjXkXkXkXzXzXzXzXxXxXmXmXmXmXMXMXMXMXMXMXMXMXMXMXMXMXBXBXBXBXMXMXMXMXMXMXMXMXMXMXMXMXMXMXMXMXMXMXMXMXmXmXMXMXMXMXMXMXMXMXMXMXmXmXmXmXmXmXmXmXmXmXmXmXmXmXmXmXmXxXzXzXzXzXjXjXjX4X4X=X&X'.P.L.J.B.v.n.9.9.9.9.8.9.n.D.L.[.[.oXXX[.XXXXoXoX@X@XaXaXpXpXsXsXBXBXmXmXBXJXHXZXbX5XI.] f.F.[.XX(.A.g.g.a.a.a.g.g.g.A.A.A.A.A.A.A.A.g.S.[.=X4XlXxXxXmXmXmXmXmXmXmXmXmXxXxXzXzXzXxXzXxXzXxXkX-X;X[.F.D.H.P.*X=X-XjXzXxXzXmXmXmXmXBXBXBXBXBXBXBXBXBXBXmXmXmXmXmXmXmXmXmXmXmXmXmXmXmXmXmXmXmXmXmXmXmXmXmXmXmXzXzXzXzXxXzXzXjXjXjXjXjXjXjXjXjXjX4X4X4X4X4X4X4X-X-X4X2X2X=X&X&X&X%XE.P.P.K.K.C.C.C.C.C.V.V.N.M.e.e.e.9.6.6.;.+.=.O.$.6.A                                                                                                                                         ",
"                                                                              j N I Q u.>.W Y Y I M -.0.9.9.m.C.J.J.J.J.W.J.B.B.V.V.B.m.v.M.N.0.) ( ( -.9.m.Y.W.%X&X&X2X2X2X4X4X4X4X5X6X3X*XL.b.] { ~ ~ _ ) 5.8.m.V.R.R.E.%X`.`.*X&X=X=X-X4X4X4X4X4X4X4X4X4XjXjXjXjXjXkXjXkXzXzXzXzXxXxXmXmXmXmXMXMXMXMXMXMXMXMXMXMXMXMXMXMXMXMXMXMXMXMXMXMXMXMXmXmXmXmXmXmXmXmXmXmXmXmXmXmXmXmXmXmXmXmXmXmXmXmXmXmXmXmXmXmXmXmXmXmXmXmXmXxXxXxXzXzXzXzXjXjX-X-X4X2X&X&X%XP.H.B.V.v.9.9.9.9.9.9.9.n.D.L.[.oX.X.XXXXXXXXXoX+X0X0XpXpXsXsXdXdXNXNXNXNXJXJXPXPXZX5Xx.x.`.lXMXmXxXjX4X=XOX[.]._./././.F.S.S.S.S.S.A.g.S.{.=X4XxXxXxXmXmXmXmXmXmXmXmXxXxXxXxXxXzXzXzXxXzXxXxX4X;X[./.D.H.`.*X=X-XjXzXzXzXmXmXmXmXBXBXBXBXBXBXBXBXmXmXmXBXmXmXmXmXmXmXmXmXmXmXmXmXmXmXmXmXmXmXmXmXmXmXmXmXmXmXzXzXzXzXzXjXjXjXjXjXjXjXjXjXjX4X4X4X4X4X4X4X4X2X=X=X=X=X&X&X&X%X%XP.P.P.K.C.C.C.C.C.C.V.V.M.M.e.e.q.q.6.6.;.X.+.X.=.3.                                                                                                                                          ",
"                                                                                x N W >.u.` W Y I M ^ 7.9.8.V.B.B.B.B.J.J.C.B.B.m.m.M.m.v.M.M.6.( ( ) 5.0.Q.R.E.&X&X2X2X3X2X4X4X4XkX5X3X*XG.f.{ _ ^ ^ ^ _ ) ' 8.n.V.Y.E.E.E.'.`.*X&X=X=X-X4X4X4X-X-X-X-X-X4X-X4XjXjXjXjXjXkXkXkXzXzXxXxXxXxXmXmXmXmXmXmXmXmXmXmXmXmXMXMXMXMXMXMXmXmXmXmXmXmXMXMXmXmXmXmXmXmXmXmXmXmXmXmXmXmXmXmXmXmXmXmXmXmXmXmXmXmXmXmXmXmXmXmXmXmXmXmXxXxXzXzXjXjXjXjX-X-X;X=X&X&X'.P.J.B.b.v.9.9.8.9.9.9.9.8.v.b.L.`.(.oX+X.XoXXXoXoX@X0X0XwXpXsXsXNXNXNXGXNXJXKXKXJXPXPXpX(.a./.kXZXJXKXJXLXVXMXMXMXMXmXMXMXmXmXzXzXzXpX0X@X/./.oX-XjXxXxXmXmXmXmXmXmXmXmXmXxXxXxXzXzXzXzXzXxXzXxXxXjX;X[.F.D.H.`.*X=X4XjXzXzXzXmXmXmXmXBXBXBXBXmXmXmXmXmXmXBXBXBXBXmXBXmXmXmXmXmXmXmXmXmXmXmXmXmXmXmXmXmXmXmXmXzXzXzXzXzXzXzXjXjXjXjXjXjXjXjXjX4X4X4X4X4X4X4X4X=X2X=X=X=X&X&X%X%X%XP.P.K.K.K.C.C.C.V.V.V.B.M.M.e.e.w.q.6.6.6.;.+.+.X.;.S                                                                                                                                           ",
"                                                                                j N I Q u.` E Y Y b T 7.6.5.T.m.B.B.B.C.J.C.B.B.m.n.m.v.9.M.M.5.( $.%.5.n.Y.E.%X&X&X&X2X2X2X>X4X4X4X3X*XG.f.{ ~ n K K I T ^ ) ' n.Q.Y.E.E.W.W.P.*X=X=X-X-X-X-X-X-X-X-X-X-X4X-X4XjXjXjXjXjXkXkXkXzXzXxXxXxXxXmXmXmXmXmXmXmXmXmXmXmXmXMXMXMXMXMXmXmXmXmXmXmXmXmXmXmXmXmXmXmXmXmXmXmXmXmXmXmXmXmXmXmXmXmXmXmXmXmXmXmXmXmXmXmXmXmXmXmXmXmXmXxXzXjXjX4X-X-X4X=XOX{.'.'.P.J.B.v.v.9.9.6.5.5.5.8.8.z.n.D.L.*X[.[.oX+X.XoXoX+X@X0X0XpXwXsXnXNXNXNXGXGXKXHXHXKXKXPXJX@Xs.(.cXSXBXKXKXKXKXJXJXPXPXJXJXPXPXJXJXJXJXPXPXJXVX@X(.oX-XjXzXxXMXmXmXmXmXmXmXmXxXxXxXzXzXzXzXzXzXmXxXxXxXjX;X[.F.D.H.`.*X=X4XjXzXzXmXmXmXmXmXmXmXBXBXmXmXmXmXmXmXBXBXBXBXBXBXmXmXmXmXmXmXmXmXmXmXmXmXmXmXmXmXmXmXmXmXzXzXzXzXzXzXjXjXjXjXjXjXjXjXjX4X4X4X4X4X4X4X2X2X2X=X&X&X&X&X%X%X%XP.P.P.J.K.K.C.C.V.V.V.V.M.M.M.e.e.q.q.;.;.:.*.+.+.X.$.                                                                                                                                            ",
"                                                                                  x n E :.:.E W Y Y c -.5.6.9.M.m.B.B.V.V.V.V.m.m.M.n.m.9.0.e.%.$.$.-.6.m.R.E.%X*X&X&X&X&X&X=X2X5X3X*XD.n.' N l l l L K U U ` ) 8.n.Q.W.E.W.W.%X&X=X=X-X-X4X-X-X-X-X-X4X4X4X4X4X4XjXjXjXjXjXkXkXzXkXzXzXzXzXxXxXxXxXmXmXmXmXmXmXmXmXmXmXmXmXmXmXmXxXxXxXmXmXmXmXmXmXmXmXmXmXmXmXmXmXmXmXmXmXmXmXmXmXmXmXmXmXmXmXmXmXmXmXmXmXmXmXxXxXzXzXjXjXjX4X4X3X=X&X{.'.`.P.H.B.b.v.9.9.6.5.:.5.5.5.8.n.D.L.`.`.`.[.[.oX+X+X+X+X@X0X0XpXpXsXnXNXNXNXGXHXHXHXHXLXJXJXVXiXs.(.zXMXJXJXJXKXKXKXJXJXJXJXJXJXJXJXJXJXJXJXJXJXJXVXiXoX+XiXzXcXmXMXMXMXmXmXmXmXmXxXxXxXzXzXzXzXzXzXzXzXxXzXjX;X[.F.D.L._.[.;X-XjXzXzXmXmXmXmXmXBXBXBXBXBXBXBXBXBXBXBXBXBXBXBXBXBXmXmXmXmXmXmXmXmXmXmXmXmXmXmXmXmXmXmXzXzXzXzXzXzXjXjXjXjXjXjXjXjXjX4X4X4X4X-X-X=X=X2X2X=X&X&X&X*X*X%XE.E.P.P.K.J.J.C.C.C.V.V.V.N.M.M.M.e.q.q.<.;.;.-.*.=.X.$.|                                                                                                                                             ",
"                                                                                  j N T ` :.E W Y Y n -.7.6.9.M.m.M.B.V.V.V.V.m.n.n.0.0.0.0.e.%.$.$.-.6.M.W.E.%X*X*X&X&X&X&X<X2X2X*XL.z.{ ~ l l U U K K n K U ^ ) 5.n.Q.W.W.W.%X*X&X=X=X-X4X4X-X-X4X4X4X4X4X-X4X4XjXjXjXjXjXkXkXkXkXzXzXzXzXxXxXxXxXxXxXmXmXmXmXmXmXmXmXmXmXmXmXxXxXxXxXmXmXmXmXmXmXmXmXmXmXmXmXmXmXmXmXmXmXmXmXmXmXmXmXmXmXmXmXmXmXmXmXmXmXmXxXxXzXjXjXjX4X4X4X=X&X*X`.P.L.H.D.b.v.9.8.5.5.-.-.:.:.5.8.n.D.L.`.`.[.[.[.XXXXoXoX+X9X0X0XwXwXsXsXnXNXNXGXHXHXJXJXJXHXJXVXxX^.].@XMXJXJXJXKXKXKXKXKXKXKXKXKXKXKXKXKXKXJXKXJXKXKXVXpX+X0XiXzXmXmXMXMXMXmXmXmXmXxXxXxXxXzXzXzXzXzXzXzXzXzXzXjX-X[.F.D.I.`.*X=X-XjXzXzXmXmXmXmXmXBXBXBXBXBXBXBXBXBXBXBXBXBXBXBXBXBXBXmXmXmXmXmXmXmXmXmXmXmXmXmXmXzXmXzXzXzXzXzXzXjXjXjXjXjXjXjXjXjX4X4X4X4X4X-X=X=X=X&X&X&X&X&X%X%X%XE.E.P.P.K.J.J.J.C.V.V.V.V.N.N.M.M.e.e.q.q.;.;.:.-.:.X.=.&.                                                                                                                                              ",
"                                                                                    m M T *.*.W Y I n *.7.6.9.M.m.m.M.V.V.M.m.m.n.0.9.0.0.0.e.%.$.$.-.9.M.W.W.%X%X*X*X*X&X&X&X&X%XH.b.] N l l U ~ ~ U U z z K U T _ 5.n.Q.Q.W.%X%X&X=X=X-X4X4X-X4X4X4X4X4X4X-X-XjXjXjXjXjXjXjXjXkXkXkXkXzXzXzXzXxXxXxXxXxXxXxXxXmXmXmXmXmXxXxXmXmXxXxXxXxXmXxXxXmXmXmXmXmXmXmXmXmXmXmXmXmXmXmXmXmXmXmXmXmXmXmXmXMXmXmXmXmXxXxXzXzXkX4X4X4X=X=X&X'.P.L.H.J.b.n.v.9.5.1.1.%.%.%.-.-.-.5.n.D.L.*X[.[.XXXXXXXXXXoX+X9X9XwXwXpXsXnXNXNXNXNXNXHXJXJXKXKXKXKXJX X^.jXMXJXKXKXKXJXJXKXKXKXKXKXKXKXKXKXKXKXKXKXKXKXKXKXJXpX+X0XpXzXmXmXMXMXMXmXmXmXmXxXxXxXxXzXzXzXzXzXzXzXzXzXkXjX=X[./.D.L.`.&X=XjXzXxXmXmXmXmXmXmXBXBXBXBXBXBXBXBXBXBXBXBXBXBXBXBXBXBXmXBXmXmXmXmXmXmXmXmXmXmXzXmXmXmXzXzXzXzXzXzXzXjXjXjXjXjXjXjX4X4X4X4X4X4X2X=X=X&X&X&X&X%X*X%X%XE.E.E.E.R.K.K.K.K.C.V.V.V.V.N.M.M.M.e.q.q.q.;.;.:.-.=.$.&.&.                                                                                                                                              ",
"                                                                                    x x U W :.Q Y Y n ( :.7.6.0.0.m.M.V.V.M.m.m.n.0.9.0.9.0.e.%.*.-.:.9.M.R.W.%X%X%X%X'.*X%X%X%XP.n.8._ z l z U ~ ~ ~ ~ U z z n U T _ ' n.n.Q.W.%X&X=X2X3X4X4X4X4X4X4X4X-X4X-X-XjXjXjXjXjXjXjXjXjXjXkXkXzXzXzXzXxXxXxXxXxXxXxXxXxXxXxXxXxXxXxXxXzXzXzXzXzXzXzXzXmXmXmXmXmXmXmXmXmXmXmXmXmXmXmXmXmXmXmXmXmXmXmXmXmXmXmXmXxXxXzXzXjX4X=X=X&X*X`.L.J.D.b.b.n.v.8.8.5.5.%.) ( %.$.-.-.5.8.b.L.`.[.[.oXoXoXoXoX+X+X@X9XwXwXsXnXnXNXNXNXNXNXCXJXJXKXKXKXKXJXrX^.0XmXJXKXKXKXKXJXJXKXKXKXKXKXKXKXKXKXKXKXKXKXKXKXKXKXHXwX+XqXpXzXmXmXMXMXMXmXmXmXmXxXxXxXxXzXzXzXzXzXzXzXzXzXkXjX=X[./.D.L.`.&X-XjXzXxXmXmXmXmXmXmXBXBXBXBXBXBXBXBXBXBXBXBXBXBXBXBXBXBXBXBXmXmXmXmXmXmXmXmXmXmXzXzXzXzXzXzXzXzXzXzXzXjXjXjXjXjXjXjX4X4X4X4X4X2X=X=X&X&X&X{.%X%X%XE.P.P.R.R.R.K.K.C.C.C.V.V.V.N.N.N.M.M.e.e.q.q.;.;.:.:.=.$.&.4.                                                                                                                                                ",
"                                                                                    j m M I ( *.Q W b E -.6.6.0.0.m.M.M.V.V.M.m.0.0.9.0.0.0.e.%.-.-.:.0.M.J.P.P.P.E.%X`.'.*X%XE.b.8.' U l z U ~ ~ { { { ~ ~ U U U U ~ _ ' ] n.Q.E.%X&X3X=X3X4X-X4X4X4X4X-X4X4XjXiXiXjXjXjXjXjXjXjXjXjXkXkXkXkXzXzXzXzXzXzXxXxXxXzXzXzXzXxXxXxXxXzXzXzXzXzXzXxXzXmXmXmXmXmXmXnXnXmXmXmXmXmXmXmXmXmXmXmXmXmXmXmXmXmXzXzXxXxXkXjX5X4X=X*X'.P.H.D.b.n.n.v.9.9.9.5.5.%.%.( ( ( ( ( ) 5.8.n.J.L.`.[.oXoXoX+X+X+X+X@X0XwXwXsXsXnXNXNXNXGXGXHXHXKXKXKXJXKXKXNX|.eXBXJXKXKXKXKXKXKXPXKXKXKXKXKXKXKXKXKXKXKXKXKXKXKXKXKXGXqX+X0XpXzXMXmXmXmXmXmXmXmXmXmXmXmXxXzXzXzXzXzXzXzXzXzXkX5X=X[.F.D.L.`.&X-XjXzXzXmXmXmXmXmXBXBXBXBXBXBXBXBXBXBXBXBXBXBXBXBXBXBXBXmXmXmXnXmXmXmXmXmXmXzXzXzXzXzXzXzXzXzXzXzXzXjXjXjXjXjXjX4X4X4X4X4X4X2X=X=X&X&X&X%X%X%XE.E.E.E.W.R.R.R.C.C.C.C.V.V.V.N.N.M.M.M.M.e.q.q.6.;.;.:.:.$.=.&.|                                                                                                                                                 ",
"                                                                                      m N Y T ` ` Q W E -.:.5.9.0.0.m.M.V.M.M.m.n.0.9.v.9.0.e.%.-.-.5.0.M.V.P.P.P.P.P.L.`.*X%XW.n.8._ N l U ~ ~ { { { { { { _ ~ U U U ~ _ _ ] n.W.W.%X&X=X;X4X4X-X-X-X4X-X-XiXjXiXiXjXjXjXjXjXjXjXjXjXkXkXkXzXzXzXzXzXzXxXxXxXxXzXzXzXzXxXxXxXxXzXzXzXzXzXzXzXzXzXzXzXzXmXmXmXmXmXmXmXmXmXmXmXmXmXmXmXmXmXmXzXzXzXxXxXzXkXjX-X=X&X*XL.D.b.b.n.v.v.9.8.5.5.5.-.-.( ( ( ( ( ( ( ) 5.z.b.H.L._.[.oXoXoX+X+X@X@XiXiXpXsXnXNXNXNXNXGXGXKXHXKXKXKXKXJXPXHX|.|.BXJXKXKXKXKXKXKXKXKXKXKXKXKXKXKXKXKXKXKXKXKXKXKXKXKXGXNX0XoX@XiXzXMXmXmXmXmXmXmXmXmXmXmXmXmXzXzXzXzXzXzXzXzXzXkX5X=X[.F.D.L.`.=X-XjXzXzXmXmXmXmXBXBXBXBXBXBXBXBXBXBXBXBXBXBXBXBXBXBXBXBXmXmXmXnXmXmXmXmXmXmXzXzXzXzXzXzXzXzXzXzXzXzXjXjXjXjXjXjX4X4X4X4X4X2X=X=X&X&X&X&X%X%XE.E.E.P.W.J.J.K.C.C.C.C.V.V.V.V.N.M.M.M.M.e.e.q.q.;.;.;.:.*.*.$.&.m                                                                                                                                                 ",
"                                                                                      j m I I E Q Q ` ` -.:.-.9.9.0.m.M.M.M.M.M.m.0.v.v.9.0.e.5.-.-.5.0.m.V.J.P.J.P.L.L._.`.`.L.z.5.^ l l ~ ~ ~ _ { { { { { { { { ~ ~ ~ ~ ~ ^ ) z.D.L.%X*X&X=X=X=X=X=X-X-X-X-XjX4X-XjXjXjXjXjXjXjXjXjXkXkXkXkXjXzXzXzXzXzXzXxXxXxXxXzXzXzXzXzXzXzXzXzXzXzXzXzXzXzXzXzXzXnXnXnXmXmXzXzXzXmXmXmXmXmXmXmXmXzXzXzXzXxXzXzXjXjX-X{.`._.I.b.n.n.8.9.9.8.5.5.5.-.-.` ( ( ( ( ( ( ( ` ) 8.n.b.G.G._.[.[.oXoX+X@X0XiXpXpXnXnXBXBXNXGXGXGXKXHXKXKXKXKXKXJXZX0X^.zXBXJXPXKXKXKXKXKXKXKXJXKXKXKXKXKXKXKXKXKXKXKXKXHXKXKXGXsX+XXX-XjXkXcXxXmXmXmXmXmXmXmXmXmXmXmXxXzXzXzXzXzXzXzXzXkX4X=X_.F.D.L.[.=X-XjXxXxXmXmXmXmXBXBXBXBXBXBXBXBXBXBXBXBXBXBXBXBXBXBXBXBXmXmXnXnXmXmXmXmXmXmXmXmXzXmXzXzXzXzXzXzXzXzXjXjXjXjXjXjX4X4X-X4X2X2X=X=X&X{.&X'.%X%XE.P.E.R.R.J.C.C.C.C.C.V.V.V.V.N.M.M.M.M.M.e.e.q.q.;.6.;.-.*.=...&.                                                                                                                                                  ",
"                                                                                        m N T T W Q ` ` -.-.-.6.9.0.m.M.M.M.M.M.m.m.v.v.9.9.e.5.-.-.5.9.m.B.J.J.J.J.I.I._.`.L.D.8.' ^ l N ~ ~ { _ { { { { { { { ] { { ~ ~ ~ T ^ _ ] z.D.J.W.*X*X&X&X=X=X=X;X-X4X5X5X4X4X4X4XjXjXjXjXjXzXkXkXjXjXkXkXkXkXkXzXzXzXxXxXxXzXzXzXzXzXzXzXzXzXzXzXzXzXzXzXzXzXzXzXmXzXzXzXzXzXmXmXmXmXmXmXmXxXzXzXzXzXkXjX5X=X&X`.I.H.x.n.v.8.8.5.5.5.5.-.-.%.) ) ) ( ( ( ( ( ( ( ` 5.8.n.b.G.G._.(.[.oX+X@X0X0XpXsXnXnXNXNXGXGXGXHXHXKXKXKXKXKXKXKXJXMXj.#XxXVXJXKXKXJXJXJXKXKXKXKXKXKXKXKXKXKXKXKXKXHXKXKXKXKXKXHXsX+X X-XjXzXcXxXmXmXmXmXmXmXmXmXmXmXxXxXzXzXzXzXzXzXzXzXjX4XOX_.F.I._.[.=X4XkXxXmXmXmXmXmXmXBXBXBXBXBXBXBXBXBXBXBXBXBXBXBXBXBXBXBXmXmXnXnXmXmXmXmXmXmXmXmXmXmXzXzXzXzXzXzXzXzXjXjXjXjXjX4X4X4X-X4X2X2X=X&X&X{.'.'.%XP.P.P.R.R.J.C.C.C.C.C.V.V.V.V.V.M.M.M.M.M.M.e.q.q.;.;.6.;.:.*...$.m                                                                                                                                                   ",
"                                                                                        j S M T T W E ` ` *.-.-.5.6.0.m.m.m.m.m.v.m.m.0.0.0.0.0.%.1.8.0.M.M.B.J.H.J.H.L.L.L.W.b.8.' U k U ~ { { { { { { { { ] ] ] ] ] ] { _ ~ ~ ~ _ _ ' 8.n.b.W.W.%X%X*X*X&X=X=X;X;X-X4X4X4XjXjXjXjXzXzXzXjXjXkXjXjXjXjXjXkXkXzXzXzXzXzXzXzXzXzXzXzXzXzXzXzXzXzXzXzXzXzXzXzXzXzXmXzXzXxXxXmXmXmXmXmXxXxXzXzXkXkX3X&X*XL.D.n.v.8.5.5.5.5.5.5.-.-.%.) %.) ) ) ' ' ) ) ) ) ^ ( ( ) ] z.b.b.A.G._.oX+X@X0XwXpXnXnXBXGXGXKXKXHXGXJXJXGXKXKXKXKXHXKXJX#X^.zXSXVXJXKXKXKXKXKXKXKXKXKXKXKXKXKXKXKXJXKXKXKXGXKXKXHXJXHXqX.X+XiXjXxXmXMXmXmXmXmXmXmXmXmXxXxXzXxXxXzXzXzXzXzXzXzXkX4XOX_.F.F.`.{.-XjXzXmXmXmXBXBXBXmXmXmXBXBXBXBXBXBXBXBXBXBXBXBXBXmXBXBXBXmXmXnXnXnXmXmXmXnXzXzXmXzXzXzXzXzXzXzXzXjXjXjXjXjXjXiX4X-X-X-X-X=X=X=X&X&X&X%X%XP.P.P.P.K.K.C.C.C.C.C.C.C.C.V.V.V.M.M.M.M.M.e.e.9.q.:.:.*.:.*.=.&.4.                                                                                                                                                    ",
"                                                                                          A N T Y W E E ` *.*.-.;.6.0.0.m.m.m.m.v.m.m.0.0.0.0.0.5.5.8.9.m.M.B.C.J.J.L.L.L.P.W.b.8.' U l U ~ _ { { { { ] ] ] ] f.f.f.f.f.f.{ { { ~ ~ ~ ^ _ ' ] n.n.b.J.W.%X%X*X&X;X=X;X3X3X4X4X4XjXjXkXjXjXjXjXjXjXjXjXjXjXjXjXjXjXjXjXzXzXzXzXzXzXzXzXjXzXzXzXzXzXzXzXzXzXzXzXzXzXxXxXzXxXxXxXxXxXxXxXkXkX4X=X*XL.J.b.n.8.8.5.-.-.-.-.-.-.) ' ' 1.1.1.5.8.8.8.8.] ] ] ' ' ' ) ' 2.] z.x.D.I._.(.oX@XiXpXnXnXBXNXGXGXKXKXHXNXVXCXGXKXKXKXHXKXJXNX|.9XVXVXBXJXKXKXKXKXKXKXKXKXKXKXKXKXKXKXJXJXKXKXKXKXKXKXHXJXNXqX.X+XiXzXxXMXmXmXmXmXmXmXmXmXxXxXxXzXxXxXzXzXzXzXzXzXzXkX4XOX_.F.F.`.OX4XjXxXmXmXBXBXBXBXBXmXmXmXBXBXBXBXBXmXBXBXBXBXBXBXmXBXBXBXmXmXnXnXnXmXmXmXzXmXmXmXzXzXzXzXzXzXzXzXjXjXjXjXjXjX4X4X-X-X-X=X=X&X&X&X&X&X%X%XP.P.P.K.K.K.C.C.C.C.C.C.C.C.V.V.V.M.M.M.M.M.e.e.9.7.6.:.>.=.*.;.4.m                                                                                                                                                     ",
"                                                                                          j N N T Y E E ..$.*.-.:.6.0.0.m.m.m.m.v.m.m.0.0.9.0.0.9.9.9.9.v.B.B.B.J.P.L.P.P.W.W.b.' ) U l ~ _ _ { { { { ] ] f.f.f.h.h.h.h.h.f.f.] { { _ ~ ~ ~ _ { ] ] z.b.b.D.H.L.L.*X%X*X&X&X2X2X4X5X5XjXjX5XjXjXjXjXjXjXjXjXjXjXjXjXjXjXjXjXjXjXjXjXjXjXjXjXjXjXjXjXjXjXzXzXzXzXjXjXjXjXjX5X5X4X=X=X;X*X`.L.D.b.n.8.] ' ' ' 5.-.) ) ) ) ' ' ' ] ] 2.z.n.b.b.b.b.G.b.b.n.z.z.f.] ] ] ] 2.n.b.I._.[.oXiXpXnXNXGXHXBXVXKXKXJXCXCXCXKXKXKXKXGXJXnX|.|.VXJXBXKXKXHXKXKXJXJXJXHXHXHXHXKXKXKXKXHXHXHXGXGXGXKXHXHXJXNXuX#X+XiXzXxXmXmXmXmXmXmXmXmXmXmXmXxXxXxXzXzXzXzXzXzXzXzXjX-XoX_.F._.`.=X4XkXxXmXmXBXBXmXmXmXmXmXmXBXBXmXBXBXBXBXBXBXBXBXBXmXmXBXBXmXnXnXnXmXmXmXmXzXzXzXzXzXzXzXzXzXzXzXjXjXjXjXjXjXjX4X-X4X-X-X=X=X&X&X{.&X'.%XP.P.P.K.K.K.C.C.C.C.C.C.C.C.C.V.V.N.M.M.M.M.e.e.e.6.6.;.:.>.*.$.;.|                                                                                                                                                       ",
"                                                                                            A N I Y W E E ..*.*.-.5.6.0.0.v.v.v.m.m.m.m.0.0.0.0.0.9.9.9.v.B.B.J.J.P.P.P.P.W.P.n.' ) T z ~ { _ { { { ] f.f.h.h.h.h.h.h.h.h.h.h.h.n.z.f.{ { ~ ~ ~ { { { ' ] ] z.n.b.b.b.D.D.H.P.%X*X&X=X;X;X;X4X5X5XjXjXjXjX4X5X4X-X4X-X4X-X-X-X-X4X4X-X-X-X-X-X-XiXiXjXjXjXjXiXiX4X-X-X=X&X*X`.`.I.H.b.x.z.z.] ] ' 5.' ' ' ) ) ) ) ) ' ' ] z.z.z.n.G.D.D.G.G.G.G.G.G.G.G.G.G.A.A.x.z.z.f.f.z.x.D._.oX-XiXsXdXGXHXmXBXJXKXJXCXCXCXKXKXKXKXJXVX#Xj.wXPXNXGXJXGXGXHXHXHXCXCXCXCXCXHXHXGXHXHXGXGXGXHXGXGXHXGXHXVXsX|.#X@XjXzXxXmXmXmXmXmXmXmXmXmXmXxXxXxXxXzXzXzXzXzXzXzXzXjX-XoX_./._.[.-XjXzXmXmXmXBXBXBXmXmXmXmXmXBXBXBXmXmXBXBXBXBXBXBXBXmXBXBXBXnXnXnXnXmXmXmXmXzXzXmXzXzXzXzXzXzXzXjXjXjXjXjXjXjXjX-X-X-X=X=X=X&X&X&X{.'.'.%XP.P.K.K.K.C.C.C.C.C.C.C.C.C.C.V.V.N.M.M.M.M.e.e.q.6.6.;.-.=.$.&.4.j                                                                                                                                                       ",
"                                                                                            j S M Y W E E ..*.*.-.:.6.9.0.0.v.v.m.m.m.n.0.9.0.0.m.v.9.v.b.B.J.J.H.P.L.P.P.P.L.z.) ) T N _ { { { { { f.f.h.h.h.h.h.h.g.g.h.h.h.G.G.G.G.h.f.{ { ~ ~ ~ ~ ~ _ ' ' ' ] ] 8.8.8.8.n.n.J.W.W.*X*X&X&X=X=X=X=X=X-X-X=X=X=X=X=X=X=X=X;X=X=X=X=X=X;X=X=X=X=X=X;X;X;X=X=X*X[.`.`.L.H.b.b.z.8.2.' ' ) ) ) ) ` ` ) ) ) ) ) ) ' ] ] z.G.D.D.G.G.G.G.G.G.G.).).).).).).)./.).).F.).G.G.A.x.A.A.F./.XX+X0XiXpXnXnXmXHXGXVXCXBXCXGXGXGXJXSX@XS.(.MXVXNXHXHXGXHXGXGXGXNXNXNXNXNXGXGXGXGXGXGXGXGXGXGXGXGXNXBXBXqX|..X@XjXzXmXmXmXmXmXmXmXmXmXxXzXzXxXzXzXzXzXzXzXzXzXjXjXjX-X[././._.[.4XkXxXmXmXNXBXBXmXBXBXBXBXmXBXmXmXmXBXBXBXBXmXBXBXBXBXNXNXNXnXnXmXmXnXnXzXzXzXzXzXzXzXzXzXzXzXzXzXzXjXjXjXjXjX4X4X-X=X=X=X=X&X&X{.{.*X%X'.P.P.K.K.K.C.C.C.V.C.C.V.V.C.V.V.V.N.M.M.M.e.e.e.q.7.6.;.*.=.$.;.D                                                                                                                                                         ",
"                                                                                              A M M Y E E E *.*.-.-.5.6.9.9.0.v.m.m.n.0.9.9.0.v.m.v.v.v.b.J.J.J.L.P.L.`.P.P.J.8.' ) T N _ { { { { { f.h.h.h.G.G.).).).S.G.G.G.G.G.G.G.G.G.G.h.f.{ { ~ ~ ~ ~ _ _ _ _ ' ' ' ' ) ' 8.8.n.n.Q.W.W.*X*X*X*X*X*X*X*X*X`.`.`.`.`.`.*X`.`.`.`.`.`.`.`.`.`.`.`.`.`.L.L.G.D.b.x.z.8.] ' ) ) ( ( ` ` ` ` ` ` ( ( ( ( ) ' ' ] f.n.G.G.G.G.G.G.).).).).).).).).(.(.(.(.(.(.XX X.XoX;X;X[./.S.g.S.^.(.].oX@XiXpXnXnXBXBXCXNXHXKXGXNXVXkX^.S.kXmXBXBXJXNXGXKXNXGXGXNXGXNXNXGXGXNXNXNXNXNXNXGXGXGXGXNXNXBXnX#X|.+X-XzXxXmXmXmXmXmXmXmXmXxXzXzXzXzXzXzXzXzXzXzXzXzXjXjXjX-X[././.].OX4XzXxXmXmXNXBXBXBXBXBXBXmXmXmXmXmXmXNXNXmXmXmXmXBXmXmXmXNXnXnXnXmXmXnXnXzXzXzXzXzXzXzXzXzXzXzXzXzXjXjXjXjXjX4X4X4X2X=X=X=X{.&X&X{.'.*X'.P.P.P.K.K.C.C.V.V.V.V.V.V.V.C.V.V.V.M.M.M.M.e.e.9.7.7.;.;.&.=.&.4.                                                                                                                                                          ",
"                                                                                                m M Y R E E Q *.*.-.5.6.9.9.0.0.n.n.n.0.9.9.0.m.m.m.b.b.b.J.J.J.L.`.L.`.L.P.J.2.) _ U N _ { { { { f.h.h.h.G.).).).).).).).).).).).).).).).G.G.G.h.f.] { { _ ~ ~ ~ ^ _ ^ _ ^ _ _ ` ` ` ' ] h.n.n.D.D.D.G.G.G.D.D.D.D.b.b.b.b.b.b.b.b.b.b.b.b.b.b.b.b.b.b.b.z.z.z.] ] ] ' ) ) ( E E W E Q ` ` ` ` ( ( ( ) ' ' 8.z.n.G.G.G.G.).).).).).).).).).).(.).(.(.(. XXXXX.X9XqXqXsXBXmXpX@X X(.^.^.F.F.`.[.@XwXpXpXzXzXNXNXHXHXMXkX].A. XMXmXnXVXBXNXGXGXNXNXNXNXNXGXGXGXGXGXGXNXNXNXNXGXGXGXGXNXBXBXwX.X|.+X-XzXxXmXmXmXmXmXmXmXmXzXzXzXzXzXzXzXzXzXzXzXzXzXjXjX-X;X[././.[.OXjXzXmXmXnXBXBXBXBXBXBXBXBXBXnXnXmXmXNXnXnXnXBXmXmXmXmXmXmXmXnXnXmXnXmXmXzXnXzXzXzXzXzXzXzXjXzXzXzXjXjXiXiXjX-X4X-X2X=X=X&X&X&X'.*X*X'.'.P.P.P.K.J.C.C.V.V.V.V.C.V.V.V.V.V.B.M.M.M.M.e.9.9.6.6.;.;.=.&.&.G                                                                                                                                                           ",
"                                                                                                A N B R E E Q ` *.-.5.5.9.9.9.0.0.m.n.0.9.v.v.v.v.B.B.b.b.H.H.L.L.`._.`.L.P.J.2.) ( U N _ { { { f.f.h.h.G.).).(..X X X X X X X X X).).).).).).).G.G.G.n.h.f.] { _ ~ ~ S U U U U U E E ` _ _ { ] ] ] ] ] ] ] ] ] ] ] ] 2.2.] ] 2.] ] ] ] ] ] ] ] ] ] 8.8.] ' ' ' ' ) ) ) _ ( E W Q Q W W Q ( ` ` _ ) ' ' 8.n.n.D.G.G.G.).).).).).).).).).).).(.(.(.(.XX XoX+X+X0XwXsXdXdXBXNXVXPXVXzX#X^.S.S.S./. X XoX+X+X@XwXsXrXmXzXOXA.).mXfXVXnXnXNXNXHXdXGXNXNXNXNXNXNXDXNXNXNXNXNXNXNXGXGXGXGXNXNXmX9X X X+XiXzXxXxXxXmXmXmXmXmXmXzXzXzXzXzXzXzXzXzXzXzXjXzXjXjX-X;X[././.[.OXjXxXmXmXBXBXBXBXBXBXNXNXNXNXNXnXnXnXnXnXnXNXnXmXmXmXmXmXmXmXmXnXnXnXmXmXnXzXzXzXzXzXzXzXzXjXzXjXzXjXiXiXjXjX4X4X-X=X=X&X&X&X&X'.*X'.'.P.P.P.K.J.J.C.C.V.V.M.V.C.V.V.V.V.B.M.M.M.M.e.e.e.6.6.;.*.=.O.&.&.                                                                                                                                                            ",
"                                                                                                  N M T W E O.E *.-.5.5.6.6.9.9.0.0.m.9.v.v.n.v.B.B.b.D.D.H.L.L.L.`.`.`.`.P.J.v.' ^ T l { { { { f.f.h.G.).). X.X.X+X+X+X+X9X9X9XuX.X.X X X X).).).).).G.G.G.G.G.h.] { ~ S N U K U K I U U ^ _ _ _ _ _ _ _ _ _ _ _ ^ _ _ _ ^ ) ) ) ) _ _ _ _ _ ) ) ) ) ) ) ) _ _ _ _ _ ^ ^ T W W W W W E _ _ _ { ] ] n.n.n.G.G.G.G.).).).).).(.(.(.(.(.(.(.(.(.XXXXXX#X+X+X0XiXpXnXNXNXGXHXHXJXJXBXBXBXmX0XXX^.g.S.^.^./._.].XX+X@XjX{.A.A.oXfXdXBXnXdXdXNXNXdXdXdXNXNXNXNXNXNXdXNXNXNXNXNXNXNXNXGXGXNXNXmX#X|. X@XiXxXMXmXmXmXmXmXmXmXmXzXzXzXzXzXzXzXzXzXzXzXzXiXjXiX-XoX_._./.[.-XjXxXmXmXBXBXNXNXNXNXBXBXBXBXNXNXmXmXmXmXBXBXmXmXmXmXnXnXmXmXnXnXnXnXnXnXzXzXzXzXzXzXzXzXzXzXzXzXjXjXjXjXjX4X4X-X=X=X=X&X&X{.*X%X*X'.P.P.P.P.J.J.J.C.V.V.M.M.V.V.V.V.V.V.N.M.M.M.M.0.9.6.6.6.;.:.=.O.&.|                                                                                                                                                             ",
"                                                                                                  A N B R E E Q *.*.-.5.6.6.6.9.9.0.0.0.v.v.v.b.B.B.H.D.H.L.L.L.L.`.`.`.`.P.J.v.' _ T l _ { { { f.h.h.).). X.X.X+X+X9X9X9X9X9XqXqXqXqX9XuX.X.X.X X X(.).).).).).G.G.G.h.{ ~ U z v K U U U T ^ _ _ _ _ _ _ ^ ^ ^ ^ ^ ^ ^ ^ ^ ^ ^ ^ ^ _ _ _ _ ^ ^ ^ ^ ^ _ _ ^ _ ^ _ ^ ^ ~ U T T W Y Y T ^ _ ' ] f.h.h.G.G.G.G.G.).).).(.(.(.(.(.(. X X XXXXX#XoXoX+X+X+X9X0XwXpXsXNXNXGXHXHXHXJXJXKXKXJXJXVXBXnXpX^.S.g.g.A.A.A.A.S.F.x.f.x.[.fXdXBXNXdXdXdXdXdXdXdXsXsXsXsXsXsXsXNXdXtXdXdXNXdXdXNXNXNXnXzX.X^. X@XiXxXMXmXmXmXmXmXmXmXmXzXzXzXzXzXzXzXzXzXzXzXjXiXjXiX;X[./.F./.oX-XzXxXmXBXBXNXNXmXNXNXBXBXBXmXNXNXmXmXmXmXBXBXmXmXmXmXnXnXnXnXnXnXmXmXzXzXzXzXzXzXzXzXzXzXzXzXzXjXjXjXjXjX4X4X-X-X=X=X&X&X&X'.*X'.%X'.P.P.P.K.J.K.J.C.V.V.M.M.V.V.V.V.V.V.M.M.M.M.e.0.q.6.6.6.;.:.O.$.4.                                                                                                                                                              ",
"                                                                                                    A S T E W O.*.*.-.5.5.5.6.6.6.0.9.0.v.v.v.b.B.H.H.H.L.L.L.L.L.`.`.`.`.P.J.n.8.) T l ~ { { { f.h.G.). X.X.XuX9X9X9X9X9XqXqXqXrXrXrXrXwXwXqX9XuX.X.X X.X.X.X X).).).G.G.h.{ N z K K U U T ~ ~ _ _ _ _ ~ _ _ _ _ _ _ ^ ^ ^ ^ ^ ^ ^ _ _ _ _ _ _ ^ ^ _ _ _ _ _ _ _ _ _ _ ~ ~ ~ T T T ^ _ ' h.G.G.G.G.G.).).).).(.(. X X X X XXX.X.X.X+X+X+X9X9X9XqXwXwXwXsXsXnXNXGXGXGXGXHXHXHXHXGXGXHXKXKXKXKXHXzXjXoX^.g.a.[ ] ] [ G G z.F.oXiXpXpXsXsXsXsXsXsXsXsXsXsXdXnXBXNXdXdXNXNXNXNXdXdXdXNXnXBXpX(.^. X@XjXxXcXmXmXmXmXmXmXmXmXzXzXzXzXzXzXzXzXzXjXjXjXjXjX-XOX[.F.F.F.oXiXzXmXmXBXBXNXBXmXnXnXmXmXmXmXNXBXBXmXNXNXnXnXnXmXmXmXmXnXnXnXmXmXmXzXzXzXzXzXzXzXzXzXzXzXzXzXjXiXiXiXiXjX-X4X-X=X=X=X&X&X&X'.'.'.'.'.P.P.P.J.J.J.J.C.V.V.V.V.V.V.V.V.V.V.M.M.M.M.0.9.6.6.6.;.:.*.&.&.|                                                                                                                                                               ",
"                                                                                                    A S B R E E *.$.%.%.5.5.5.6.6.9.9.9.0.v.v.b.B.H.H.L.L.L.L.L.L.`.`.`.`.P.H.b.8.) ^ l ~ _ { { f.h.G.)..X.XuXeX9XeX9X9XqXqXqXrXrXrXsXsXdXsXsXsXwXqXeX9XuX.X.X.XXX X(.).).G.h.{ U N U U U ~ _ _ ) { { { { { { { _ _ _ { { { { { { _ { { { { { { { [ { ' ' ' ] ' { ] ] ] ] { ~ ~ ~ _ _ ] z.G.G.G.).).).).).). X X X.X.X X.X#X+X+X9X9X9XqXqXqXwXwXsXsXsXNXNXNXNXGXGXGXGXGXHXHXHXHXJXKXGXKXKXKXKXKXMXSXZXpX(.h.G D _ _ D G [ f.S.(.+X0XpXpXpXpXpXpXpXpXpXsXsXsXsXsXsXsXsXnXNXnXdXdXdXdXsXmX0X^.^.XXiXjXxXcXmXmXmXmXmXmXmXzXzXzXjXjXzXzXzXjXjXjXjXjXjXjX-X[./.F.D./.OXiXzXmXmXBXBXNXBXNXnXnXmXmXmXmXNXNXmXmXNXNXnXnXnXnXmXnXnXnXnXnXmXmXzXzXnXnXzXzXzXzXzXzXzXzXzXjXjXiXiXjXjX4X-X-X-X=X=X&X&X&X&X'.'.'.'.'.P.P.P.J.J.J.J.C.V.V.V.V.V.V.V.V.V.M.M.M.M.e.9.6.6.6.6.;.;.$.;.3.                                                                                                                                                                ",
"                                                                                                      H D T E W E $.%.%.5.5.5.5.6.6.9.9.0.v.m.B.H.H.H.I.I.L.L.L.L.L.`.`.`.`.L.b.n.' ^ z N _ { { f.h.G.(..X.X9X9XeXeX9X9XqXqXrXsXrXrXdXdXdXNXNXNXNXdXsXwXqXqX9X9X.X.X.X X.X(.G.h.{ S z U ~ ~ { ' ] ] h.] ] ] f.f.f.f.f.f.f.f.f.h.f.f.f.f.f.h.h.h.h.h.h.h.h.x.x.x.x.A.A.G.G.h.f.{ F ~ { ] n.D.G.).).).(.(.(. X X.X.X.X.X+X+X+X9X9XqXqXqXaXsXrXsXdXNXNXNXNXGXGXGXGXKXKXKXGXKXHXHXHXKXKXKXKXKXKXKXKXHXBXHXBXxX`.] D S [ f.f.f.f.a.g.^.^. X#X+X0XqXiXiXiXpXpXpXpXsXpXpXpXpXsXsXsXsXsXsXsXmXpX#Xg.S.].iXzXxXxXmXmXmXmXmXmXzXzXzXzXzXjXzXzXzXjXjXjXjXjXjXjX;X[./.F.D.F.+X0XzXmXmXBXBXBXNXNXNXnXmXmXNXNXBXmXmXmXnXnXnXnXnXnXnXnXnXnXnXnXnXnXzXzXzXzXzXzXzXzXzXzXzXjXjXjXiXiXiXiXiX-X-X-X-X=X=X&X&X&X&X'.*X*X'.'.E.P.P.J.J.J.J.C.C.V.V.V.V.V.V.V.M.M.M.M.M.e.9.6.6.6.6.;.*.;.3.G                                                                                                                                                                 ",
"                                                                                                        [ T E E E ..$.%.%.5.5.5.5.6.9.9.9.v.v.B.H.H.D.H.I.L.L.L.L.L.`.`._.`.L.D.n.' _ N N ~ { { f.h.).(..X9X9XeXeXeXeX9XqXqXrXsXsXsXdXdXdXNXNXNXNXNXdXdXsXsXsXsXqXqXeXeXuX.X(.G.h.~ } ~ ~ { { h.h.h.h.h.h.h.h.h.h.h.h.h.A.A.G.A.A.A.G.G.G.G.G.G.G.).).)./.).).).).).).).).).G.G.F F { { h.G.G.).). X X X XXX.X.X+X+X9X9X9X9XqXqXwXrXsXsXsXdXdXdXNXNXGXGXGXGXGXGXGXKXKXGXGXGXGXGXGXGXGXGXGXGXGXGXKXKXHXBXxX).[ F f.G.*XoX[.]./.^.S.^.^.^.^.|. X X X X#X+X9XqXiXpXiXiXpXpXpXsXsXsXnXsXzXiX(.g.S.[.jXzXcXxXmXmXmXmXzXzXzXzXzXzXjXjXzXzXjXjXjXjXjXjXjX4X;X_.F.D.D.I.+X0XzXmXmXBXBXBXNXNXnXnXmXmXBXNXnXnXnXnXnXnXnXnXnXnXnXnXnXnXzXzXnXnXzXzXzXzXzXzXzXzXzXzXjXiXjXjXjXiXiXiX-X-X-X-X-X=X=X&X&X&X&X{.*X*X'.'.E.P.P.J.J.J.J.C.C.V.V.V.M.M.V.V.M.M.M.M.e.0.9.6.6.6.;.:.=.;.z.                                                                                                                                                                  ",
"                                                                                                        D ^ E E E ..$.%.-.5.5.5.5.6.9.9.9.v.b.b.H.H.H.H.I.I.I.L.L.L.`.`.`.`.L.D.n.8.) ~ N ~ _ { f.h.). X.X9X9XeXqX9X9X9XqXwXsXsXsXsXsXdXdXNXNXNXNXNXNXNXNXNXnXnXsXdXdXrXyXqX.X(.G.f.~ ~ ~ ~ { f.h.h.h.h.G.G.G.).).).).).).).(.(.).(.(.(.(.(.(.XX X X X X X X.X X.X.X+X.X.X;X;X:XG.f.[ { f.x.G.).).(.XXXXXX.X.X+X+X9XqXqXqXwXrXrXrXsXsXsXNXNXNXNXGXGXGXGXGXGXGXGXCXCXHXGXGXGXGXGXKXKXGXHXHXHXCXHXGXKXJXVXoXa.F f.;XbXZXZXZXmXzXzXiX@X+X X^.j.j.j.^.S.S.S.^.^.^.(. X.X+X9X0X0XwXpXpXwXqX Xg.g.F.=XjXxXmXxXmXmXmXmXnXnXzXzXzXzXzXzXzXzXjXjXiXjXjXjXjX-XoX/.S.A.D.I.OXjXzXmXmXBXBXBXnXNXmXmXmXmXNXNXnXnXnXnXnXnXnXnXmXmXmXmXzXzXzXzXnXnXzXzXzXzXzXzXzXzXzXzXiXiXjXjXiX-X-X-X-X-X-X-X=X=X=X&X&X&X&X*X*X*X'.'.E.P.P.J.J.J.J.C.V.V.B.B.M.M.M.V.M.M.M.m.0.9.9.6.6.6.;.;.:.%.                                                                                                                                                                    ",
"                                                                                                          D R E E E $.-.-.-.-.-.5.6.9.9.9.v.b.b.H.H.H.D.I.I.I.L.L.L.`._.`.`.L.H.b.8.' ^ N ~ ~ { f.h.). X.X9XeXeXqX9X9X9XqXwXrXsXrXsXsXsXdXNXNXNXNXNXNXNXNXNXNXNXdXdXdXtXrXrXqX+X(.G.f.F S ~ { f.h.g.G.).).).).). X X X XXX.X.X.X.X X.X.X.X.X+X+X.X9X9X9X9X9X9X9XuXwXwXqXqXaXaX-X;XF.f.{ f.h.D.G.(.XXXXoXoXoXoX+X@X0XwXwXrXrXsXsXsXnXnXNXNXNXNXGXGXGXGXGXGXGXGXGXCXCXGXGXGXGXGXHXGXGXGXGXHXCXCXCXGXGXNXwX^.s.g.;XZXZXHXHXHXHXHXVXBXmXmXpXpXqX+X X|.^.^.g.s.s.g.j.^.^.|.|.|. X#XuX.X.X X^.a.a./.-XzXmXmXmXmXmXmXzXzXzXzXzXzXzXzXzXjXjXjXjXjXiXjXjX-X;X[.F.A.x.D.I.OXzXmXmXmXmXNXNXnXmXmXmXmXmXBXBXnXnXnXnXnXnXnXnXmXmXmXmXzXzXnXnXnXnXzXzXzXzXzXzXzXzXzXjXjXjXjXjX-X-X-X-X-X-X-X-X=X=X=X=X&X&X&X*X*X*X'.'.'.P.P.P.P.J.J.C.C.V.V.B.M.M.M.M.M.M.M.M.e.6.6.6.6.6.:.;.%.3.                                                                                                                                                                    ",
"                                                                                                          A D E E E ` -.$.%.:.-.5.5.6.9.9.v.v.b.J.H.H.H.L.L.L.L.L.L.L.L.L.L.L.L.D.n.] ' _ ~ ~ ~ f.h.S.(..X9XqXqXqXqXqXqXqXwXrXrXrXdXdXtXtXNXNXNXNXNXNXNXNXNXNXNXdXNXNXNXNXnXrXwXqX+X).g.F F { { f.h.G.).). X.X.X.X.X+X+X+X+X9XqX9X9X9X9X9XqXqXaXqXqXqXqXwXrXrXrXsXsXsXrXrXsXsXfXpXxXoXf.f.f.x.A.[..X.X+X+X+X+X+X9XwXwXsXsXfXsXsXNXNXNXNXNXNXNXGXGXGXGXGXGXGXGXGXGXGXKXKXKXHXHXHXHXHXJXKXHXGXGXCXMXzXpX|.s.^.zXMXBXHXHXHXJXHXHXHXJXJXHXBXBXBXBXBXsXwXwX9XuX#X.X.X|. X X|.#XuXuX.X|. X^.g.a.A.[.jXxXmXmXmXzXzXzXzXzXzXzXzXjXjXjXjXjXjXiXjXjXjXiXjX-XoX/.S.A.A.D._.iXzXmXmXmXmXmXmXmXmXmXmXnXnXnXnXnXnXnXnXnXmXmXnXnXnXnXnXnXnXnXnXzXzXzXzXzXzXzXzXzXjXjXjXiXiXiX-X-X-X-X-X-X-X-X-X-X=XOX{.{.{.'.'.{.{.'.'.'.`.'.P.P.P.J.J.C.V.M.M.V.N.M.M.M.M.M.M.q.q.t.6.;.;.:.%.c.                                                                                                                                                                      ",
"                                                                                                            S / ( E ` *.$.$.-.-.5.5.6.9.9.v.v.b.b.J.H.H.L.L.L.L.L.L.L.L.L.L.L.L.H.b.z.' _ U N ~ { h.G.). X#X9X9XqXqXqXqXqXqXrXrXrXrXtXtXtXNXNXNXNXNXNXNXNXNXNXNXdXdXNXNXNXnXrXrXrXrX9X).f.F S { { h.G.).(..X.XuX9X9X9X0X0XqXqXqXaXaXaXaXaXpXpXsXsXsXsXsXsXsXdXsXsXsXsXdXdXdXdXdXsXpXzX-Xg.a.h.S.)..X+X+X+X@X0X9XwXwXsXsXsXsXfXBXNXNXNXGXGXGXGXGXGXGXGXGXGXGXGXGXGXGXKXGXGXHXHXHXJXJXNXNXGXKXGXNXzXcX|.s.|.mXBXVXGXGXGXGXHXHXHXHXKXGXGXGXGXGXGXNXHXNXNXNXNXnXsXsXwXwXwXwXsXsXsXsXqX0XXXS.a.S.;XjXxXmXmXzXzXzXzXzXzXzXzXzXjXjXjXjXjXjXiXjXjXiXiX-X-X[.G.A.A.A.D.`.iXnXmXmXnXmXmXmXBXBXBXBXnXnXnXnXnXnXnXnXmXmXnXnXnXnXnXnXnXnXnXzXzXzXzXzXzXzXzXzXjXjXiXjXiX-X-X-X-X-X-X-X-X-X-X-X-X=X=X=X&X{.{.{.{.{.{.{.[.`.`.`.P.P.L.L.V.V.M.M.M.M.M.M.M.M.m.e.6.q.t.t.6.6.$.0.                                                                                                                                                                        ",
"                                                                                                              [ ^ ( ( E ( -.-.-.:.5.5.9.8.9.v.n.b.D.H.H.H.H.I.I.I.I.L.L.L.L.I.I.L.D.n.8._ ~ N N { h.h.). X.X9X9XqXqXqXqXqXqXrXrXrXrXtXtXdXdXNXNXNXNXNXNXNXNXNXNXdXdXNXNXNXNXNXNXdXdXsXaX).a.F F { { h.G.(. X.X.X9X0XqXaXpXpXpXpXsXsXsXsXsXsXfXsXdXdXdXdXNXNXNXNXnXnXNXNXdXNXGXdXNXsXmXmX;Xg.f.g.G.).).oXaXqXqXqXwXrXsXsXsXNXNXNXGXGXGXGXGXGXGXGXGXGXGXGXGXGXGXGXGXGXGXNXGXGXGXGXKXGXGXHXGXGXGXHXpX Xj.^.nXPXVXNXGXGXGXGXHXHXHXHXGXGXGXGXGXGXGXGXNXNXNXNXNXNXNXBXnXnXnXnXNXNXdXdXsXpX-XS.g.].-XxXxXmXxXzXzXzXzXzXzXzXzXjXjXjXjXjXjXjXiXjXjXiXiX-X=X_.A.x.x.A.F.[.iXnXmXmXnXnXNXNXNXNXNXNXnXnXnXnXnXnXnXnXnXnXnXnXmXnXzXzXzXzXzXzXzXzXzXzXzXzXzXjXjXiXjXjXiX-X-X-X-X-X-X-X-X-X-X-X=X=X=X=X=X{.{.{.{.{.{.{.{.'.'.'.L.P.L.L.B.B.M.M.M.M.M.m.M.0.0.9.q.q.;.6.6.6.5.1.                                                                                                                                                                        ",
"                                                                                                              A / ( E E ( ` -.-.-.5.5.5.9.9.v.v.b.b.D.D.D.D.D.D.L.L.L.L.I.L.I.L.L.J.b.n.' ~ N N { f.h.).)..X9X9XqXqXqXwXwXwXrXrXrXrXtXtXdXdXNXNXNXNXNXNXNXNXNXGXDXDXNXNXNXNXNXNXNXdXsXpX;X).f.F { { f.h.).). XoX.X9XqXfXsXsXsXwXsXsXsXsXsXdXdXdXdXdXdXNXNXNXNXNXNXNXNXNXNXGXGXGXNXHXsXsXZXiXj.a.A.A./.XX+X9XqXfXrXrXsXsXsXNXNXNXGXGXGXGXGXGXGXGXGXGXGXGXGXGXKXGXGXGXNXNXNXGXGXKXGXKXKXHXHXHXHXdX|.s.^.mXBXBXJXNXGXGXGXGXHXHXHXHXGXGXGXGXGXHXHXHXGXNXNXNXNXNXBXNXNXNXBXNXNXNXdXdXsXpXiXa.g.oXiXxXxXzXzXzXzXzXzXzXzXzXzXjXjXjXjXjXjXjX0X0XzXiX-X=X*XD.x.x.A.A./.OXzXnXmXmXnXnXNXNXNXNXNXnXnXnXnXnXnXnXnXnXnXnXnXnXmXnXzXzXzXpXzXzXpXpXzXzXpXzXjXjXiXiXiX-X-X-X-X-X-X-X-X-X-X=X=X=X=X=XOX{.{.{.{.{.OXOX&X&X{.'.'.'.`.L.L.J.V.B.M.m.e.m.M.m.m.0.9.6.6.6.;.;.;.1.v.                                                                                                                                                                          ",
"                                                                                                                G / E E ` E ( -.-.-.5.5.8.9.v.v.b.b.D.D.D.D.D.D.H.L.L.L.I.L.L.L.H.J.D.n.] _ U N ~ { h.G.). X.X9X9XqXqXwXwXrXrXrXrXrXtXtXtXdXdXdXNXNXNXNXNXNXNXNXGXGXGXNXNXNXNXGXGXNXdXsXpX-X).a.S D { f.h.).). X.XuXqXyXfXsXsXsXsXsXdXsXdXdXdXdXNXNXNXNXdXNXNXNXNXNXNXNXNXGXGXGXGXHXHXHXBXZXfXj.f.h./.)..X9XaXqXqXrXrXsXrXgXNXGXGXGXHXGXHXHXGXGXGXGXGXGXGXGXGXGXHXBXGXGXGXGXGXGXGXKXKXDXHXJXaX|.s.|.pXBXVXNXGXKXGXGXGXGXGXGXGXGXGXGXGXGXGXGXGXGXGXGXGXGXGXGXGXGXGXGXNXNXGXGXGXGXNXnXiXa.S.@XiXzXxXzXzXzXzXzXzXzXzXzXjXjXjXjXjXjXjXiX0X0XpXjX-X=X_.b.z.x.x.A._.-XzXmXnXnXnXnXNXNXnXnXnXnXnXnXnXnXnXnXnXnXnXnXnXnXnXnXzXzXzXpXzXpXpXpXpXpXzXpXiXiXiXiX-X-X-X-X-X-X-X-X-X-X=X=X=X=X=XOX{.{.{.{.OXOX=X&X{.{.'.'.'.P.L.L.J.J.B.B.m.m.e.e.m.v.v.9.6.6.6.;.;.;.6.3.H                                                                                                                                                                           ",
"                                                                                                                J D $.W E ` ( ( -.-.-.5.5.9.9.v.v.b.b.D.D.D.D.D.H.H.H.L.I.I.L.L.L.L.J.n.8.' ^ N S { f.g.).)..XuX9X9XqXwXwXwXrXrXrXrXtXtXtXdXdXdXNXNXNXNXNXNXNXDXGXGXGXGXGXNXGXGXGXGXNXdXBXpX.XS.F F F [ f.G.).(..X9XqXyXfXsXsXsXdXdXdXdXNXNXNXNXNXNXNXNXNXNXNXNXNXNXNXGXGXGXGXGXGXHXKXHXGXHXHXsX).g.g.^. X.X.X9X9XqXwXrXrXtXNXNXNXNXNXHXHXGXGXGXGXGXGXGXGXGXGXGXHXBXHXGXGXGXGXGXGXKXKXJXNX9Xj.s.|.nXJXnXNXJXGXKXGXKXGXGXGXGXGXGXGXGXGXGXGXGXGXGXNXNXNXNXGXGXGXGXGXGXNXNXGXGXGXGXHXsX+Xg.^.4XjXxXxXzXzXzXzXzXzXzXzXzXjXjXjXjXjXjXjXjX0X0XpXiX;X[.D.x.z.z.A.F.[.iXzXmXnXnXnXnXBXnXnXnXnXnXnXnXnXnXnXnXnXnXnXnXnXnXzXzXzXzXpXpXpXpXpXpXpXpXpXiXiXiX-X-X-X-X-X-X-X-XOX-X-X-X-X=X=XOX=X{.{.{.{.{.{.*X{.*X*X*X%X'.P.P.L.L.J.J.B.B.m.m.e.e.v.v.v.9.6.6.;.6.5.6.9.4.                                                                                                                                                                            ",
"                                                                                                                  m / Y Y Q Q W ` %.-.5.5.5.9.v.v.b.b.b.b.D.D.D.D.D.D.D.D.I.L.L.L.L.J.n.n.] _ S z ~ { h.g.^. X.XuX9X9X9XqXwXrXrXrXrXrXdXtXtXdXdXdXNXNXNXNXGXNXDXGXGXGXGXGXNXGXGXGXGXGXNXNXBXaX+Xg.a.F F [ f.h.)..X+X9XqXqXfXsXdXdXtXdXdXNXNXNXNXGXGXGXGXNXNXNXNXNXNXNXGXGXGXGXGXGXKXGXDXKXKXDXJXmX Xg.g.^.).(.XX+X+XqXqXrXrXtXtXNXNXNXNXNXGXGXGXGXGXGXGXGXGXGXGXHXHXGXGXGXGXKXKXGXGXBXmX+Xg.g.).BXBXJXJXGXGXGXGXGXKXGXGXKXGXKXGXGXGXGXGXGXGXGXGXGXGXGXGXGXGXGXGXGXGXGXGXHXHXKXHXNXpX(.g.(.jXzXxXxXzXzXzXzXzXzXzXzXzXjXjXjXjXjXjXjXjXiX0XiX-X[._.x.z.2.z.D./.;XzXzXnXnXnXnXmXmXnXnXnXnXnXnXnXnXnXnXnXnXnXnXnXnXnXzXzXpXpXpXzXzXzXzXzXpXpXiXiXiXiX-X-X-X-X-X-X=X=XOXOXOX-X=X=X=XOX=X&X*X*X'.'.L.L.H.H.J.J.J.J.J.J.J.J.J.V.B.B.m.m.0.0.v.v.v.9.6.;.6.7.5.0.2.                                                                                                                                                                              ",
"                                                                                                                    S R E W W *.( ( %.-.5.5.9.v.v.v.b.b.b.D.D.b.b.b.D.D.D.D.I.L.I.L.H.b.n.8.' ~ z ~ { f.h.S.). X.XuX9X9XqXqXqXrXrXrXrXdXtXtXdXdXdXdXNXNXNXNXNXDXGXGXGXNXNXNXGXGXGXGXdXNXGXNXdXsX+Xg.F F [ { h.).:X:X+X9XqXaXrXdXdXtXtXdXdXNXNXNXGXGXGXGXNXNXNXGXGXGXGXGXGXGXGXGXKXGXKXKXGXGXKXGXHXBX9Xs.s.S./.S.(.oX+XqXqXwXrXrXnXnXNXBXNXGXGXGXGXGXGXGXGXGXGXGXGXGXGXGXGXGXGXGXHXBXwX^.s.s.XXZXVXGXNXGXHXKXKXGXKXKXGXGXGXGXGXGXGXGXGXGXGXGXGXGXGXGXGXGXGXGXGXGXGXGXGXGXGXGXHXGXNXnX^.^.].jXjXzXxXzXzXzXzXzXzXzXzXjXjXjXjXjXjXjXjXjXjXiXiX@X[.D.z.2.2.z.A./.-XzXzXnXnXnXnXmXmXnXnXnXnXnXnXnXnXnXnXnXnXnXzXzXnXnXzXzXpXpXzXzXzXzXzXzXpXiXiXiXiX-X-X-X-XOX;X-X=X=XOXOXOXOX-X=X=XOX=X&X*X'.P.J.B.b.v.v.v.v.v.v.m.m.V.V.B.B.B.m.m.e.m.0.v.v.9.9.6.6.;.7.5.2.G                                                                                                                                                                               ",
"                                                                                                                    j D E P E R ( ( $.-.5.5.9.9.v.v.n.b.b.b.b.b.b.b.D.D.D.I.L.L.L.L.H.D.b.v.2.) N z ~ f.f.g.(.). X.X9X9XqXqXwXwXrXrXrXsXdXdXtXtXdXdXGXNXNXNXNXNXGXGXGXNXNXNXNXNXNXGXGXGXGXNXNXNXsX.Xg.a.F { f.h.).).oX+X.XeXyXfXrXsXtXtXdXNXNXNXDXDXGXGXGXGXGXGXGXGXGXGXGXGXGXGXGXGXGXKXKXKXKXKXGXJXBXwX^.s.a.S.S./.XX+X9X0XwXqXnXsXrXNXNXNXNXGXGXGXGXGXHXHXGXNXGXHXHXGXGXHXHXnXzXoXg.s.s.-XZXmXBXGXGXGXGXGXGXKXKXKXKXGXGXGXKXGXGXGXGXGXGXGXGXGXGXGXGXGXKXKXKXKXGXGXGXGXGXGXGXGXBX9X^.^.OXjXjXzXzXzXzXzXzXzXzXzXzXzXjXjXjXjXjXiXjXjXiXiX-XoXF.b.] 2.z.x.G.[.iXzXnXnXnXnXnXnXnXnXBXnXnXnXnXnXnXnXnXnXnXnXnXnXzXpXpXpXzXzXzXzXzXzXpXiXiXiXiX-X-X-X@XOX-X-X-X-XOX=XOXOXOX-X-X-X-X;X=X&X*XP.J.v.3.4.%.%./ / / %.%.1.9.M.V.C.M.m.v.m.m.0.0.9.0.0.9.e.7.%.8.z.                                                                                                                                                                                ",
"                                                                                                                      A B R M E E ( ( %.%.5.5.9.9.v.v.n.b.b.b.b.b.b.D.D.D.I.L.L.L.L.L.J.b.v.2.' ~ z S { f.f.g.). X.X+X9X9XqXwXwXrXrXrXsXdXdXdXdXdXdXNXGXNXNXNXNXGXGXNXNXNXNXNXNXNXGXGXGXGXGXGXGXHXpX Xg.a.F G f.h.G.).[..X.XqXaXrXrXsXtXdXNXNXNXDXDXNXGXGXGXGXGXGXGXGXGXGXGXGXGXGXGXGXGXKXGXKXKXGXKXKXBXwX Xg.a.S.S.^.(.oX X+XpXqXwXsXNXNXNXGXKXKXKXGXGXNXNXNXNXGXGXNXNXNXBXpX@X^.s.s.^.jXmXnXKXGXGXGXGXGXGXKXKXKXKXGXGXGXGXKXGXGXGXGXGXGXGXGXGXGXGXGXGXKXKXKXKXGXGXGXGXGXGXGXHXBX#X^.(.-XjXjXxXzXzXzXzXzXzXzXzXzXzXjXjXjXjXjXiXjXiX-X-XOX_.D.z.] 2.z.b.F.oXiXmXnXnXnXnXnXnXnXnXnXnXnXnXnXnXnXnXnXnXnXnXnXnXzXpXzXpXpXpXzXzXzXzXpXiXiXiX-X-X-X-XOXOX-X-X-X-XOXOXOXOXOXOX-X@X-X;X=X{.P.J.v.3.%.$.$.( E R R ( $.%.6.9.M.M.v.v.v.v.m.0.9.9.0.9.9.T.6.9.z.                                                                                                                                                                                  ",
"                                                                                                                        D B R W E E ( $.%.-.5.1.9.v.v.n.n.b.b.b.b.b.b.D.D.H.I.L.L.L.L.J.D.b.n.8.' N x S { f.h.G.).(..X+X9X9XqXqXrXrXrXrXsXdXdXdXtXNXgXGXGXGXGXNXGXNXNXNXNXNXNXNXNXNXNXNXGXGXGXGXGXNXfX.Xg.a.F F f.h.G.). X.X+XaXqXwXsXsXsXdXdXdXNXNXNXNXNXGXGXGXGXGXGXGXGXGXGXGXGXGXGXGXGXGXKXKXKXKXGXKXJXmX+X^.a.g.^.^./.XX+X@XqXwXsXsXdXtXdXtXGXGXGXGXGXHXHXHXGXNXdXnXmX-XF.g.a.s.|.mXBXGXKXGXGXGXGXGXGXGXKXKXKXKXKXKXGXGXGXGXGXGXGXGXGXGXGXGXGXGXGXGXGXGXGXGXGXGXGXGXGXGXHXHXsX|.^.oX4XkXzXzXzXzXzXzXzXzXzXjXzXjXjXjXjXjXiXiXiX-X-XOX[.F.x.f.2.2.n.A./.+XpXnXnXnXnXnXnXnXnXnXnXnXnXnXnXnXnXnXnXnXnXzXzXzXzXpXzXzXzXzXzXpXpXpXiXiXiX@X-X-XOXOX=X=X=X=X-X=X-X=XOXOXOXOX@X@X-X;X&X`.H.b.9.6.&.$.....E X.....$.$.-.6.9.0.v.0.v.v.n.0.6.9.9.9.M.Y.1.v.A                                                                                                                                                                                   ",
"                                                                                                                          / / Y R E E ( %.%.1.5.9.9.v.v.n.n.b.b.b.b.b.b.D.D.H.H.D.H.H.D.D.b.b.z.] S x S { { f.h.).). X.X9X9XqXwXwXrXrXrXdXdXdXdXtXtXgXGXGXNXGXNXNXNXNXNXNXNXGXNXNXNXNXGXGXGXGXGXDXGXHXsX.Xg.a.F F f.g.).(. X X.X9XqXpXsXsXsXdXdXdXNXNXNXNXNXGXGXGXGXGXGXGXGXGXGXGXGXGXGXGXGXGXGXKXKXKXGXGXKXVXmX+Xj.s.g./.).(..X9XqXqXqXsXdXNXdXGXGXNXNXNXNXnXnXNXNXnXiXXXA.a.F g.-XVXHXKXKXFXKXGXGXGXGXGXGXGXKXKXKXKXKXGXGXGXGXGXGXGXGXGXGXGXGXGXGXGXGXGXGXGXGXGXGXGXGXGXHXHXBXqX|.(.OX4XjXzXzXzXzXzXzXzXzXjXjXjXjXjXjXjXjXiXiXiX-XOX[.I.A.z.[ 2.2.n.G.[.-XzXnXnXnXnXnXnXnXnXnXnXnXnXnXnXnXnXnXnXnXzXzXzXzXzXpXzXzXzXzXpXpXpXpXiXiX@X@X@XOXOXOXOX=X=X=X-X-X-X-XOXOXOXOX-X=XOX{.`.L.b.v.6.;.&.$.$.$.........*.*.-.-.9.0.v.v.v.v.v.m.6.6.9.v.B.v.z.G                                                                                                                                                                                     ",
"                                                                                                                          A D T R E E E ( %.1.5.8.9.v.v.v.v.n.b.b.b.b.b.b.D.H.H.D.D.D.D.D.D.b.n.2._ N x S { f.f.h.).(. X#X9X9XqXwXrXrXrXrXsXtXtXdXdXdXdXGXGXGXNXNXgXNXGXGXGXGXGXGXGXNXNXGXGXFXGXGXGXGXNXrX.Xg.a.F F a.h.g.).). X.X9XqXpXsXsXdXdXdXdXGXNXNXGXNXGXGXGXGXGXGXGXGXGXGXGXGXGXGXGXGXGXGXHXGXGXGXKXKXHXVXzX Xg.s.g.^.^. X.X+X0XpXfXsXsXNXdXsXsXsXmXmXfXfXaXoX^.a.G a.^.zXnXJXPXGXKXKXKXGXGXGXGXGXGXGXGXGXGXGXGXGXGXGXGXGXGXGXGXGXGXGXGXGXGXGXGXGXGXGXGXGXGXNXNXJXKXHXsXuX XoX-X4XjXxXzXzXzXzXzXzXzXjXjXjXjXiXiXiXiXiXiX-X-XOX`.D.z.] ] ] f.x.L.oXiXzXnXnXnXnXnXnXnXnXnXnXnXnXnXnXnXnXnXzXzXzXzXzXzXzXzXpXpXpXpXpXpXpXiXiX-X-X@XOXOX-X=XOXOX=X=X=X-X-X-X-XOXOX-X-X=X{.`.D.b.n.3.3.;.%.&.$.$.$.$.$.$.$.$.$.-.6.0.v.v.0.9.v.m.9.6.6.9.M.z.c.                                                                                                                                                                                      ",
"                                                                                                                            S ^ R W R E ( %.%.1.1.8.9.v.v.v.n.b.b.b.b.b.b.b.D.H.D.D.D.D.D.D.D.b.2.' S z z ~ { { h.g.^. X.X#X9XqXqXyXrXrXrXrXtXtXtXdXdXtXGXGXGXgXgXgXGXGXGXGXGXGXGXGXGXNXGXGXFXFXGXGXGXNXNXsX+X^.a.a.F F f.h.G.)..X.X9XqXqXsXsXdXdXdXNXNXNXNXNXNXGXGXGXGXGXGXGXGXGXGXGXGXGXGXGXGXNXGXKXGXGXGXGXGXKXBXmXpX Xj.s.j.g.G.(.XXoX+X0XaXpXpXpXpXpXiX-X+X).j.a.a.g.^.@XMXJXJXGXGXKXKXGXKXGXGXGXGXGXGXGXGXGXGXGXGXGXGXGXGXGXGXGXGXGXGXGXGXGXGXGXGXGXGXGXGXGXGXGXNXHXHXNXqX|.#X-X4X4XkXmXzXzXzXzXzXzXzXjXjXjXiXiXiXiXiXiX-X-XOX[.D.x.2.' ' f.z.A.[.@XpXzXnXnXnXnXnXnXnXnXnXnXnXnXnXnXnXnXnXzXzXzXzXpXzXzXzXpXpXpXpXpXpXpXiX-X-X@XOXOXOXOXOXOXOXOX=X-X-X-X-X-X@XOX-X=X{.L.H.b.c.v.9.6.6.;.%.%.%.%.$.$.$.$.$.( %.6.0.v.v.0.9.9.9.9.e.6.1.v.z.                                                                                                                                                                                        ",
"                                                                                                                              D T Y W R ( ( %.1.1.2.8.8.v.v.v.n.b.b.b.b.b.b.B.H.D.D.D.D.D.H.D.b.v.2.' S x z ~ { f.g.S.^. X#XuXeXqXqXyXrXrXrXtXtXtXtXtXtXGXGXFXgXgXgXGXGXGXGXGXGXGXGXGXGXNXNXFXFXFXFXgXgXNXBXnXqX).g.a.F { f.h.g. X.X+X9XqXqXyXsXdXdXdXdXdXdXdXdXNXNXNXNXGXGXGXGXGXGXGXGXGXGXGXGXHXHXGXGXGXGXGXGXDXHXHXBXBXmX.Xg.f.f.f.g.S.).(.;X;X-X-X-X[.).g.f.f.f.f.).aXBXJXJXKXGXGXGXNXHXJXNXGXGXGXGXGXGXGXGXGXGXGXGXGXGXGXGXGXGXGXGXGXGXGXGXGXGXGXGXGXGXGXGXGXGXGXGXHXNXyXuXuX0X-X4XjXjXzXmXzXzXzXzXzXzXjXjXjXjXiXiXiXiX-X-X@XoX_.A.z.' ' ' ] h.G.oXiXzXzXnXnXnXnXnXnXnXnXnXnXnXnXnXnXnXnXnXpXpXzXzXpXpXpXpXzXzXpXpXpXpXpXiX@X@X@X@XOXOXOXOXOXOXOXOX-X-X-X-X@X@X-XOX{.L.I.b.v.v.9.9.9.9.6.3.6.1.-.%.%.$.%.%.%.1.9.0.v.9.9.9.9.9.8.9.5.%.4.A                                                                                                                                                                                         ",
"                                                                                                                              A T Y Y W R E %.%.1.5.8.8.8.8.9.v.n.b.b.b.b.b.b.H.b.D.D.D.D.D.D.D.v.2.8.{ z x } ~ { f.g.^.(. X#XeXqXqXyXrXrXsXdXtXdXdXtXtXGXGXFXgXGXGXGXGXGXGXGXGXGXGXGXGXGXGXGXFXFXGXGXNXNXNXNXsXiX(.g.F F { f.h.). X.X+X9XeXqXsXdXdXdXdXdXdXdXNXNXNXNXNXGXGXGXGXGXGXGXGXGXKXKXGXHXGXGXGXGXGXGXKXGXKXKXHXNXBXMXzX).f.F a.f.f.f.h.G.G.G.G.f.f.{ { F h.;XmXJXKXKXKXKXGXGXGXHXCXNXVXGXGXGXGXGXGXGXGXGXGXGXGXGXGXGXGXGXGXGXGXGXGXGXGXGXGXGXGXGXGXGXGXGXGXKXGXNXsXeX|.9X0X-XjXlXjXiXzXzXzXjXjXjXjXjXjXjXiXiXiXiXiX-X-X;X[.D.z.[ ' ' ' f.x./.oXiXzXzXnXnXnXnXnXnXnXnXnXnXnXnXnXzXnXnXnXpXpXpXzXzXpXpXpXzXzXpXpXiXpXiXiX@X@X@XOXOXOXOXOXOXOXOXOX-X-X-X-X@X-X4XOX`.I.c.c.v.9.9.9.9.9.3.3.3.3.1.%.&.$.%.%.1.6.0.0.0.9.9.9.5.M.5.) / / D                                                                                                                                                                                           ",
"                                                                                                                                S ( M Y R E ..$.%.1.5.8.8.9.9.9.v.n.v.v.b.b.b.b.b.b.D.D.D.D.D.b.b.b.z.' ~ x x ~ { { f.h.).^..X9XeXqXqXwXrXrXrXrXdXdXdXNXNXNXGXFXFXGXGXGXGXGXGXGXGXGXGXGXGXGXGXGXGXGXGXNXgXNXNXNXgX0X XS.f.F F { h.).(.oX+X9X9XqXyXfXfXfXdXNXNXNXdXdXdXNXNXNXNXGXGXGXGXGXGXGXGXGXGXGXGXGXGXGXGXKXGXKXKXHXHXHXBXBXmXiX).a.F ~ { ~ { { { { { ~ { f.).+XpXmXBXHXKXKXKXKXKXGXGXNXCXCXNXNXGXHXHXGXGXGXKXGXGXGXGXKXKXKXHXHXHXGXGXGXGXGXGXKXKXKXGXGXGXGXKXGXGXGXsXeX#X#X@X-XjXjXjXjXpXpXiXjXjXjXjXjXjXiXiXiXiXiXiX-X-XOX*XL.x.] ' ' ' ] z.A.(.-XpXzXzXnXnXnXnXnXnXnXnXnXnXnXnXnXzXzXnXnXsXsXpXpXpXpXpXpXpXpXiXiXiXiX0X@X-X@XOXOXOXOXOXOXOXOXOX-X-X@X@X-X-X=XOX`.I.b.n.v.v.9.9.9.9.9.9.3.3.3.1.1.%.%.-.-.5.6.9.9.9.6.9.9.5.-.( B B D                                                                                                                                                                                             ",
"                                                                                                                                  D N T Y P E E %.1.1.5.1.3.9.9.9.v.n.n.b.b.b.b.D.b.D.D.b.b.b.b.b.b.b.8.{ N x z ~ ~ { f.g.). X.XuXeXqXwXwXrXrXsXdXdXdXNXNXNXGXFXGXGXGXGXGXGXGXGXGXGXGXGXGXGXGXGXGXGXGXGXGXFXFXGXNXgX0X XS.f.[ F f.h.G.(..X+X9XeXqXaXfXsXsXdXtXtXdXDXGXNXGXNXNXNXdXGXGXGXGXGXGXGXGXGXGXGXHXGXGXHXHXHXHXGXdXdXNXBXBXZXiXS.F S ~ ~ ~ ~ ~ ~ ~ ~ { h.(.+XaXqXwXsXNXGXGXGXGXGXGXGXNXNXKXHXHXGXGXGXGXGXGXGXGXGXGXGXGXGXHXHXHXGXGXGXGXGXKXKXKXKXGXGXGXGXGXGXGXNXqX#X.X+X-X-XjXjXjXjXiXpXjXiXjXjXjX4X4XiXiXiXiXiX-X-X-X=X`.G.f.] ' _ ' ] z.F.[.-XpXpXsXsXnXnXnXnXnXnXnXnXnXnXnXzXzXzXnXnXsXsXpXpXpXpXpXpXpXiXiXiXiX-X@X@X-X@XOXOXOX{.{.{.OXOXOX-X-X@X@X-XOX{.`.L.D.b.n.v.0.9.9.9.9.9.3.3.3.3.3.1.1.6.5.5.6.6.9.9.6.6.1.-.( W Y R B                                                                                                                                                                                               ",
"                                                                                                                                    D T b W Y ( ) %.1.1.1.1.8.9.9.9.v.v.n.b.b.b.b.D.D.D.b.b.b.b.b.b.b.n.8._ z k z ~ { { f.g.).|..XuX9XqXwXwXrXrXdXtXdXNXdXdXNXGXGXGXGXGXGXGXGXGXGXGXGXGXGXGXGXGXGXGXGXGXGXGXGXGXGXGXdXwX.X).g.a.a.a.g.j. X+X9XeX9X9XqXqXwXsXdXtXdXDXDXGXGXNXNXNXNXNXNXNXNXNXNXNXNXNXGXGXGXGXGXGXGXGXGXGXGXHXGXNXpX(.g.F D S N N S ~ ~ ~ ~ F { h.S.(.oX+X0XpXpXsXsXNXGXGXGXGXHXHXGXGXGXGXGXGXKXKXGXGXGXGXGXGXGXGXKXKXKXGXGXGXKXKXGXKXKXKXKXKXKXKXGXGXNXrXuX#X+X@XiXjXjXjXjXjXjXjXjXjXiXjX-X-XiXiXiXiXiXiX-X-X=X[.G.x.] [ ' _ ' ] x.L.;X-XpXpXnXsXnXnXnXnXnXnXnXnXsXsXzXzXzXzXzXzXpXpXpXpXpXpXpXpXpX0X0X0X0X@X@X@X@X@XOXOXOX{.{.{.OXOXOXOXOX@X@XOX{.'.L.D.b.n.v.v.9.9.9.3.3.9.v.v.9.9.3.3.6.6.6.6.6.6.6.6.6.%./ R W M Y B A                                                                                                                                                                                               ",
"                                                                                                                                    J m E b W R ( %.%.%.1.1.5.8.9.9.v.v.n.b.b.b.D.D.D.D.b.b.b.b.b.b.b.n.n.' U l k z ~ { { f.g.). X.X9XqXwXwXrXrXrXtXtXtXtXDXgXNXGXGXGXGXGXGXGXGXGXGXGXGXGXGXGXGXGXGXGXGXGXGXGXGXDXGXGXdXsX9X Xg.a.a.a.g.j. X+XaX9X9X9XeXqXrXsXdXtXtXtXtXNXNXNXNXNXNXNXNXNXNXNXNXGXGXGXGXGXGXGXKXGXNXNXCXBXnX9X Xg.f.F F A S F h.G.f.F F F { ] f.G.(.[.[.oX+X0X9XqXrXrXdXdXDXHXHXHXGXGXGXGXGXGXGXGXGXGXGXGXGXGXGXKXKXKXKXGXKXGXKXGXKXGXGXKXKXGXGXGXNXrXeX#X#X0XiXjXjXjXjXjXjXjXjXjXiXiXiX@X-X-XiXiXiX-X@X-XOX[._.A.f.] [ ' ' ' f.A._.-XiXpXzXnXwXnXnXgXgXsXsXsXsXsXsXzXzXzXzXpXpXpXpXpXpXpXpXpXiXiX0X0X0X@X@X@XOX@XOXOXOX{.{.{.{.OXOXOXOXOXOXOX=X'.L.H.b.n.v.v.9.9.9.9.9.3.v.v.m.v.9.9.9.9.6.6.6.6.5.;.-.$.R M b b W B D                                                                                                                                                                                                 ",
"                                                                                                                                      A D I Y W R / $.&.%.1.5.5.8.9.v.v.n.b.b.b.D.D.D.D.D.D.b.b.b.b.b.n.n.8._ U k x N ~ { { f.g.).(. X9XqXwXrXrXrXtXtXgXgXgXgXNXIXGXGXGXGXGXGXGXGXGXGXGXGXGXGXGXGXGXGXGXGXGXGXGXDXGXGXDXdXsXqX Xg.a.a.a.f.g.).:X9X9XeXeXqXqXpXpXrXrXgXgXgXgXgXgXnXNXNXNXNXNXNXNXGXGXGXgXNXNXGXGXJXHXnXpX@X(.g.a.F F J F g.XXiXmXBXmXpX.Xg.F F [ f.A.S./.(.oX+X9X9XqXqXqXqXqXyXrXnXNXBXNXNXHXHXHXGXGXGXGXGXGXGXGXGXGXGXGXHXGXGXGXGXGXGXGXGXGXNXNXNXnXqXuX#X+X0XiXjXjXjXjXjXjXjXjXiXiXiX-X@X@X@XiXiX-X-X-X;X{._.D.x.] [ [ ' [ ] z.F.*X-XiXpXzXnXwXgXnXnXnXnXnXnXnXzXzXpXpXpXpXpXpXzXzXzXpXpXiXiXiXiX0X0X0X@XOXOXOXOXOXOX{.{.{.{.{.OXOXOXOX=X=XOX{.L.B.b.c.v.v.9.9.9.9.9.9.v.n.b.B.v.v.9.9.9.6.6.6.;.-.-.E Y M b b b B D                                                                                                                                                                                                   ",
"                                                                                                                                        S N I Y Y R / %.%.1.1.5.8.9.v.v.n.n.b.b.b.D.D.D.D.D.b.b.b.b.b.b.n.8.' ^ z k k N ~ { { f.g.S.)..X+XqXwXrXtXtXtXgXgXgXgXgXIXGXGXGXGXGXGXGXGXGXGXGXGXGXGXGXGXGXGXGXGXGXGXGXGXGXGXGXNXNXsXwX X^.g.a.F f.h.)..X9XqXeXeXqXaXqXwXrXrXgXnXgXnXnXNXNXNXNXNXNXNXNXgXgXNXNXNXBXBXBXBXpX+X).g.a.F F F f.).;XxXZXHXGXGXGXHXBXmX-X_.S.g.g.g.g.j.^.(. X.X+X9XqXqXqXqXqX9XeXqXqXrXsXNXGXNXGXGXKXKXKXKXKXGXGXGXGXGXGXHXHXGXGXGXVXJXVXCXCXzX0X9X.X#X9XiXiXjXjXjXiXjXjXiXjX-XiXiX-X@X@X@X@X-X-X-X;XOX`.D.x.f.] [ [ ' [ z.A._.;XiXpXpXpXgXgXgXnXnXnXnXnXnXnXpXpXpXpXzXzXpXzXpXpXpXpXiXiXiX0X0X0X0X@XOXOXOXOXOX{.[.[.[.[.{.OXOXOXOXOXOXOX{.`.H.m.v.3.9.9.9.6.9.9.9.9.v.n.b.b.v.v.9.3.2.3.6.-.-.$.E Y b n K P B B                                                                                                                                                                                                     ",
"                                                                                                                                          S V P P P R / %.%.%.%.1.8.9.v.n.n.b.b.b.b.b.b.b.b.b.b.D.b.D.b.n.v.8.) ^ l k x N ~ { { f.g.S.). X+XqXrXtXtXtXgXgXgXgXgXIXIXGXGXGXGXGXGXGXGXGXGXGXGXGXGXGXFXGXGXGXGXGXGXGXGXGXNXNXnXnXnXqX#X^.g.f.F { f.). X+X9XqXqXqXqXqXwXrXrXsXrXsXdXdXdXdXDXDXDXDXdXNXnXnXnXpXpX-XoXS.g.f.a.a.a.g.j.aXfXZXBXfXnXNXGXGXGXGXGXNXNXBXBXpX0X Xj.g.s.j.^.^.(. X.X+X9XqXqXqXqX9XeXeXeXeXeXrXdXNXNXNXNXGXGXGXGXGXGXGXGXGXGXGXGXBXBXBXnXrXwX#XXX X+X@X0XiXjXjXjXjXiX4X4X@X@X-X-X-X-X@X@X@X@X-X-X;X[._.D.x.z.] [ [ [ [ ] x.L.=X-XiXpXzXwXgXgXwXpXsXsXsXsXzXzXpXpXpXpXzXpXpXpXpXiXzXwXhXhX0X0X0X0X@X@X@X@XOX+XOX[.[.[.[.{.{.OXOXOXOXOXOX{.`.I.b.v.3.3.9.9.6.6.9.6.8.9.v.v.n.n.v.8.8.8.1.1.%.%.$.E P n n L P Y B m                                                                                                                                                                                                     ",
"                                                                                                                                            D n b P Y ( ) ) %.%.1.8.8.9.v.n.n.b.b.b.b.b.b.b.b.b.H.x.b.b.b.v.v.' _ N k k x N ~ { { f.h.S.). X9XwXrXtXtXtXgXgXgXFXIXIXGXGXGXGXGXGXGXGXGXGXGXGXGXGXGXFXGXGXGXNXNXNXNXNXNXNXNXnXnXNXNXrXuX(.g.a.F F f.g.(.oX.X9X9X9XqXqXqXqXqXaXaXrXyXyXyXyXrXrXsXpXpX0X+X X^.g.a.a.a.F F a.g..XaXBXHXHXdXNXNXNXNXGXgXFXGXGXGXGXGXGXHXBXBXmXpX.X^.j.g.j.^.^.|. X.X+X0X9XqX0XqXqXqXqXeXeXeXeXqXyXrXdXNXGXGXGXGXGXGXBXNXBXBXmXaX9X|.|.(.^.(.oX@X@XiXjXiXiXiXiX4X@X@XOXOX-X-X-XiX@X0X@X-X-XoX`.D.D.z.[ [ ' ' ] ] f.D.[.-XiXpXzXgXwXpXgXwXpXsXsXsXsXzXzXpXpXpXpXpXpXpXzXpXjXzXwXhX0X0X0X0X@X@X@X@X+X+XOXOX[.[.[.[.{.{.OXOXOXOXOX{.{.`.D.c.3.3.3.3.3.6.6.6.6.5.8.9.v.v.v.9.9.8.1.1.%.%.$.E P v v b P P M N                                                                                                                                                                                                       ",
"                                                                                                                                            m V f P K Y ( ( ( %.1.1.5.8.z.v.n.n.b.b.b.b.b.b.b.b.D.D.D.b.b.b.v.9.' ^ M k k k z ~ { { f.h.g.)..X9XrXrXtXtXGXGXGXGXGXGXGXGXGXGXGXFXGXGXGXGXGXGXGXGXFXFXFXGXGXNXNXNXGXGXNXNXNXgXgXgXNXNXnXqX#X^.g.s.a.f.h.G.:X:X.X.X.X.X.X+X+X+X+X.X+X.X.X.X.XXX(.).g.g.h.f.F F F J F g..XfXdXHXDXDXHXGXNXNXNXNXGXGXGXGXGXGXGXGXGXNXNXNXNXNXBXBXBXnXqX#X|.j.j.j.^.^.^.(. X#X+X0XqXqXpXpXsXyXyXyXeXeXuXuXeXqXrXsXsXaXaX+X.X X).j.g.g.^.^.oX@XOXiXjXjXjXiXjX0X@X@XOXOX-X-X@X@X@X@X-X-X+X:X[.G.x.z.] ' [ ' ' ] f.A._.oX-XiXpXwXrXwXpXpXwXpXpXpXpXwXpXpXpXpXpXpXpXpXpXpXwXwXwXwX0X0X0X0X0X@X@X@XOX+X+XOX[.{.{.{.{.[.[.[.OXOX[.[.`.I.I.b.c.9.9.6.6.6.6.6.6.6.1.5.6.9.9.3.9.8.1.1.5.%.$.E P v b b b M W B                                                                                                                                                                                                         ",
"                                                                                                                                              m T n I I W ( R %.%.1.5.5.8.8.v.n.n.n.b.b.b.b.b.b.b.D.D.b.b.b.n.v.8.) ^ N k k z z ~ { { f.f.g. X9XqXwXsXtXdXtXtXGXtXFXtXIXIXIXGXGXIXIXFXIXGXGXFXIXFXFXFXgXNXNXNXNXGXGXGXGXGXgXgXgXNXNXNXgXrXeX|.g.a.F ~ { f.h.G.).).).).j.).G.).).^.S.g.g.g.g.f.f.f.a.J J F a.S.oX-XpXBXdXdXDXDXGXNXNXNXNXNXNXGXGXGXGXGXGXNXNXNXNXNXGXGXNXGXNXNXNXNXnXmXnXzX+X|.^.j.j.j.j.j.^.|.|. X.XuXeXqXwXwXpXaXqXqX9XuX.X X).(.).g.h.f.f.f.g.S.(.oX@X-X-XjXiXiXiX0X0X@X@XOX-X-X-X@X@X-X@X@X@XoX[._.A.z.[ [ ' ' [ ] z.A.L.[.-XiXiXpXwXwXwXpXpXpXpXpXpXzXzXpXpXpXpXpXpXpXpXpXpXwXwX0X0X0X0X0X@X@X+X@XOXOXOXOX[.{.`.`.`.'.'.{.[.{.{.[.`.`.I.D.b.v.9.3.3.3.6.6.6.6.6.6.6.6.6.3.1.9.1.1.5.-.$.E W v b f W B R /                                                                                                                                                                                                           ",
"                                                                                                                                                m N I I Y W ( ( ) %.%.5.5.8.8.v.v.n.n.n.n.n.n.n.b.b.b.b.b.b.n.v.8.5.) T N l k k z S { { f.f.g. X.XqXsXsXNXdXdXNXGXGXGXGXGXGXGXGXIXIXGXGXGXGXGXGXGXGXGXNXNXNXGXGXGXGXGXGXGXGXGXGXGXGXGXGXGXdX9X).h.{ } z ~ ~ { { { { f.f.f.f.f.f.f.a.a.F F H A J s.j..XaXfXfXfXsXnXnXrXrXgXgXgXgXgXgXgXgXgXNXGXGXGXNXNXNXNXNXNXNXGXGXGXGXGXNXBXBXBXBXBXBXBXBXNXNXBXdXyXuX|.j.j.j.j.j.j.j.j.^.^.^.^.(.^.^.^.^.^.S.f.f.[ [ F G [ h./.].OX-X-X4XiX-XiX0XiX-X@X@X-X-X-X-X-X@X-X@X@XoX:X`.D.z.] [ [ ' [ [ ] x.L.[.-X-XiXwXwXwXwXzXzXzXpXpXzXzXpXpXpXpXpXpXpXpXpXpXiX0X0X0X0X0X0X0X@X@X@X@XOXOX[.[.[.{.`.`.`.`.`.'.`.`.`.`.`.L.L.H.b.n.v.8.9.1.1.6.;.;.;.;.;.6.1.1.1.1.9.1.5.-.-.$.W b b b P V / D x                                                                                                                                                                                                           ",
"                                                                                                                                                  J N M Y Y ( / ( ( %.5.5.5.8.8.v.v.v.v.n.v.v.n.n.b.b.b.b.b.b.v.8.8.5.) ~ N l k x z S { { f.g.g.)..XqXpXsXdXNXNXNXGXGXGXGXGXGXGXGXGXGXGXGXGXGXGXNXGXNXNXNXNXGXGXGXDXGXGXGXGXGXGXKXKXGXGXNXpX.X).{ ~ z z z z z z z z } } } S F F F F a.g.S.[.;X-XiXpXfXsXfXdXDXDXrXrXrXgXgXgXhXhXgXgXgXgXNXNXGXGXGXNXNXNXNXNXNXNXGXGXGXGXNXNXNXNXNXNXNXNXGXGXGXKXGXGXGXGXNXdXsXsXwX0X+X X|.j.s.s.g.g.s.s.s.s.a.a.f.G [ [ [ ] z.D.[.oX-X-X-X-XiX-X0X@X-X@XOX@X-X-X-X@X@X@X@X@XOXOX&XL.b.f.[ [ [ ] ] f.x.D.`.;X-X0X0XwXwXwXwXwXwXwXwXwXwXwXpXwXwXwXwXwXpXpXpXpXiXiX0X0X0X0X9X+X@XOXOXOXOX[.[.`.`.`.I.I.L.L.L.I.I.I.L.L.H.H.H.B.v.v.9.9.3.1.%.;.;.;.%.%.;.;.1.1.1.6.9.6.5.%.$.E W b P P B B D m                                                                                                                                                                                                             ",
"                                                                                                                                                    J N M W I E E ( ( %.%.1.5.8.9.8.v.v.v.v.v.v.n.z.n.n.n.n.n.v.9.9.5.5.) ^ N z k l z z ~ { f.h.h.). X9XqXsXsXNXgXtXNXtXgXGXNXNXGXGXGXGXNXNXNXNXNXNXNXNXNXNXGXGXDXDXGXGXDXDXdXDXDXDXfXaX.XS.f.F J z z z z z z z z z z ~ { h.).:X;XiXaXaXaXaXaXpXNXNXtXrXrXrXtXtXtXdXdXtXtXtXtXgXgXgXFXFXGXGXDXDXNXNXNXNXNXNXNXNXNXNXNXNXGXGXGXGXGXGXGXGXGXGXtXtXGXGXGXGXGXGXNXNXNXBXnXnXnXnXzXzX0X9X9XuXuX X X).S.f.f.f.f.h.G._.oX@X-X-X-XjXiX0X@X@X@XOX@X@X-X-X-X@X@X@X@X@XOXOX`.D.z.[ [ [ [ ] ] x.D._.=X-XiX0X0XwXwXwXwXwXwXwXpXpXpXpXpXpXpXpX0XwXpXpXiXiXiXiX0X@X@X@X@X@X+XOXOX[.{.[.`.`.L.L.I.I.J.J.H.H.B.B.B.b.b.b.v.v.v.9.9.6.6.1.6.%.%.;.%.%.%.%.%.1.6.9.6.6.6.%.( R P K P b B D A                                                                                                                                                                                                               ",
"                                                                                                                                                      S B b W W E E ( ( ) %.5.5.8.2.9.9.v.9.9.9.8.8.8.z.z.n.n.v.v.9.5.5.) ) ^ M n k k k z ~ { f.h.g.). X9XqXrXrXgXtXNXNXGXGXGXNXNXGXGXGXNXNXNXNXNXNXNXNXNXNXGXGXGXGXdXdXdXsXsXpXqX.Xj.g.a.F J J J z z z z z z z } U ~ { h.G.:X:X:XaXaXaXfXfXfXdXrXrXrXrXgXrXrXtXrXtXtXtXtXtXdXGXtXdXDXDXDXGXGXGXNXNXNXNXGXGXGXGXNXNXNXNXGXGXGXDXGXDXDXDXGXGXGXGXGXGXGXGXGXNXNXNXGXNXGXNXNXNXNXNXNXnXNXNXNXNXsXpX-X).g.h.h.G.).*X-X-XiX-XiX-X@X@X@X@X@X@X@X@X-X-X@XOX@X@X@X@XoX[.I.b.f.] [ [ [ ] f.D._.{.;X-XiX0X0XwXwXwXwXwXpXpXwXwXpXwXwXwXwXwX0XwXpXiXiXiXiX0X@X@X+X+X@X+XOX[.[.{.`.`.L.I.I.J.J.H.H.B.B.m.v.v.v.v.v.v.9.9.9.9.5.6.6.;.;.%.%.%.%.%.&.%.%.1.6.9.6.6.1.) E W W W P W %.S                                                                                                                                                                                                                 ",
"                                                                                                                                                      j N b W P W R R E ( ) 1.1.1.2.2.2.8.8.8.8.9.9.8.8.z.n.z.8.9.9.6.5.5.-.( T U n k k k x S { f.h.g.). X.X9XqXrXtXtXgXNXNXNXNXNXNXgXgXgXgXgXtXNXNXNXdXgXtXtXtXtXrXwXqX9X#X X).g.f.F F S S ~ { ~ ~ ~ } z z z z z U ~ { h.G.).(.oX+X9XqXqXyXyXrXsXsXsXsXsXsXtXdXdXNXNXNXgXtXtXtXdXdXDXDXDXDXNXNXNXNXNXNXNXGXDXGXNXNXNXNXGXGXGXGXDXGXGXGXGXGXFXgXGXFXgXgXgXFXGXGXGXGXGXGXGXGXGXGXGXNXGXGXGXGXNXnXiX(.S.G.)._.[.;X-XiXjX-X0X0X-X@XOXOX@X@X@X+X@X+X@XOX@X@X@XoX[._.A.z.] [ [ [ ] ] b.L.*X=X-XiXiX0XwXwX0XwXpXpXpXpXwXwXwXwXwXwXwXwX0X0XiXiXiX0X0X0X@X@X@X@X+XOXoX[.`.`.`.I.I.H.H.H.H.H.B.B.m.v.v.9.9.9.9.9.9.6.6.6.6.;.;.;.-.%.%.%.%.%.&.%.1.1.9.9.1.1.%.( R W W W W R /                                                                                                                                                                                                                   ",
"                                                                                                                                                        j D b P P Y W W E ( %.%.1.1.2.2.1.1.5.5.9.5.5.8.8.8.8.8.8.8.9.6.6.5.-.) T I n l k k z S { f.f.g.g.^. X#XqXyXrXrXrXrXrXrXrXrXrXrXrXrXrXrXrXrXrXrXwXqXqX9X9X.X X|.^.g.a.a.F S F { { f.f.h.h.h.f.f.{ } } z z U ~ ~ ] h.G.(.XX#X+X9XqXqXrXyXsXsXsXsXrXsXdXdXrXrXrXtXtXtXdXdXdXdXdXdXdXNXNXgXNXNXNXNXNXGXDXGXNXgXNXNXGXGXGXGXGXGXGXDXFXGXGXGXFXFXFXFXFXFXFXGXGXGXGXGXGXGXGXGXGXGXGXGXGXGXNXBX#X^.S./.[.[.oX-X-XiXjXiX0XjX@XOXOX@X@X@X+X+X+X@X@X@X@X@XOX[._.L.x.z.] ] ] ] f.x.L.[.=X;X@XiX0X0XwXwX0X0XpXpXpXpXwXwXwXwXwXwXwXwX0X0XiXiX0X0X0X@X@X@XOX+XOX[.[.`.`.I.I.L.H.H.B.B.B.B.B.v.m.0.9.9.9.9.9.6.6.6.6.6.%.;.-.;.-.%.$.&.%.&.%.%.1.6.6.5.1.%.( ^ R W W E E /                                                                                                                                                                                                                     ",
"                                                                                                                                                          J D M W P I Y W E $.$.1.1.1.5.1.%.-.5.5.5.5.5.8.8.8.8.8.8.8.5.6.5.5.5.) ( T M N l k k z S { f.h.h.h.). X.X9X9X9XeXqXqXeX9X9X9X9X9XeXeXeXuX.X.X X).^.^.g.g.f.a.a.F F F F a.g.g.S.).(. X X X X(.).S.f.S z z ~ ~ { h.G.).(.(.#X+XuXeXqXrXrXsXsXsXrXrXgXrXtXtXtXtXtXdXdXdXdXdXdXdXdXdXNXNXNXNXNXtXtXGXGXGXNXNXGXGXGXGXGXGXGXGXGXGXGXGXGXGXGXGXGXGXFXgXgXNXNXNXGXGXGXGXGXGXIXGXGXGXNXNXpX+X^.^.(.].oX@X@X-XiXiXiXiXiX-X@X@XOXOX@XOX@X@X@X+X#X+X@XOX[.`.D.z.f.f.f.] ] f.b.D.[.OXOX@X0X0X0X0XwXwXwXwX0X0X0XwX0X0X0XwXwXwX0X0X0X0X0X0X0X0X0X@X@XOXOXoX[.`.`._.L.I.I.H.H.H.B.B.b.v.v.v.v.0.9.9.9.6.6.6.6.6.6.6.6.6.%.%.-.*.$.$.&.&.&.%.6.6.3.5.$.( ( R R W E R %.                                                                                                                                                                                                                      ",
"                                                                                                                                                            A D b W P I Y W E E ( %.1.1.1.%.%.-.-.5.5.5.5.5.5.5.8.8.8.8.5.5.5.5.5.%.( ^ I n l k k x z ~ { f.h.h.S.^.).(. X X X X X X X X X|.|.|.j.j.j.g.g.g.f.a.a.a.a.a.a.f.f.g.j.).(..X+X9XqXwXpXwXwXwXiXiX+X).{ ~ } } { f.h.G.).(. X.X9X9XqXqXwXrXrXrXrXrXrXgXtXtXtXtXdXdXdXdXdXdXdXdXdXdXNXNXNXNXGXIXgXgXGXGXNXNXGXGXGXGXNXNXGXGXGXGXGXGXGXGXDXDXDXDXGXNXNXNXNXNXNXGXGXGXDXDXGXFXGXNXNXrX9X X(.(.XXoX@X@X-XiXiXiXiXiXiX-X@X@XOXOXOXOXOXOXOX@X+X+XOXOX`.D.x.f.] ] ] f.f.x.G._.oX+X+X@X0X0X0X0XwXwXwXwX0X0X0X0X0X0X0X0X0X0X0X0X0X0X0X0X0X@X+X@XoXOXoX[.`._.L.I.I.I.H.D.J.B.B.m.v.v.v.v.v.0.9.9.6.6.6.6.6.6.1.1.4.&.%.%.$.*.$.$.%.&.%.%.6.6.1.%.( Q Y E E E R %.                                                                                                                                                                                                                        ",
"                                                                                                                                                              A T K K Y Y I E W W E ( %.1.1.-.-.-.-.5.5.5.5.5.5.8.8.8.8.5.6.6.5.9.6.1.) ( ^ U N k k x x } ~ { { f.f.f.h.h.h.g.g.g.g.g.g.g.g.g.g.g.g.a.a.a.s.s.s.s.s.g.g.j.). X.X9XaXpXpXsXsXsXNXsXsXrXrXsXnXnXpX;Xf.F F S { f.x.G.). X.X.X+X9X9XwXrXrXrXrXtXtXtXtXtXtXtXtXtXdXdXdXdXdXdXdXdXNXNXNXNXGXFXtXIXFXFXgXgXGXGXNXNXNXNXGXGXGXGXGXGXGXGXGXGXGXGXGXNXNXNXNXNXNXFXIXIXIXIXGXGXGXNXrXuX X|.#XoX+X@X@X-XiXiXiXiXiXiXiX-X@X@X@X@X@X@X@X@XOXOX@X+XOX[.F.x.f.] ] ] f.f.x.G.`.[.OX@X@X@X0X0X0X0XpXpX0X0X0X0X0X0X0X0X0X0X0X0X0X0X0X0X@X@X@X+X+X+XoXoX[.`._.I.I.I.L.H.H.H.B.B.b.v.v.v.v.v.0.9.9.9.6.6.6.5.5.5.%.%.;.%.%.$.*.*.$.$.%.&.%.1.1.1.%.( ( W E Q W ../                                                                                                                                                                                                                           ",
"                                                                                                                                                                S T b b Y I Y W P W E ( ) %.%.%.-.-.-.5.5.5.5.5.5.8.8.8.9.6.6.6.9.5.5.5.) ) ^ U U z k x x z z } } } } ~ } F ~ F { { f.f.f.g.g.g.g.g.g.g.g.g.g.j.^.). X.XuXqXfXsXaXsXsXsXsXdXtXtXtXdXdXdXdXdXdXfXfXfXj.F J F { f.A.).). X.X.X+X9XqXwXrXrXdXtXtXtXtXtXtXtXtXtXdXdXdXtXtXtXdXdXdXdXtXtXGXGXGXIXFXFXgXgXgXgXNXNXNXNXGXGXGXGXGXGXGXGXGXGXGXGXGXGXGXGXGXGXGXFXIXIXGXGXGXNXNXrXuX|. X#XoX+X@X@X@X@X0X0XiXiXiXiXiX-X@X@XOX@X@X@X@X@XOXOXOXOX[./.A.f.] ] 2.] f.x.G._.[.OX@X@X@X@X0X0X0X0X0X0X0X0X0X0X0X0X0X0X0X0X0X0X0X0X+X+X@X@X+X+XoXoXoX[.`.`.I.I.I.I.H.H.H.H.B.b.v.v.v.v.v.v.9.9.9.6.6.6.5.5.5.%.%.%.&.&.$.$.$.$.$.$.%.&.%.%.-.%.) ( ( W ..W X.$.                                                                                                                                                                                                                            ",
"                                                                                                                                                                  S B v P P b P P P W E ( ( -.-.-.-.-.-.-.5.5.5.5.5.5.5.8.8.8.8.8.8.8.5.5.) _ _ U U z x x x x x x z z z z z z } } ~ { { f.h.g.j.).).).(. X X.X.X9X9XqXqXyXrXrXtXsXdXdXdXtXtXtXtXtXtXGXGXDXDXDXDXDXdXaX(.s.F { { f.h.).).). X.X+X9XqXqXrXdXdXdXtXtXtXtXtXtXtXrXtXtXtXtXtXtXtXtXtXtXtXtXtXGXGXGXGXdXNXNXNXtXtXNXGXGXGXGXGXGXGXGXGXFXFXFXFXIXIXIXIXIXFXFXFXGXGXGXNXNXNXqXuX|.|. X+XoX@X@X@X@X@X@X0XiXiXiXiXiX-X@X@X@X@X-X@X-XOX@XoXoX[._.A.x.z.2.] ] z.z.D._.{.OXOX@X@X@X@X0X0X0X0X0X0X0X0X0X0X0X@X@X@X@X@X@X@X@X@X@X@X+X+X+XOXOX[.[.].`._.I.I.I.H.H.H.H.b.b.b.v.v.v.v.9.9.9.9.9.3.6.6.5.-.-.-.-.%.$.$.$.$.( ( $.$.%.%.%.%.%.%.( E E *.b X.R A                                                                                                                                                                                                                             ",
"                                                                                                                                                                    m T b b P K K K P W W E ( ) %.%.-.-.-.-.5.5.5.5.5.5.8.8.8.8.9.9.8.8.5.1.) ) ~ U U z l k k k l l l l l z z z } ~ { f.h.g.). X.X9X9XaXaXaXaXaXqXwXwXrXrXrXtXtXtXtXtXtXtXtXtXtXtXtXtXtXtXIXDXDXIXIXtXsX0Xg.F a.f.f.h.).).(. X.X.XuXqXqXsXsXdXdXdXtXtXtXtXtXrXtXtXtXtXtXtXtXtXtXtXtXtXtXIXIXGXGXdXNXNXNXtXtXtXtXGXGXGXGXIXIXIXGXFXFXFXFXIXIXIXIXIXIXFXGXGXNXGXNXnXwX#X|.|.#X+XoX@X@X@X@X@X@X0X0XiXiXiX-X-X@X@X@X@X@X@X@XOX@XoXoX[.`.D.x.f.f.z.2.] z.b.F.[.OXOX@X@X@X@X0X0X0X0X0X0X0X0X0X0X0X@X@X+X+X+X+X+X+X@X@X+XoXoXOXOXOX[.].].`.`.I.I.I.H.H.H.H.b.b.b.v.v.v.v.v.9.9.3.3.3.1.5.-.-.-.-.-.-.*.$.....$.( ( ( ( $.%.%.$.*.( E E E R =.B                                                                                                                                                                                                                                 ",
"                                                                                                                                                                      N V f P K K P P P P W E ( ( ( *.-.-.-.-.-.5.5.5.5.5.8.8.8.9.9.9.8.5.5.1.) _ ~ U U z l d d d d l l l z z } ~ { f.h.G.).oX+XqXfXfXfXaXaXaXqXwXwXrXwXrXrXrXgXtXrXrXrXrXtXgXgXgXtXtXtXtXtXtXtXtXgXGXdXsXfX.Xs.f.f.f.g.S.).). X X.X.X9XqXyXsXdXdXdXtXtXtXtXtXtXtXtXtXtXtXtXtXtXtXtXtXtXtXtXtXtXtXtXNXNXNXNXtXtXGXGXtXtXIXIXGXGXgXgXFXFXFXFXIXIXIXIXGXGXNXNXtXrX9X.X|.|. XoX+X+X@X@X@X-X0X0X0X0XiX-X-X@X@X@X@X@X@X@X@X@XoXoXoXoX_.D.x.f.f.z.z.z.z.x.D._.[.OX@X@X@X@X@X@X0X0X0X0X0X0X0X0X@X@X@X@X@X@X@X@X@X+X+X+XoXoXoXoXoX[.[.].`.`.I.I.I.H.H.H.H.B.b.b.b.v.v.v.9.9.9.9.9.3.1.%.%.-.-.*.*.*.*.$.....E E ( ( ( ( ( $.$.$.E E E W X.X.D S                                                                                                                                                                                                                                 ",
"                                                                                                                                                                        N M v L K K K P P P W E E ( ( *.-.-.-.-.-.5.5.5.5.5.8.8.2.2.8.2.8.5.1.1.) _ T U U z l d d d k l l z z } ~ { h.G.).). X.XqXyXyXyXyXyXyXyXrXrXrXrXrXrXrXrXrXrXrXrXrXrXrXgXrXrXrXtXtXtXtXtXtXtXtXtXGXdXfXaXj.s.a.g.g.S.).(.(. X X.X9XqXsXdXdXdXdXtXtXtXtXtXtXtXtXtXtXtXtXtXtXtXtXtXtXtXtXtXtXtXtXNXNXgXgXtXGXgXtXtXIXIXGXNXgXgXFXFXFXFXFXIXDXDXFXNXdXtXrXrX|.^.^. XoXoX+X-X@X-X@X@X0X0X0X0X-X-X@X@X@X@X@X@X@X@X@XOXoXoXoX[._.A.f.f.f.z.f.z.z.D.F.`.oX+X+X+X@X@X@X@X0X0X0X0X0X@X0X@X@X@X@X@X@X@X@X@X+X+X+X+XoXoXoXoX[.[.[.`.`._.I.I.I.H.H.B.B.B.b.b.v.v.v.9.v.9.9.6.3.6.%.%.%.$.$.$.$.$.$.$.....E E ( ( ( E E ....E E W W W X.&.m                                                                                                                                                                                                                                   ",
"                                                                                                                                                                          m b b L P P L P P P P W E E ` *.*.-.-.-.5.5.5.5.5.8.8.8.8.8.8.2.2.1.1.1.%.( ^ U K l l d d d k l z } ~ { { f.g.^.). X.XuX9XeXqXqXqXqXrXyXyXyXyXyXrXrXrXrXrXrXrXrXrXrXrXrXrXtXtXtXtXdXtXtXtXtXdXdXdXdXdXBX.Xs.s.g.g.S.S.).^.(. X.X.X9XwXsXsXsXrXtXtXtXtXgXtXtXtXtXtXtXgXtXtXtXtXtXtXtXNXtXtXtXtXtXgXgXgXGXGXGXGXGXGXGXNXNXgXgXgXFXFXDXIXDXGXNXtXNXnXeX|.^.^. X#X+X+X@X@X-X-X@X@X0X0X0X0X@X@X@X@XOX@X@X@X+X@X@XoXoXoXoX[.A.n.x.f.f.z.z.z.b.F._.[.+X+X+X9X@X@X@X@X@X@X@X@X@X@X@X@X+X+X@X+X+X+X+X+XoXoXoXoXoXoXoX[.[.[.].`._.I.I.I.H.H.B.B.b.b.b.b.n.v.v.9.3.3.2.1.1.1.%.%.%.%.*.$.$.E E E E E E E R R E E E E ..P ..E P R &.m                                                                                                                                                                                                                                     ",
"                                                                                                                                                                            S V v b L v P P P P W W E E ( *.*.-.-.-.5.5.5.5.8.8.8.z.8.8.2.2.2.1.3.1.%.( ( R M n l l d d k l } ~ { { f.h.g.^.|.|..X#XuXuXeXeXqXqXqXqXyXyXyXyXyXrXrXrXrXrXrXrXrXrXrXtXtXtXtXtXdXdXdXdXdXdXtXtXdXdXrXNXsXj.s.g.g.f.S.S.^.(.(. X.XwXqXqXrXsXdXdXtXtXtXtXtXtXtXtXtXtXtXtXtXtXtXtXtXtXtXtXtXtXtXtXgXgXIXIXIXIXIXGXGXGXgXgXtXtXIXIXIXIXGXtXtXNXsXeX|.^.|. X#X+X@X@X@X@X-X@X@X@X0X0X0X0X@X@X@X@X@X@X@X@XOXOXoXoXoX[.(.S.x.z.x.z.z.x.x.D.D.F.`.[.oX+X+X9X@X@X@X@X@X@X@X@X@X@X@X+X+XoX+X+X+X+X+XoXoXoXoXoXoX[.[.].].]._._._.F.I.I.H.b.b.b.b.b.b.n.v.v.3.3.1.1.1.1.1.%.%.%.$.$.$.$.$.E E E E E E E R R R E W ..P ..W R R %.j                                                                                                                                                                                                                                       ",
"                                                                                                                                                                              m B f v K b L P P P Y W E E E *.*.%.-.1.5.5.8.2.8.z.z.8.8.2.2.2.1.4.6.1.%.%.( R I U z l l l l z ~ ~ { { f.h.g.j.^.|. X X.X#XuXeXeXqXqXqXqXyXyXyXyXrXrXtXrXrXrXrXtXtXtXtXtXtXtXtXDXDXDXdXdXrXrXrXtXGXrXdXNXqXj.s.g.g.g.g.j.^. X X X.X9XqXwXsXsXdXtXrXrXtXtXrXrXrXtXtXtXtXtXtXdXdXdXtXtXtXtXtXtXtXtXtXtXIXIXIXIXIXtXgXgXFXFXtXIXtXNXdXdXnXwXuX^.^.|..X+X+X@X@X@X@X-X@X@X@X@X0X0X0X@X@X@X@X@X@X@X@X+XOXoXoXoX[._.S.g.f.z.z.z.x.x.D.D._._.[.oX+X+X+X+X@X@X@X@X@X@X@X@X+X+X+XoXoXoXoXoXoXoXoXoXoXoX].XX].].].].]._._._.F.I.D.D.b.b.b.v.n.n.n.v.8.2.2.1.1.1.%.%.%.%.%.$.$.$.$.$.E E E E E E E E R R W E W P ..W R R %.j                                                                                                                                                                                                                                         ",
"                                                                                                                                                                                m V b n b b L K K K P W W E ( *.%.-.%.1.5.8.2.2.8.z.z.8.8.2.2.2.1.1.1.1.%.%.) ( U U z l l l z z U ~ { { f.h.h.g.^.^.(. X.X.X#X9X9XeXeXeXqXqXqXyXyXyXyXrXrXtXtXtXtXtXtXtXtXtXIXIXDXDXdXdXrXrXrXrXyXtXdXrXsXBX+Xj.s.g.j.^.^.^.|. X.X.XuX9XqXrXsXdXdXrXrXrXrXrXrXrXtXtXtXtXtXtXtXtXtXtXtXtXtXtXtXtXtXtXIXIXIXIXIXgXgXgXFXFXtXtXNXNXsXnXwX|.^.^. X+X+X+X+X@X@X@X@X-X@X@X@X@X0X0X0X@X@X@X@X@X@X@X+X+XOX[.[.[.[.F.A.h.x.z.z.x.x.A.D._.[.[.oXoXoX+X+X+X+X+X+X+X+XoX+XoXoXoXoXoXoXoXoXoXoXoXoXoXoX].].].].]._._._._._.F.F.D.D.b.b.v.n.v.v.v.9.8.2.1.1.1.%.%.%.%.$.$.$.$.$.$.E E E E E E E E E E R W W W W P E R / 4.j                                                                                                                                                                                                                                           ",
"                                                                                                                                                                                  x M c b P v K K L P P W E E ( ( -.%.5.5.8.2.2.8.8.8.8.8.8.2.2.2.2.1.5.5.5.1.%.^ T T U N z l z z U ~ { { f.h.h.S.^.).). X X.X.XuXuX9XeX9XqXqXqXyXyXyXyXyXrXtXtXtXtXtXtXtXtXtXtXtXdXdXdXtXtXtXtXNXrXrXNXNXdXrXsX|.j.s.j.^.j.^. X X X.X.XuXeXqXyXsXrXsXrXrXsXsXsXtXtXtXtXtXtXtXtXtXtXtXtXtXtXtXtXtXtXIXIXIXIXgXgXtXtXtXtXtXdXNXNXnXqX|.^.|. X+X#X+X+X@X@X@X@X0X0X0X0X@X@X-X-X-X@X@X@X@X@X@X@X@X+XOXoX[.[.F.A.A.A.x.z.x.x.A.F._.[.[.[.oXoXoXoXoXoXoXoX+XoXoXoXoXoXoXoXoXoX[.[.[.[.[.[.[.].].].].]._._._._._.F.F.F.D.D.b.b.n.v.v.9.8.8.2.5.5.1.1.1.%.%.-.$.$.$.$.E E ..E E E E E R E E E R R W W W P W B / 1.                                                                                                                                                                                                                                              ",
"                                                                                                                                                                                    j B M b L K K K P P P W W E ( ) %.5.5.8.2.2.8.8.8.8.8.8.2.8.8.8.8.1.5.5.5.5.) ` ` ^ T U U z z z N ~ ~ { f.h.g.g.j.).). X X.X.X.XuXuX9X9X9XqXqXqXyXyXyXyXyXrXrXrXrXrXrXtXtXrXtXtXtXtXtXtXtXtXrXtXgXtXtXrXtXNXsX.Xj.s.g.j.^.^.).(. X.X.XuXuXuXqXqXwXsXsXsXsXsXdXtXtXtXtXtXtXtXtXtXtXtXtXtXtXtXtXtXIXIXIXIXgXgXtXtXIXNXNXNXdXsX9X|.^.|.#X+XoXoX@X@X0X0X0X0X0X@X0XiX@X@X-X@X@X@X@X@X@X@X@X@X+X+XOXoX[./.A.x.A.A.x.x.x.A.F._.[.oXoXXXoXoXoXoXoXoXoXoXoXoXoXoXoXoXoX[.[.].].].].].].].].].].].]._._._._._.F.I.F.D.D.b.b.n.c.3.3.3.1.1.5.1.1.%.%.%.%.$.$.$.$.( E E E E E E E E E E E E E E W W W P P W $.4.                                                                                                                                                                                                                                                ",
"                                                                                                                                                                                      m N n L L L L L L K Y W W ( ( ) 1.1.8.2.2.2.2.3.9.8.8.8.8.8.8.8.8.5.5.5.1.%.%.) ) ^ _ ~ U N z z z S ~ { f.f.h.h.g.j.). X X X#XuXuXuXeXeXeXqXqXqXqXyXyXyXyXrXrXrXrXrXrXrXrXrXrXrXrXrXrXtXtXyXtXtXtXtXgXtXrXrXBXsX.Xj.j.j.j.^.^.). X.X X X.X#XuXeXqXqXrXrXrXdXdXtXtXtXtXtXtXtXtXtXtXtXtXtXtXtXtXtXtXtXIXIXgXIXIXtXGXNXrXqXeX|.|. X+X+XoX+X@X@X0X0X0X0X0X0X0XiXiX-X-X-X@X-X@X@X@X@X@X@X+X+XoXoX]./.S.A.A.A.A.b.b.D.D._.[.[.XXoXoXXXXXoXoX[.[.[.oXoXoXXX].].].[.].].].].].].].]._.]._._._._._._.F.F.F.F.D.D.D.b.b.n.c.2.2.1.1.1.1.%.%.%.%.%.$.$.( ( ( ( ( E E E E E R R E E E E E E R W W W P P E B                                                                                                                                                                                                                                                   ",
"                                                                                                                                                                                        m T n L L L L L L P P Y E ( ) ) 1.5.8.2.2.2.2.2.2.8.8.8.8.8.8.8.8.8.5.1.1.1.5.5.) ) _ ~ ~ U N z z S S ~ { f.h.h.g.).).). X X#XuXuXuXeXeXeXeXeXqXqXqXqXyXyXyXrXyXrXrXrXrXrXrXrXrXrXrXtXrXDXtXtXrXtXtXtXtXdXfXsXBXaX|.j.j.^.^.|. X X X X X X X.X.XuXeXqXsXsXsXdXtXtXtXtXtXtXtXtXtXtXtXtXtXtXtXtXtXtXtXtXtXtXtXtXtXsXqX|.|.|..X+X+X+X@X@X+X0X0X0X0X0X0X0X0XiXiX-X-X@X@X@X@X@X@X@X@X+XoXoXoX]./.F.A.A.F.S.x.A.D.F._.[.[.[.].oXoXXXXX[.[.].].].].].].].].].].].].].].].].].]._._._._._._./.F.F.F.F.D.D.D.D.b.b.v.3.2.1.1.1.%.%.%.%.%.%.$.$.$.( E ( ( ( E E E E E R R R E E E E E E E W W W W R /                                                                                                                                                                                                                                                     ",
"                                                                                                                                                                                          j D N L L v b K b b P Y W ( ) 5.5.5.5.2.3.9.2.2.2.2.2.8.8.8.8.8.8.5.5.5.5.1.1.1.' ) ) _ ^ ^ S N z N N F { f.f.f.h.g.).). X|. X.XuXeXeXeXeXeXeXqXyXyXyXyXqXqXqXrXrXrXrXrXrXrXrXrXrXrXrXtXtXrXrXrXtXtXtXtXtXtXtXdXsXqX|.j.j.j.).).).).). X X X.X.X.X.XuXqXqXsXsXrXrXrXrXrXtXtXtXtXIXIXIXIXIXIXtXtXtXtXtXsXnXnXqX|.|.|.#X+X+X+X+X+X+X@X@X0X0X0X0X0X0X0X0X0X@X@X@X@X@X@X@X@X@X+XoXoXoX[._.S.A.A.A.A.S.D.F.F./._.[.[.[.[.[.[.[.].].].].].].].].].].].].].].]._.].]././.]._._._._._./.F.I.F.F.D.D.D.D.b.x.c.c.3.2.1.1.1.%.%.%.%.%.$.( $.( E E E E E E E E E E W W W E ( ( ( ( R E ..W R X.B 4.                                                                                                                                                                                                                                                      ",
"                                                                                                                                                                                              A n P P v v b b b K Y W ( ) -.5.5.2.2.3.9.2.2.2.2.2.2.8.8.8.8.1.1.1.1.1.1.1.1.' ' ' ) _ ~ N N N N z S ~ { f.f.h.g.g.j.^.|.|. X.X.X#XuXeXeXeXqXyXyXqXqXqXqXyXyXrXrXyXyXyXyXrXrXrXrXrXrXrXrXrXrXrXrXrXtXtXtXtXdXdXqXuX|.j.j.^.).).).).).).).).|. X.X.XuX9XqXqXrXsXnXNXNXdXtXtXtXtXtXtXtXtXtXtXdXtXrXsX9X|.|.|..X.X.X+X+X+X+X@X@X@X@X0X0X0X0X0X0X0X0XiX0X@X@X@X@X@X@X@X@X@XoXoX[./.S.A.S.A.A.S.F.F.F._._.[.[.[.[.[.[.].].].].].].].].]._._._._._._._._._._./././././._.I.I.F.F.F.F.F.D.D.D.D.b.b.c.z.2.1.1.1.1.%.%.%.$.$.( $.( ( ( ( E E E E E E E E W W W E E ( ) ) ( $.R W W R B )                                                                                                                                                                                                                                                         ",
"                                                                                                                                                                                                M v b Y b b K v L P W R ( ( %.1.1.2.2.8.2.2.8.2.2.2.2.2.1.1.1.1.1.1.8.8.8.2.2.1.5.' ) _ _ ^ ^ N z z S S F { f.f.g.g.^.^.^. X X.X.X.X.XeXuXeXqXeXqXqXqXqXyXyXyXyXyXyXyXyXrXrXrXrXrXrXrXrXrXrXrXrXrXtXtXrXrXsXsXsXsX9X Xj.j.g.^.).S.S.).).).).).^. X X X.X.XuXqXqXwXpXrXsXrXrXtXtXNXdXtXNXdXsXrXqX#X|.|.|. X+X+X.X+X+X+X@X@X@X@X@X0X0X0X0X@X@X0X0X-X@X@X@X@X@X@X@X+X@XoXoX[./.S.g.A.A.A.S.F.F./._._._._.[._.].].].].]._._._._._._._._._._._._._._._._._._././././.F.F.F.F.F.F.F.D.D.D.b.b.b.z.z.2.1.1.%.%.%.) ( ( ( ( ( E ( E E E E E E R R R E W R R R E ( %.%.) ( R R R R / D                                                                                                                                                                                                                                                           ",
"                                                                                                                                                                                                  m B V I I L L K L P Y Y R ( %.1.1.1.2.2.2.2.2.2.2.2.1.1.1.1.1.1.1.8.8.8.8.8.8.8.5.' ' ' ) _ ^ ~ S N z S S F { f.f.g.g.g.^.).). X X.X.XuXuXuXuX9XeXeXeXqXyXyXyXyXyXyXyXyXyXyXrXyXrXrXrXrXrXrXrXyXrXtXrXrXtXrXrXsXsXpX+X^.j.s.g.S.g.g.A.S.G.).).).).).|. X X.X X X.XuX9X9XqXwXrXwXwXwXwXqXuX|.|.^.|..X#X+X+X+X+X+X+X@X@X@X@X@X@X@X0X0X0X@X@X@X@X@X@X@X@X@X@X@X+X+X+XoX]././.S.g.A.S.S.F.F._._._._._._._._._._._._._._._._._._._._._._._._._._._._._./././././.F.F.F.F.F.F.F.D.D.D.c.b.z.c.z.2.2.1.%.%.%.) ( ( ( ( ( ( E E E E E ( / R R W W W W R R ( $.%.%.( / $./ $.&.D D                                                                                                                                                                                                                                                             ",
"                                                                                                                                                                                                    m B v v K K K K b b b R / ( %.1.1.1.1.8.8.8.1.1.1.1.1.1.1.1.1.1.8.8.2.2.2.2.2.2.2.5.5.5.' ) ) ^ S N N N A S S F { f.h.h.g.g.^.). X X X.XuXuX9XeXeXeXeXqXyXyXyXyXyXyXyXyXyXyXrXrXrXrXrXrXrXrXtXtXIXIXIXIXdXtXrXtXfXsXaXuXj.s.a.f.g.h.h.g.G.G.G.).).).).).). X).). X X X.X.X.X#X#X#X#X.X|.|.^. X XXX#X+X+X+X+X+X+X+X@X@X@X@X@X@X@X@X@X@X@X@X@X@X@X@X@X@X@X+X+X+X+X]./.S.S.S.S.S.S.F.F._._._._._._._._././._._._._._._././._._._._._._././.F.F._._._.F./.F.F.F.F.F.F.F.F.D.D.b.b.b.z.z.2.2.1.1.%.) ) ( ( ( ( E E E E E E E E E / / R R W W R R R / %.%.%.$.$.R / / &.) A                                                                                                                                                                                                                                                               ",
"                                                                                                                                                                                                      m I L K L K K b M b B Y R ( ) %.1.1.1.5.5.1.1.1.1.1.1.1.1.1.1.2.2.2.2.2.2.2.2.2.8.2.1.1.5.' ) ) _ _ S S N A S S F F [ f.h.G.^.).(. X X.X.XuXuXuXeXeXeXqXqXyXyXyXyXyXyXyXyXyXrXyXrXrXrXrXrXtXIXtXtXIXIXDXIXDXtXtXdXdXsXeX|.s.s.s.g.g.g.h.g.g.h.h.g.j.j.j.).).).).).(.(. X X X X X X|.|. X#X#X#X.X.XoX+X+X+X+X+X+X@X@X@X@X@X@X@X@X@X@X@X@X@X@X@X@X@X@X@X@X+X+X].(./.S.A.S.F.F.F.F._._._._._./._._._././._._._._._._./././.F.F._._._./.F.F.F.F.F.F.F./.F.F.F.F.F.F.D.D.A.x.b.z.z.2.2.1.1.1.) %.( ( ( ( E E E E E E E E E E R R R R R R R R R / ) 1.%.%.$.$.$.&.D D                                                                                                                                                                                                                                                                   ",
"                                                                                                                                                                                                        j M v f L L b M M M P P R / ) ) ) %.1.5.1.1.1.1.1.1.1.1.8.8.2.2.2.2.2.2.2.2.2.2.2.2.2.8.1.5.5.5.' ' _ ~ S S S J J S F { f.g.g.^.).). X X.X.X.XuXuXeXqXqXyXyXyXyXyXyXyXyXyXyXyXrXyXrXrXrXrXrXrXyXrXrXrXrXtXtXtXrXrXrXsXsX9X|.j.s.s.g.g.g.g.f.f.h.h.h.g.g.g.g.g.S.^.^.).^.^.^.^.^.(.(. XoX X#X+X@X+XoXoX+X+X+X@X@X@X@X@X+X@X@X@X@X@X@X@X@X@X@X@X@X@XoXoXoX]././.S.S.S.F.F.F.F././._._._._./._._._./././././././.F.F.F.F.F.F.F._._.F.F.F.F.F.F./.F.F.F.F.F.F.F.D.D.D.x.x.z.z.2.1.1.%.) ) ( ( ( ( E E E E E E W E E E E R R R R R R R R / / ) 1.1.1.%.$.$.&.D G                                                                                                                                                                                                                                                                     ",
"                                                                                                                                                                                                            V b b b b M M b L K Y T R ( ( ) ) ) %.%.%.1.1.1.1.1.1.8.8.2.2.2.2.2.2.2.2.2.2.2.2.2.1.5.5.1.1.8.8.] ] ' { [ S S S S F F a.g.g.).).). X.X.X.XeX9XeXqXqXyXyXyXyXyXyXyXyXyXyXyXyXyXyXrXrXrXrXrXrXrXrXrXyXrXrXrXrXrXrXyXfXfXaX.Xj.s.s.a.a.f.f.f.f.f.f.f.f.f.g.g.g.g.g.g.^.^.(. XXX#XoXXX+X#X#X+X+X@X@X+X+X@X@X@X@X@X@X@X@X@X@X@X@X@X@X@X@X@X+XoXoXoXXX]./.S.S.F.F.F.F.F.F.F././._._._._._._././././.F./././.F.F.F.F.F.F.F.F.F._.F.F.F.F.F.F.F.F.F.F.F.F.F.D.D.A.x.x.z.z.2.1.1.%.) ( ( ( E E E R E E W W W W W W E E R R W W W R R / ( ) ) 1.1.4.%.%.%.4.D                                                                                                                                                                                                                                                                       ",
"                                                                                                                                                                                                              k V b b K K n L L I I T T R R ( ( ( ( ) ) ) ) %.1.1.1.1.1.1.1.2.2.2.2.2.2.2.2.2.2.1.1.1.5.8.8.8.8.8.8.8.8.] ] [ F F F F F a.f.g.g.^.). X.X+XuXuXuXeXeXeXyXyXyXyXyXyXyXyXyXrXrXrXrXrXrXrXrXrXrXrXrXrXrXrXrXrXrXrXrXfXdXfXaXaX.Xj.s.F F F F F F { a.a.a.f.g.g.S.)./.(.(.(.XXXXXXoXoX+X+X+X+X+X+X+X+X+X+X@X@X@X@X+X+X@X@X@X+X@X@X@X@X+XoXoXoXXX].(.^./././.F././.F.F././././././././././././.F.F.F./.F.F.F.F.F.F.F.F.F.F.F.F.F.F.F.F.F.F.F.F.F.F.F.F.D.D.D.x.x.z.2.2.1.1.) ( ( ( E R E W W W W W W W W W W W W W W W W W R E R ( ( $.%.%.%.) 4.2.[ H                                                                                                                                                                                                                                                                         ",
"                                                                                                                                                                                                                j V I n L K v K b M I Y T R R / ( ( ( ) ) ) ) %.' ' 1.1.1.1.1.2.2.2.2.2.2.2.2.2.2.2.2.2.2.2.8.8.8.8.z.n.z.8.] ] [ [ G F a.a.a.a.g.g.g.^. X.XuX9X9XqXqXqXyXqXyXyXyXyXyXrXrXrXrXrXyXrXrXrXrXrXrXrXrXrXrXrXrXrXrXrXyXfXfXaXaXiXoX).f.a.F F F a.f.f.g.g.S.S.)./.(.(.(.].XXXXXXoXoXoX+X+X+X+X+X+X+X+X+X+X+X+X+X+X+X+X@X@X@X@X@X@X@X@XoXoXXX].]./.^././.F.F./././.F.F././././././.F.F./././.F.F.F.F.F.F.F.F.D.D.D.D.D.F.F.F.F.F.F.F.F.F.S.F.F.D.D.D.D.D.b.x.x.z.z.2.1.1.) ( ( E E R W R W W W W W Y Y W W W W W W W W W W R E ( -.$.( / / 3.4.G f.                                                                                                                                                                                                                                                                            ",
"                                                                                                                                                                                                                  j N n v L I n b b b I I Y Y R R R ( ( ( ( / ) ) ) %.) 1.1.1.1.1.1.4.4.1.1.1.1.1.2.2.2.2.2.2.2.2.2.z.z.z.n.n.n.z.z.f.f.f.f.a.a.a.a.a.a.g.^. X X.X.XeXeXqXqXqXqXqXqXyXyXqXrXqXqXrXrXrXrXrXrXrXrXrXrXrXrXrXrXsXsXsXwX#X|.j.s.s.s.f.f.f.f.f.h.A.A.S./././.(.(.(.].XXXX#X#XoXoXoXoX+XoX+X+X+X+X+X+X+X+X+X+X+X+X+X+X@X@X+X+X+X+XoXOXoX].(./.^./.^././././.F.F.F.F.F.F.F.F.F.F.F.F.F.F.F.F.F.F.D.D.F.F.F.F.D.D.D.D.D.D.D.F.F.F.F.F.F.F.A.x.A.D.D.D.D.b.b.b.z.z.2.1.1.) ( ( E E W W W W W Y Y P P P P Y Y Y Y Y W Y W R R ( ( R ( $.R $.$.D 4.a.                                                                                                                                                                                                                                                                              ",
"                                                                                                                                                                                                                      m n K b n b b b b b M Y Y Y R R R / / ( ( ( ) ) ) ) 1.1.1.1.1.1.1.1.1.1.1.1.1.2.2.2.2.2.2.2.2.2.2.z.z.z.z.n.b.x.x.x.x.x.h.f.f.f.a.a.g.g.g.^.|.|..X#XuXeXqXeXqXqXqXqXqXqX9XqX9XqX9X9XuXuXuXeXuXuX|.|.|.|.|.j.s.s.s.s.s.a.g.g.g.A.S.F.F.F././.(.(.(.(.].XXXXXX#XoXoX+X+X+X+XoX+XoX+X+X+X+X+X+X+X+X+X+X+X+X+X+X+X+X+XoXoXoX[.(./.^././././././././.F.F.F.F.F.F.F.F.F.F.F.F.F.F.F.F.D.F.F.D.D.D.D.D.D.D.D.D.D.A.D.D.D.A.A.A.D.A.x.x.z.x.x.b.b.b.b.n.z.2.1.1.%.( ( E E W W W W Y Y P K L L P P P P P M Y Y Y R R R ( ( ( ( $.$.$.D 4.G                                                                                                                                                                                                                                                                                 ",
"                                                                                                                                                                                                                        A N V b b b b b b b b Y Y Y Y R R R ^ ^ ( ( ( ) ) ) ) 1.1.1.1.1.1.1.1.1.1.1.1.1.1.1.2.2.2.2.2.2.2.2.2.z.n.n.b.b.b.b.b.b.A.x.x.A.g.g.g.g.s.g.g.j.j.^.|.|.|.|.|.|.|.|.|.^.j.j.j.s.s.s.s.s.s.s.s.j.j.^.^.^.^.g.g.g.S.S.S.S././././././.(.(.(.].].XXXXXXXXoXoXoX+X+X+X+X+X+X#X+X+X+X+X+X+X+X+X+X+X+X+XoXoX+XoXoXoXXXXX].(././././././././././.F./.F.F.F././.F.F.F.F.F.F.F.F.D.D.F.D.D.D.D.D.b.b.b.b.b.b.b.c.c.c.x.c.x.x.b.b.b.x.z.f.] 2.z.n.n.z.z.2.2.1.) ) ( ( E E W W W W Y Y P K L K P Y P P M M M Y T R ( R / ( ( / / D 4.4.                                                                                                                                                                                                                                                                                    ",
"                                                                                                                                                                                                                          j m M n b v v v b b b b I Y Y T R R R ^ ( ( ( ) ) ) ) ) ' 1.1.1.' 1.1.1.1.1.1.1.1.1.2.2.2.2.2.2.2.2.2.z.z.n.n.x.b.x.b.b.D.D.D.F.F.S.S.S.S.S.g.g.s.j.j.j.j.j.j.j.s.s.s.g.g.g.g.^.S.^.^.^.^.^.^.^.^.^.^.^.^.^.^././././.(.).(./.(.(.(.(.].].XXXXXXXXoXoXoXoX+X+X+X+X+X+X#X#XoXoX+X+X+XoX+X+X+XoXoXoXoXoXoXoXXXXX]././././././././././.F.F.F.F.F.F.F.F.F.F.F.F.F.F.F.F.F.F.D.D.D.D.b.b.b.c.c.n.n.n.n.z.z.c.c.c.c.z.z.b.b.b.b.z.[ [ [ ' 2.2.8.8.2.1.' ) ) ( ( E R W W W Y Y Y K L K P Y Y P P Y M M Y R R R R E / B D ) [ G                                                                                                                                                                                                                                                                                       ",
"                                                                                                                                                                                                                              m V n v v v v b b b b I I Y T T T R R ( / ( / / ) ) ) ) ) ) ) ) ' ) ) %.1.1.1.1.1.1.2.8.2.2.2.8.2.2.z.z.n.n.x.b.b.b.b.b.D.D.F.F./.].].].].(.^.(.(.^.^.^.^.^.^.^.^.^.(.(.(.(.(.XXXX X X X X(.(.(.(.(.(.(.(.(.(.(.(.(.(.(. XXXXXXXXXXXXXXXoX#X#X#XoXoXoX+X+X+X+X+X+XoXoXoXoXoXoXoXoXoXoXoXoXXXoXXXXXXX].].(./.^./././././././.F.F.F.F.F.F.F.F.F.F.F.F.F.F.F.F.F.F.F.D.D.D.b.c.c.c.c.c.z.z.z.z.z.z.2.2.2.2.2.2.2.z.n.n.c.z.2.' _ _ _ 2.2.2.2.1.%.) ( ( E R W Y Y P K K b v b K Y Y P Y Y Y Y T R R R Y R R R B / G H                                                                                                                                                                                                                                                                                         ",
"                                                                                                                                                                                                                                m n n n v v v v b b K I Y Y Y Y T R R R / / / / ( ) ) ) ) ) ) ) ) ) ) %.%.%.%.1.1.1.1.2.1.2.8.8.8.2.z.z.n.n.n.x.x.x.x.x.b.D.D.F././._.].].].XXXXoXXXXXXX].].].XX#X#X#X#XXXXXXXXXXXXXXX X(.(.(.(.(.(.(.(.(.(.(. XoXoX X XXX#XoXoXoXoXoXoXoXoXoXoX#X#XoX+X+X+X+XoXoXoX#XoXoXoXoXoX#X#XXXoXoXoX].].(.(.^./.^././././././.F.F.F.F.F.F.F.F.F.F.F.F.F.F.F.F.F.F.F.F.D.D.b.b.c.n.c.z.z.2.2.2.2.2.2.2.2.2.1.1.' ' ' 2.z.v.z.2.2.' _ ^ ^ ' ' 1.1.1.%.) ( ( E W Y I K K b n v c n b Y Y Y Y Y W R R R / R E R B B D G                                                                                                                                                                                                                                                                                             ",
"                                                                                                                                                                                                                                    N V c n v f b b M M I Y I Y Y T R R E E E ( ( ( ( ( ) ) ) ) ) ) ) ) ) ) ) ) 1.1.1.1.1.2.8.2.2.2.8.z.z.z.z.n.n.z.z.x.b.b.b.D.S.F./././.].].].XXXXXXXXXXXXXXXX#X#X#X#XXXXXXXXXXXXXXXXX].].].].(.(.(.(.(.XX XXXoX#X#X#XoXoXoXoXoXoXoXoXoXoXoXoXoXoXoX+XoXoXoX+X.X#X#X#X#X#XXXXXXXXXoXXX].(.(./.^././././././.F.F.F.F.F.F.F.F.F.F.F.F.F.F.F.F.F.F.D.D.D.A.A.A.x.b.b.z.z.z.2.2.2.2.2.1.1.1.1.1.' 1._ _ ^ ^ ^ ' 8.n.n.z.2.' / ^ B B / %.1.) $.( ( E E W K L n v v a a s n b M M M Y W W Y R R ( R R B B D A                                                                                                                                                                                                                                                                                               ",
"                                                                                                                                                                                                                                      m B c f L v v v I Y b b W I Y R R R R E ( ^ ^ ( ^ ( ( ) ( ( ) ( ( ) ) ) ) ) ' 1.1.' 1.2.2.2.2.2.8.z.z.z.z.z.z.z.z.x.x.x.b.S.S.S.F./././.(.(.].].].].].].].XXXXXXXXXX].].].XX].XX].].].].].XXXXXXXXXXXXXXXX#X#X#X#XoXoXoX#X#X#X#XoX#X#XoXoXoXoXoXoXoXoXoXoX#X#X#X#X#XXXXXXXXX].].].(.(.(./././.F.F.F.F.F.F.F.F.F.F.F.F.F.F.F.F.F.F.F.F.F.S.D.D.A.x.x.c.c.c.n.z.2.2.2.2.1.1.1.1.1.1.1.) ) _ ^ ^ B N N N _ 2.z.z.z.2.' _ T B M T ( %.( ( ( E R Y b n f s s a a s v b M M M B B R R R R E / T M B D                                                                                                                                                                                                                                                                                                   ",
"                                                                                                                                                                                                                                        j m n f f i.L f c M M M I Y Y W T R R ^ ^ ^ ^ ^ ^ ( E E ( ( ( ( ( ( ( ) ) ) ) ' ' ' ' 1.2.2.2.2.2.2.2.2.z.z.z.z.n.n.x.b.A.A.A.S.F.F.F././././.(.(.(.(.(.(.(.(.].(.(.(.(.(.(.(.(.(.(.(.(.].].].].].].XXXXXXXXXXXXXXXXXXXXXXXX#XXXXXXXXXXXoXXXXXoXXXoXXXXX#X#XXXXX(.(.(.(.(.(.(.(./.^././././././.F.F.F.F.F.F.F.F.F.F.F.F.F.D.F.D.F.S.S.A.A.x.c.c.c.c.z.z.2.2.2.1.1.1.1.1.) ) ) ) _ _ ^ ^ N N N n n l N ' 8.z.z.2.' _ T M M M R ( ( ( ( R Y b v c s a a a s c n b K b Y Y E T T R R B M B D S                                                                                                                                                                                                                                                                                                     ",
"                                                                                                                                                                                                                                            x b f f f v b b M M M M I Y Y T T ^ ^ ^ ^ ^ ^ R R R / / ^ ( ( ( ( ( / ) ) ) ) ' ' ' 1.2.2.2.2.2.2.2.z.z.z.z.z.n.x.x.x.A.A.A.S.S.D.S.F.F.F.F././././././././././././././.(.(.(.(.(.(.(.(.(.(.(.(.].].(.].].].XX].XX].XXXXXXXXXXXXXXXXXX].XXXXXX].XX].(.(.(.(././.^.^./././././././././././.F.F.F.F.F.F.F.F.F.F.A.A.A.D.D.D.D.A.A.A.x.x.x.z.z.z.z.2.2.2.1.1.' %.) ) ) / / / / ^ T B B n N n l l k N ' 2.2.2.] ' _ R Y b b I R ( ( ( Y b v c s s s l c c b b Y Y I Y Y T ^ / / D B D D                                                                                                                                                                                                                                                                                                         ",
"                                                                                                                                                                                                                                                N n v f v v v b b b I Y Y T T T R R R R R R R R R R R ^ ( ( ( ( ( ( ) ) ) ) ) ' 1.1.1.2.2.2.2.2.2.2.z.z.z.z.z.z.x.x.b.b.b.A.A.S.S.S.S.S.F.S.F.S.F./././././././././././././.(.(.(./.(./.(.(.(.(.(.(.(.(.(.(.(.(.(.(.(.(.(.].].].(.(.(.(.(.(.(.(./.^./.^./.^.^./././././.F./././.F.F.F.F.F.F.F.S.F.D.D.D.D.A.A.A.D.b.b.b.b.x.x.x.z.z.z.2.2.2.2.1.1.) ) ) ) ( ( ( / / R T T M M M n n n l l k k ^ 8.2.2.' _ ( T Y K n K Y R ( T M c s l c c v n b b M Y W Y Y Y W M R / D _ ' A                                                                                                                                                                                                                                                                                                           ",
"                                                                                                                                                                                                                                                  j V c f v v v n v b K I I I Y Y Y W Y W R R T R R R R R R R R / ( ( ( ) ) ) ) ' ' 1.1.1.2.2.2.2.2.2.z.z.z.z.z.z.z.n.z.x.x.x.x.x.x.A.A.A.A.A.S.S.S.S.S.F.F.F.F./././././././././././././././././././././././././././././././././././././././././././././././././././.F.F.F.F.F.F.F.F.S.S.S.S.S.A.S.A.A.A.x.x.x.x.x.x.z.z.z.z.z.2.2.2.1.' ' ' ) ) ) ) / ( / / R R T T M M b b n n n n n l k k N ' ' ' ) / ^ R I L v n P W R I n l s c v b b b M Y Y W W T T R R R / / ) H                                                                                                                                                                                                                                                                                                               ",
"                                                                                                                                                                                                                                                      x V c f v f f v K I U I I P P P P P Y T T T T T R R R R R R R ( ( ( ( ( ) ) ' ' ' 1.' 1.2.2.2.2.2.2.z.z.z.2.2.z.z.z.z.z.z.x.x.x.x.x.x.x.x.A.A.A.A.A.S.S.S.S.S.F.F.F.F.F.F.F.F.F./.F.F././.F.F.)./././././././././././././././.^./.^./.^././.F./.F./.F./.F.F.F.F.F.S.S.S.S.S.S.S.A.A.A.A.A.x.x.x.x.x.x.x.z.z.z.z.2.2.2.2.] ' ' ' ) ) ) ) ) / / / / ( ( R R R Y M b b b n n n n v v l k k k _ ) ) / ^ R Y K v f v I T T M l l l v b b b P Y Y Y W Y T T R T R / D A                                                                                                                                                                                                                                                                                                                 ",
"                                                                                                                                                                                                                                                        j m c f f f v n K I I K K K L K K P I I Y Y Y T R R R R R R R ( / ^ ( / _ ) ) ) ' ' ' 1.1.2.2.2.2.2.2.2.2.2.2.2.2.z.z.z.z.z.z.z.z.z.z.x.x.x.x.x.A.A.A.A.A.A.A.A.S.S.S.S.S.S.S.S.S.S.S.S.S.S.S.F.F.F.F.F.F.F.F.F.F.F.F.F.F.F.F.F./././.F.F.F.F.F.S.S.F.F.F.F.F.S.S.S.S.S.S.S.A.A.A.A.x.x.x.x.x.z.z.z.z.z.2.2.2.1.' ' ' ' ) ) ) ) ) ) ( ( ( / / / ( R R Y Y M b b n n n n c c l l l l k a ^ / ) ^ R R Y b v s v K Y Y b l s s n v b b K W P Y Y M M B / D D A                                                                                                                                                                                                                                                                                                                     ",
"                                                                                                                                                                                                                                                            j V c f f c b b b K K L L L K P P W Y Y Y Y W W Y Y T R R R R ^ ( / _ _ ) ) ) ' ' ' ' ' ' 2.] 2.2.2.2.2.2.] 2.2.2.2.z.2.z.z.z.z.z.z.x.x.x.x.x.x.x.x.A.A.A.A.A.A.A.A.A.A.A.A.A.A.A.A.A.A.A.A.A.S.S.S.S.S.S.S.S.S.S.F.F.F.S.S.F.F.F.F.F.F.F.F.F.S.S.S.F.F.S.S.S.S.A.A.A.A.x.x.x.x.x.x.z.z.z.z.z.2.2.2.' ' ' ' ' ) ) ) _ ( ( ( ( ( ( ( / ( ( ( ( R R Y b b b b n n n n v l l l s a k a I ^ ( ^ T Y I b v f c K W I v l s f v v v v K P L I I b M / D D                                                                                                                                                                                                                                                                                                                         ",
"                                                                                                                                                                                                                                                                k k n n v n b v K K I K K L L L Y Y Y Y Y Y Y Y Y Y R R R R R ^ / / ( / ) ) ) ) ) ) ' ' ' ' ' ' ' ' ' ] 2.2.2.2.2.2.] 2.2.z.z.z.z.z.z.z.z.z.x.x.x.x.x.x.x.x.x.x.x.x.x.x.x.x.x.x.A.A.A.A.A.A.A.A.A.A.A.A.S.S.S.S.S.S.S.S.S.S.S.S.F.F.S.S.S.S.S.S.S.S.S.S.A.A.A.A.x.x.x.x.x.z.z.z.z.2.2.2.2.2.2.' ' ' ) ) _ _ / / ( ( ( ( ( E ( ( ( ( ( ( ^ R Y I b b b b n n n n v l l s s a a d I R ^ R Y Y I b v c v I W b v s s s f f v K L v b v b T B S j                                                                                                                                                                                                                                                                                                                           ",
"                                                                                                                                                                                                                                                                  j x k c f f P v v b K K K I K K I I Y Y Y I Y Y Y Y Y T T R R R ^ ^ / ( ( ) ) ) ) ) ) ' ' ' ' ' ' ' ' ' ' ' ' 1.2.2.2.] ] ] 2.2.2.z.z.z.z.z.z.z.z.z.z.x.x.x.x.x.x.x.x.x.x.x.x.x.x.x.x.x.x.x.x.x.x.x.A.A.A.A.A.A.A.A.A.S.S.S.S.S.S.S.S.S.S.S.A.S.S.S.A.A.x.x.x.x.z.z.z.z.z.z.2.] ] ' ' ' ' ' ) ) ) ( ( / / / / ^ E E E R R R E / / / / ^ R Y M b b b b n n v v l l l s s a d d I T R T Y Y K b v c n Y Y b v f f f f f f v v b b b V B m                                                                                                                                                                                                                                                                                                                               ",
"                                                                                                                                                                                                                                                                      j m c f f v b b b M I I b K K K K I I I I Y Y I Y T T T T T T R ^ ^ / ( / ( ) ) ) ) ) ) ) ) ) ' ) ' ' ' ' ' ' ' ' ' ' ] ] 2.] ] ] ] ] 2.2.f.z.z.z.z.f.f.f.z.z.z.z.z.z.z.z.z.z.x.x.x.x.x.x.x.x.x.x.x.x.A.A.A.A.A.A.S.A.S.S.A.A.A.A.S.A.A.A.A.A.A.x.x.x.x.x.z.2.2.2.2.2.2.' ' ' ' ' ) _ ) / ( ( ( / / / / R R R R R W W W R / / / / R R I b b b b b b n n v s l s s l a d k T R R Y Y M b n v c b Y Y b v f f a s v n c c n M N m                                                                                                                                                                                                                                                                                                                                   ",
"                                                                                                                                                                                                                                                                          m V V c c n n n M M b b b K K K K K K K I I I Y Y Y Y T T T R R R R ^ ^ ^ ^ _ ) ) ) ) ) ) ) ) _ ) ) ) ' ' ' ' ' ' ' ' ' ' ' ' ' ] ] ] ] ] ] ] ] ] f.f.z.2.z.2.z.z.z.z.z.z.z.z.z.z.z.z.z.z.x.x.x.x.x.x.A.A.A.A.A.A.A.A.A.A.A.A.A.A.A.A.A.A.x.x.x.x.z.z.2.2.] ' ' 1.' ' ) ) ) ) _ / _ / / R R R R R R R R R R R R R R R R / / R R Y M b b b b b b v v v v f s s a d d n R R R Y Y b b n v n b W W b c v s s f v c n N N x                                                                                                                                                                                                                                                                                                                                       ",
"                                                                                                                                                                                                                                                                              m m N n n n n M b b b b b b b b b K K K I I I I I Y Y Y T T T T T R ^ ^ ^ ^ ^ ^ ^ ) ) ) ) _ _ _ _ ) ) ) ' ' ' ' ' ' ' ' ' [ ' ' ' ' ] ] ] ] ] ] ] ] [ ] ] ] ] 2.2.2.2.z.z.z.z.z.z.z.z.z.z.x.x.x.x.x.x.A.A.A.A.A.A.A.A.A.A.A.A.A.A.A.x.x.x.z.z.z.2.' ' ' ' ' ) ) ) ) / / / / / / / R R R R R R R R W W W W R R R R R R R R R Y M b b b L b L v v v v l s l a d k U R R T Y Y M b b b b Y W W M v v f c v c V N m j                                                                                                                                                                                                                                                                                                                                         ",
"                                                                                                                                                                                                                                                                                  x V n v v v n n n n b b b b b b b b b M I I I I I I I Y I T T T T T ^ ^ ^ ^ ^ ^ ^ ^ ^ / / / / _ _ _ _ ) ) ) ' ' ' ' ' ' ' ' ' ' [ [ [ [ [ [ ' ' ' [ [ [ [ ] ] [ [ [ ] ] ] ] 2.z.z.z.z.z.z.x.x.x.x.x.x.x.A.A.A.x.x.x.x.A.x.x.x.x.x.z.z.z.] ] [ ' ) ) ) ) _ _ _ _ / / / ^ / ^ R R R R R R W Y Y W W W W R R R R R R R R Y Y b b L b L v L v v v v s s s a k n T R T Y M Y M K b b b Y W W P c f g g c V m x                                                                                                                                                                                                                                                                                                                                             ",
"                                                                                                                                                                                                                                                                                      x V V c c v n v n n v n n b b b b b b K K K K I I I I I I Y T T T R R T T ^ ^ ^ ^ ^ / / / / / / / _ _ _ _ _ _ _ _ _ ' ' ' ' ' ' ' ' ' ' ' ' ' [ ' ' ' ' ' ' ' [ [ [ [ [ ] ] ] ] f.z.z.z.x.x.x.x.x.x.x.x.x.x.x.x.x.x.x.x.x.x.z.z.2.] [ ' ' ) _ _ _ _ _ / / ^ ^ ^ / R T T T Y W W W W W Y Y Y Y Y Y Y Y Y Y T R R R Y M b Y K L L v L v v v c s l s a l I R R T M Y M M M M b K Y W W M c c k k m m                                                                                                                                                                                                                                                                                                                                                 ",
"                                                                                                                                                                                                                                                                                          A m m n v v v f f v v v n v b L K L L K K K K I K I Y Y Y Y Y Y Y Y T T ^ R R R R / R R R ^ ^ ^ ^ _ _ / / ) _ ) _ ) _ ) _ ) _ ) _ ) _ _ _ ' ' ' ' ' ' ' ' [ [ [ [ ' ' [ [ ] ] ] z.z.z.z.x.x.x.x.x.x.x.x.x.x.x.x.x.z.z.z.2.] ' ' ' ' _ / / / / / R R R R R R R T R T Y W W W W W W W W W Y Y Y Y Y Y Y T B R B B M M M b b b b v v v v c l s s l I T R Y Y Y M M M M M I b Y E W V V V m m                                                                                                                                                                                                                                                                                                                                                     ",
"                                                                                                                                                                                                                                                                                              A m l l n n v f f v n b v v v v K b b b b b b L b K P b P Y Y Y Y T T T T R R R T T R R ^ ^ ^ ^ ^ ^ ^ ^ ^ / / ^ ^ ^ _ _ _ _ _ _ _ _ _ _ _ _ _ _ _ _ _ ' _ ' ' ' ' ' ' ' ] ] ] f.f.z.z.z.z.z.z.z.z.z.z.z.z.z.z.z.z.2.] ' ' ' ) / / / / ^ R R R T R R W R Y Y Y Y Y Y Y Y Y P P P P Y Y Y Y Y Y Y Y Y B B B Y Y Y b Y b b v n v v v l l l l n I T T Y M M M M b b b b M T R B V m m                                                                                                                                                                                                                                                                                                                                                         ",
"                                                                                                                                                                                                                                                                                                  x m k k c n s f f v v n n n c n v v v v v b b b b K I I I I I I T T T T T T T T T R ^ ^ ^ ^ ^ ^ ^ ^ ^ ^ ^ ^ ^ ^ ^ ^ ^ ^ ^ ^ ^ _ _ ^ _ _ _ _ _ _ _ _ _ / / _ _ ' ' [ [ ] ] ] ] f.f.z.z.f.z.z.z.z.z.z.z.z.f.f.] [ ' ' [ / / / / R R R R R T T Y Y Y Y Y Y Y Y Y M b P P P P P P Y Y Y Y Y Y Y Y Y Y M M b K L L L L L L b n n c s c n M N ^ ^ T B T Y b v n b n V V B D G                                                                                                                                                                                                                                                                                                                                                               ",
"                                                                                                                                                                                                                                                                                                      x m k k n l l c l l c v v v v v v v v b b b b b I I I U I I I I Y Y Y T T T T T T ^ ^ ^ ^ T T T T T T T T T T ^ ^ ^ ^ ^ ^ ^ ^ ^ ^ ^ ^ ^ ^ ^ ^ ^ ^ ^ / / / _ _ _ ' ' [ [ [ [ [ ] ] ] ] ] ] ] 2.] ] ] ] [ [ [ [ _ / / ^ D B T T T Y T Y Y Y Y Y Y P I I M b b b b P M M b M b b M M Y Y I Y T T I M K b L L L L L b b n n v v b M T T ^ ^ B ^ M b M M v f V V N A                                                                                                                                                                                                                                                                                                                                                                   ",
"                                                                                                                                                                                                                                                                                                          j x x x l l c c v f g f f f v n n n n n b b K I K K K K I I I I I T T T T T T T T T T T T T T T T T T T T T T T T T T T T T T T T T T T T T T T ^ ^ ^ _ _ _ _ _ _ ' ' [ [ [ [ ' ' ' ' ' ' [ ' ' [ [ ' ' _ _ ^ ^ T T T T Y Y Y I Y I I Y M M M K P K K b b K K b M M M M M M M M Y Y T T T I M M b b b b b n v c n b b M Y T T T T M M b M M b V M N m m                                                                                                                                                                                                                                                                                                                                                                       ",
"                                                                                                                                                                                                                                                                                                                j x k k a g f f f f f v v n n n n n b n b b b b L L K K I I M M T T T T T T T T T T T T T Y T Y M M M M M M M M M M M M M M T B B B T T B B T ^ ^ ^ ^ ^ _ _ _ _ _ ' ' ' ' [ ' [ ' [ ' [ [ _ _ _ _ ^ ^ D T T T Y Y Y M M M b b b b b b b K K L L b b b b b b M P M M M M Y Y T T ^ ^ T M M n n n c n b M M M Y T R T T T M M b b V M V V N S j                                                                                                                                                                                                                                                                                                                                                                           ",
"                                                                                                                                                                                                                                                                                                                    j m k k a s s l l l v v n n n n n n n v v v v v b b b K M M M M M I I I I I I I M I M I M M M M M M M b b b M M M M M M M M M M M M B T T B T ^ ^ ^ ^ ^ _ _ _ _ _ _ _ _ _ / _ / _ / _ _ _ ^ ^ ^ T T T Y M M M M b b b b b b b b b b b b L L K L L b K P Y Y Y Y M M T T T ^ _ _ ^ D N N V n n M T R / / ^ ^ ^ ^ B M M V V V V V S A                                                                                                                                                                                                                                                                                                                                                                                 ",
"                                                                                                                                                                                                                                                                                                                        j m V k l l l l l v v v n n v n v n n v v v v v b b b M I M M M M M M M M M M M M M M b M b b b b b b b b b b b b M M M M M M M M M B B B B B T ^ ^ ^ ^ ^ ^ ^ ^ _ _ ^ ^ / / ^ ^ ^ ^ ^ ^ T T B T Y Y M b b b b b b b b v b b b b b b v v K K K K P W W W W Y T T T T / / ) ' ) _ / D B N T T R T B B B B B B B M M B B N S m                                                                                                                                                                                                                                                                                                                                                                                     ",
"                                                                                                                                                                                                                                                                                                                              x k l l l l c c s c f c v n n v n v v b v v n b b b M b K b b b b K b M b b b b b b b b b b b b b b b b b b b M M M M M M M M B B B M B T T ^ T ^ ^ ^ ^ ^ ^ ^ ^ ^ ^ ^ T T T T T T T T Y M I K K L b b b v v v v v v v v v v v L K K L n c f c v v n b T R T T T / ^ / / / 1.1._ ^ ^ ^ B B M M M M M B B N D D A                                                                                                                                                                                                                                                                                                                                                                                           ",
"                                                                                                                                                                                                                                                                                                                                  j x m k k k c c f s c v v v v v v v v b v b b b b b b b b b b b b b b b b b b b b b b b b b b b b b b b b M M M M M M M M B B M M M I T T T ^ T T T ^ ^ T T T T T T T T T T Y Y I I I K L b b b b b v v v v v v v v v v v v v v s a a a s l c n b M M T T T T B B B B D D ^ _ N N B B B M b V B D D S A                                                                                                                                                                                                                                                                                                                                                                                               ",
"                                                                                                                                                                                                                                                                                                                                        j m k g g f f f l l l l c c c n b b v v v b b v b b b b b b b b b b b b b b b b b b b b b b b b M M M M M M M M M M B B M M M B T T T T T T T T T T T T T T T Y Y I I I I b K b K b b v v v v v n v v v v v v v v v v f a a a a a a s f v v b M Y T T B B M M M T T T M N N N V V n M B A A                                                                                                                                                                                                                                                                                                                                                                                                     ",
"                                                                                                                                                                                                                                                                                                                                              j k k k k l l n n n n n v v v v v n n v v v b b b b b b b b b b b b b b b b b b b b b b b M M M M M M M M M M B B M M B B T T T T T T T T I I T B Y M M M M M I K b b b b b b v v v v v v v v v v v v v v v v f a a a a a a s f c v v v b M T T T T T T T T T M N I N x m S S x                                                                                                                                                                                                                                                                                                                                                                                                           ",
"                                                                                                                                                                                                                                                                                                                                                    x m k k a s k k k k k c v n n n n n v b b b b b b b b b b b b b b b b b v b b b b b b M M M M M M M M I U U I B T B T T T T T B B B B B M M M M M M M b b b b b b b v v v v v v v v v v v v v v v v v v s a a a a a s s f c c c c v n b I M N N ^ T M b n c k m m J                                                                                                                                                                                                                                                                                                                                                                                                                 ",
"                                                                                                                                                                                                                                                                                                                                                          j k k k x m n c c c v c c v n n n n n n n n n n n n n b b b b b b v b b b b b b b M M M M M M M M N N B B B B B B T T B B B B M M M M M b b b b b b b v v n n v n v v v v v v f f v v v v v v v s a a a a a a s s f f c c l c c c n n N N N m V N m m m                                                                                                                                                                                                                                                                                                                                                                                                                       ",
"                                                                                                                                                                                                                                                                                                                                                                  j x k k k l l c c c c c c n v v v v v v v v v b v v v n n n n n n n b n b b b b M M M M M M M B B B B N N N N N N B M N M N M b b b b n n n n n n n v f f f f v v c c s s s s f s s s s a a a a a a a s s s s s s l l l c c n c k m N m                                                                                                                                                                                                                                                                                                                                                                                                                               ",
"                                                                                                                                                                                                                                                                                                                                                                          x x x k k c c c c c c v v v v v v v v v v n n v v v v n b n b n b b b n n M M M M M N N N M B B B N M B M M N M M n M n n n n v v v v v v c c f f f f f f f s s s s s s a a s a a d a a a a a s s s s l l l l n N N N m m                                                                                                                                                                                                                                                                                                                                                                                                                                     ",
"                                                                                                                                                                                                                                                                                                                                                                                  x m m m k c c c c c c c c c n c n n n n v v v c v v v n v n V V N n n n N N N N N N N N N M M M M M V V V n n c c c c c v v v f f f f f f f s f s s s s s a a a a a a d d d a a a s s a s k k l x m m S A                                                                                                                                                                                                                                                                                                                                                                                                                                             ",
"                                                                                                                                                                                                                                                                                                                                                                                          j x m k k m m k k k c c c c c c c v n c v v v v v n n n n n n n n n n n n n N N M M M b V n n n n n c n v c c c s s s v f f s f s s s s s a a a a s s a a a a a a a a s s k k k k m m x j                                                                                                                                                                                                                                                                                                                                                                                                                                                     ",
"                                                                                                                                                                                                                                                                                                                                                                                                  < j J m m k k k k g g g g c c c c c c c c c c c c v v n n n b b b n n n n n n n n n n c c c l l l l l l v v v s s a a s s s s a s a a a a a a a a a a a a a a x x x j j                                                                                                                                                                                                                                                                                                                                                                                                                                                               ",
"                                                                                                                                                                                                                                                                                                                                                                                                              j x m m m m k k k k c c c c c c c c c v c c c c l l l l l l l n n l n c c c c c l l l l s s s s a s s s a s s a a a a l l k k k k k k k x j j h                                                                                                                                                                                                                                                                                                                                                                                                                                                                           ",
"                                                                                                                                                                                                                                                                                                                                                                                                                          j j J m N N V V m m c c V V n n v v n n n n n n n n n l l c c c c l l s s f f f f f f s s s s l s s a a k k k k k j j                                                                                                                                                                                                                                                                                                                                                                                                                                                                                         ",
"                                                                                                                                                                                                                                                                                                                                                                                                                                          j J A A A S A N N N N m m m m m N N N m N N N N V m m k k k m m k k k m m k k x k j j                                                                                                                                                                                                                                                                                                                                                                                                                                                                                                         ",
"                                                                                                                                                                                                                                                                                                                                                                                                                                                                                                                                                                                                                                                                                                                                                                                                                                                                                                                                                                                                                                        ",
"                                                                                                                                                                                                                                                                                                                                                                                                                                                                                                                                                                                                                                                                                                                                                                                                                                                                                                                                                                                                                                        ",
"                                                                                                                                                                                                                                                                                                                                                                                                                                                                                                                                                                                                                                                                                                                                                                                                                                                                                                                                                                                                                                        ",
"                                                                                                                                                                                                                                                                                                                                                                                                                                                                                                                                                                                                                                                                                                                                                                                                                                                                                                                                                                                                                                        ",
"                                                                                                                                                                                                                                                                                                                                                                                                                                                                                                                                                                                                                                                                                                                                                                                                                                                                                                                                                                                                                                        ",
"                                                                                                                                                                                                                                                                                                                                                                                                                                                                                                                                                                                                                                                                                                                                                                                                                                                                                                                                                                                                                                        ",
"                                                                                                                                                                                                                                                                                                                                                                                                                                                                                                                                                                                                                                                                                                                                                                                                                                                                                                                                                                                                                                        ",
"                                                                                                                                                                                                                                                                                                                                                                                                                                                                                                                                                                                                                                                                                                                                                                                                                                                                                                                                                                                                                                        ",
"                                                                                                                                                                                                                                                                                                                                                                                                                                                                                                                                                                                                                                                                                                                                                                                                                                                                                                                                                                                                                                        ",
"                                                                                                                                                                                                                                                                                                                                                                                                                                                                                                                                                                                                                                                                                                                                                                                                                                                                                                                                                                                                                                        ",
"                                                                                                                                                                                                                                                                                                                                                                                                                                                                                                                                                                                                                                                                                                                                                                                                                                                                                                                                                                                                                                        ",
"                                                                                                                                                                                                                                                                                                                                                                                                                                                                                                                                                                                                                                                                                                                                                                                                                                                                                                                                                                                                                                        ",
"                                                                                                                                                                                                                                                                                                                                                                                                                                                                                                                                                                                                                                                                                                                                                                                                                                                                                                                                                                                                                                        ",
"                                                                                                                                                                                                                                                                                                                                                                                                                                                                                                                                                                                                                                                                                                                                                                                                                                                                                                                                                                                                                                        ",
"                                                                                                                                                                                                                                                                                                                                                                                                                                                                                                                                                                                                                                                                                                                                                                                                                                                                                                                                                                                                                                        ",
"                                                                                                                                                                                                                                                                                                                                                                                                                                                                                                                                                                                                                                                                                                                                                                                                                                                                                                                                                                                                                                        ",
"                                                                                                                                                                                                                                                                                                                                                                                                                                                                                                                                                                                                                                                                                                                                                                                                                                                                                                                                                                                                                                        ",
"                                                                                                                                                                                                                                                                                                                                                                                                                                                                                                                                                                                                                                                                                                                                                                                                                                                                                                                                                                                                                                        ",
"                                                                                                                                                                                                                                                                                                                                                                                                                                                                                                                                                                                                                                                                                                                                                                                                                                                                                                                                                                                                                                        ",
"                                                                                                                                                                                                                                                                                                                                                                                                                                                                                                                                                                                                                                                                                                                                                                                                                                                                                                                                                                                                                                        ",
"                                                                                                                                                                                                                                                                                                                                                                                                                                                                                                                                                                                                                                                                                                                                                                                                                                                                                                                                                                                                                                        ",
"                                                                                                                                                                                                                                                                                                                                                                                                                                                                                                                                                                                                                                                                                                                                                                                                                                                                                                                                                                                                                                        ",
"                                                                                                                                                                                                                                                                                                                                                                                                                                                                                                                                                                                                                                                                                                                                                                                                                                                                                                                                                                                                                                        ",
"                                                                                                                                                                                                                                                                                                                                                                                                                                                                                                                                                                                                                                                                                                                                                                                                                                                                                                                                                                                                                                        ",
"                                                                                                                                                                                                                                                                                                                                                                                                                                                                                                                                                                                                                                                                                                                                                                                                                                                                                                                                                                                                                                        ",
"                                                                                                                                                                                                                                                                                                                                                                                                                                                                                                                                                                                                                                                                                                                                                                                                                                                                                                                                                                                                                                        ",
"                                                                                                                                                                                                                                                                                                                                                                                                                                                                                                                                                                                                                                                                                                                                                                                                                                                                                                                                                                                                                                        ",
"                                                                                                                                                                                                                                                                                                                                                                                                                                                                                                                                                                                                                                                                                                                                                                                                                                                                                                                                                                                                                                        ",
"                                                                                                                                                                                                                                                                                                                                                                                                                                                                                                                                                                                                                                                                                                                                                                                                                                                                                                                                                                                                                                        ",
"                                                                                                                                                                                                                                                                                                                                                                                                                                                                                                                                                                                                                                                                                                                                                                                                                                                                                                                                                                                                                                        "
};
